P3
800 600
255
153 178 205 153 178 205 153 178 205 153 178 205 153 178 205 153 178 205 153 178 205 153 178 205 153 178 205 153 178 205 153 178 205 153 178 205 153 178 205 153 178 205 153 178 205 153 178 205 153 178 205 153 178 205 153 178 205 153 178 205 153 179 205 153 179 205 153 179 205 153 179 205 153 179 205 153 179 205 153 179 205 153 179 205 153 179 205 153 179 205 153 179 205 153 179 205 154 179 205 154 179 205 154 179 205 154 179 205 154 179 205 154 179 205 154 179 205 154 179 205 154 179 205 154 179 205 154 179 205 154 179 205 154 179 205 154 179 205 154 179 205 154 179 205 154 179 205 154 179 205 154 179 205 154 179 205 154 179 205 154 179 205 154 179 205 154 179 205 154 179 205 154 179 205 154 179 205 154 179 205 154 179 205 154 179 205 154 179 206 154 179 206 154 179 206 154 179 206 154 179 206 154 179 206 154 179 206 154 179 206 154 179 206 154 179 206 154 179 206 154 179 206 154 179 206 154 179 206 154 179 206 154 179 206 154 179 206 154 179 206 154 179 206 154 179 206 154 179 206 154 179 206 154 179 206 154 179 206 154 179 206 154 179 206 154 179 206 154 179 206 154 179 206 154 179 206 154 179 206 154 179 206 154 179 206 154 179 206 154 179 206 154 179 206 154 179 206 154 179 206 154 179 206 154 179 206 154 179 206 154 179 206 154 179 206 154 179 206 154 179 206 154 179 206 154 179 206 154 179 206 154 179 206 154 179 206 154 179 206 154 179 206 154 179 206 154 179 206 154 179 206 154 179 206 154 179 206 154 179 206 154 179 206 154 179 206 154 179 206 154 179 206 154 179 206 154 179 206 154 179 206 154 179 206 154 179 206 154 179 206 154 179 206 154 179 206 154 179 206 154 179 206 154 179 206 154 179 206 154 179 206 154 179 206 154 179 206 154 179 206 154 179 206 154 179 206 154 179 206 154 179 206 154 179 206 154 179 206 154 179 206 154 179 206 154 179 206 154 179 206 154 179 206 154 179 206 154 179 206 154 179 206 154 179 206 154 179 206 154 179 206 154 179 206 154 179 206 154 179 206 154 179 206 154 179 206 154 179 206 154 179 206 154 179 206 154 179 206 154 179 206 154 179 206 154 179 206 154 179 206 154 179 206 154 179 206 154 179 206 154 179 206 154 179 206 154 179 206 154 179 206 154 179 206 154 179 206 154 179 206 154 179 206 154 179 206 154 179 206 154 179 206 154 179 206 154 179 206 154 179 206 154 179 206 154 179 206 154 179 206 154 179 206 154 179 206 154 179 206 154 179 206 154 179 206 154 179 206 154 179 206 154 179 206 154 179 206 154 179 206 154 179 206 154 179 206 154 179 206 154 179 206 154 179 206 154 179 206 154 179 206 154 179 206 154 179 206 154 179 206 154 179 206 154 179 206 154 179 206 154 179 206 154 179 206 154 179 206 154 179 206 154 179 206 154 179 206 154 179 206 154 179 206 154 179 206 154 179 206 154 179 206 154 179 206 154 179 206 154 179 206 154 179 206 154 179 206 154 179 206 154 179 206 154 179 206 154 179 206 154 179 206 154 179 206 154 179 206 154 179 206 154 179 206 154 179 206 154 179 206 154 179 206 154 179 206 154 179 206 154 179 206 154 179 206 154 179 206 154 179 206 154 179 206 154 179 206 154 179 206 154 179 206 154 179 206 154 179 206 154 179 206 154 179 206 154 179 206 154 179 206 154 179 206 154 179 206 154 179 206 154 179 206 154 179 206 154 179 206 154 179 206 154 179 206 154 180 206 154 180 206 154 180 206 154 180 206 154 180 206 154 180 206 154 180 206 154 180 206 154 180 206 154 180 206 154 180 206 154 180 206 154 180 206 154 180 206 154 180 206 154 180 206 154 180 206 154 180 206 154 180 206 154 180 206 154 180 206 154 180 206 154 180 206 154 180 206 154 180 206 154 180 206 154 180 206 154 180 206 154 180 206 154 180 206 154 180 206 154 180 206 154 180 206 154 180 206 154 180 206 154 180 206 154 180 206 154 180 206 154 180 206 154 180 206 154 180 206 154 180 206 154 180 206 154 180 206 154 180 206 154 180 206 154 180 206 154 180 206 154 180 206 154 180 206 154 180 206 154 180 206 154 180 206 154 180 206 154 180 206 154 180 206 154 180 206 154 180 206 154 180 206 154 180 206 154 180 206 154 180 206 154 180 206 154 180 206 154 180 206 154 180 206 154 180 206 154 180 206 154 180 206 154 180 206 154 180 206 154 180 206 154 180 206 154 180 206 154 180 206 154 180 206 154 180 206 154 180 206 154 180 206 154 180 206 154 180 206 154 180 206 154 180 206 154 180 206 154 180 206 154 180 206 154 180 206 154 180 206 154 180 206 154 180 206 154 180 206 154 180 206 154 180 206 154 180 206 154 180 206 154 180 206 154 180 206 154 180 206 154 180 206 154 180 206 154 180 206 154 180 206 154 180 207 154 180 207 154 180 206 154 180 207 154 180 206 154 180 207 154 180 206 154 180 207 154 180 207 154 180 207 154 180 207 154 180 207 154 180 206 154 180 207 154 180 207 154 180 207 154 180 207 154 180 207 154 180 207 154 180 207 154 180 207 154 180 207 154 180 207 154 180 207 154 180 207 154 180 207 154 180 207 154 180 207 154 180 207 154 180 207 154 180 207 154 180 207 154 180 206 154 180 207 154 180 206 154 180 207 154 180 207 154 180 207 154 180 207 154 180 207 154 180 207 154 180 207 154 180 207 154 180 207 154 180 207 154 180 207 154 180 207 154 180 207 154 180 207 154 180 207 154 180 207 154 180 206 154 180 207 154 180 207 154 180 207 154 180 206 154 180 207 154 180 207 154 180 207 154 180 207 154 180 206 154 180 207 154 180 207 154 180 207 154 180 206 154 180 206 154 180 206 154 180 206 154 180 207 154 180 206 154 180 206 154 180 206 154 180 206 154 180 206 154 180 206 154 180 206 154 180 206 154 180 206 154 180 206 154 180 206 154 180 206 154 180 206 154 180 206 154 180 206 154 180 206 154 180 206 154 180 206 154 180 206 154 180 206 154 180 206 154 180 206 154 180 206 154 180 206 154 180 206 154 180 206 154 180 206 154 180 206 154 180 206 154 180 206 154 180 206 154 180 206 154 180 206 154 180 206 154 180 206 154 180 206 154 180 206 154 180 206 154 180 206 154 180 206 154 180 206 154 180 206 154 180 206 154 180 206 154 180 206 154 180 206 154 180 206 154 180 206 154 180 206 154 180 206 154 180 206 154 180 206 154 180 206 154 180 206 154 180 206 154 180 206 154 180 206 154 180 206 154 180 206 154 180 206 154 180 206 154 180 206 154 180 206 154 180 206 154 180 206 154 180 206 154 180 206 154 180 206 154 180 206 154 180 206 154 180 206 154 180 206 154 180 206 154 180 206 154 180 206 154 180 206 154 180 206 154 180 206 154 180 206 154 180 206 154 180 206 154 180 206 154 180 206 154 180 206 154 180 206 154 180 206 154 180 206 154 180 206 154 180 206 154 180 206 154 180 206 154 180 206 154 180 206 154 180 206 154 180 206 154 180 206 154 180 206 154 180 206 154 179 206 154 179 206 154 179 206 154 179 206 154 179 206 154 179 206 154 179 206 154 179 206 154 179 206 154 179 206 154 179 206 154 179 206 154 179 206 154 179 206 154 179 206 154 179 206 154 179 206 154 179 206 154 179 206 154 179 206 154 179 206 154 179 206 154 179 206 154 179 206 154 179 206 154 179 206 154 179 206 154 179 206 154 179 206 154 179 206 154 179 206 154 179 206 154 179 206 154 179 206 154 179 206 154 179 206 154 179 206 154 179 206 154 179 206 154 179 206 154 179 206 154 179 206 154 179 206 154 179 206 154 179 206 154 179 206 154 179 206 154 179 206 154 179 206 154 179 206 154 179 206 154 179 206 154 179 206 154 179 206 154 179 206 154 179 206 154 179 206 154 179 206 154 179 206 154 179 206 154 179 206 154 179 206 154 179 206 154 179 206 154 179 206 154 179 206 154 179 206 154 179 206 154 179 206 154 179 206 154 179 206 154 179 206 154 179 206 154 179 206 154 179 206 154 179 206 154 179 206 154 179 206 154 179 206 154 179 206 154 179 206 154 179 206 154 179 206 154 179 206 154 179 206 154 179 206 154 179 206 154 179 206 154 179 206 154 179 206 154 179 206 154 179 206 154 179 206 154 179 206 154 179 206 154 179 206 154 179 206 154 179 206 154 179 206 154 179 206 154 179 206 154 179 206 154 179 206 154 179 206 154 179 206 154 179 206 154 179 206 154 179 206 154 179 206 154 179 206 154 179 206 154 179 206 154 179 206 154 179 206 154 179 206 154 179 206 154 179 206 154 179 206 154 179 206 154 179 206 154 179 206 154 179 206 154 179 206 154 179 206 154 179 206 154 179 206 154 179 206 154 179 206 154 179 206 154 179 206 154 179 206 154 179 206 154 179 206 154 179 206 154 179 206 154 179 206 154 179 206 154 179 206 154 179 206 154 179 206 154 179 206 154 179 206 154 179 206 154 179 206 154 179 206 154 179 206 154 179 206 154 179 206 154 179 206 154 179 206 154 179 206 154 179 206 154 179 206 154 179 206 154 179 206 154 179 206 154 179 206 154 179 206 154 179 206 154 179 206 154 179 206 154 179 206 154 179 206 154 179 206 154 179 206 154 179 206 154 179 206 154 179 206 154 179 206 154 179 206 154 179 206 154 179 206 154 179 206 154 179 206 154 179 206 154 179 206 154 179 206 154 179 206 154 179 206 154 179 206 154 179 206 154 179 206 154 179 206 154 179 206 154 179 206 154 179 206 154 179 206 154 179 206 154 179 206 154 179 206 154 179 206 154 179 206 154 179 206 154 179 206 154 179 206 154 179 206 154 179 206 154 179 206 154 179 206 154 179 206 154 179 206 154 179 206 154 179 206 154 179 206 154 179 205 154 179 205 154 179 205 154 179 205 154 179 205 154 179 205 154 179 205 154 179 205 154 179 205 154 179 205 154 179 205 154 179 205 154 179 205 154 179 205 154 179 205 154 179 205 154 179 205 154 179 205 154 179 205 154 179 205 154 179 205 154 179 205 154 179 205 154 179 205 154 179 205 154 179 205 154 179 205 154 179 205 154 179 205 153 179 205 153 179 205 153 179 205 153 179 205 153 179 205 153 179 205 153 179 205 153 179 205 153 179 205 153 179 205 153 179 205 153 179 205 153 179 205 153 178 205 153 178 205 153 178 205 153 178 205 153 178 205 153 178 205 153 178 205 153 178 205 153 178 205 153 178 205 153 178 205 153 178 205 153 178 205 153 178 205 153 178 205 153 178 205 153 178 205 153 178 205 153 178 205 153 178 205 
153 178 205 153 178 205 153 178 205 153 178 205 153 178 205 153 178 205 153 178 205 153 178 205 153 178 205 153 178 205 153 178 205 153 178 205 153 178 205 153 178 205 153 178 205 153 178 205 153 178 205 153 178 205 153 178 205 153 178 205 153 178 205 153 178 205 153 178 205 153 178 205 153 178 205 153 178 205 153 179 205 153 179 205 153 179 205 153 179 205 153 179 205 153 179 205 153 179 205 153 179 205 153 179 205 153 179 205 153 179 205 153 179 205 153 179 205 154 179 205 153 179 205 154 179 205 154 179 205 154 179 205 154 179 205 154 179 205 154 179 205 154 179 205 154 179 205 154 179 205 154 179 205 154 179 205 154 179 205 154 179 205 154 179 205 154 179 205 154 179 205 154 179 205 154 179 205 154 179 205 154 179 205 154 179 205 154 179 205 154 179 205 154 179 205 154 179 205 154 179 205 154 179 205 154 179 205 154 179 206 154 179 206 154 179 206 154 179 206 154 179 206 154 179 206 154 179 206 154 179 206 154 179 206 154 179 206 154 179 206 154 179 206 154 179 206 154 179 206 154 179 206 154 179 206 154 179 206 154 179 206 154 179 206 154 179 206 154 179 206 154 179 206 154 179 206 154 179 206 154 179 206 154 179 206 154 179 206 154 179 206 154 179 206 154 179 206 154 179 206 154 179 206 154 179 206 154 179 206 154 179 206 154 179 206 154 179 206 154 179 206 154 179 206 154 179 206 154 179 206 154 179 206 154 179 206 154 179 206 154 179 206 154 179 206 154 179 206 154 179 206 154 179 206 154 179 206 154 179 206 154 179 206 154 179 206 154 179 206 154 179 206 154 179 206 154 179 206 154 179 206 154 179 206 154 179 206 154 179 206 154 179 206 154 179 206 154 179 206 154 179 206 154 179 206 154 179 206 154 179 206 154 179 206 154 179 206 154 179 206 154 179 206 154 179 206 154 179 206 154 179 206 154 179 206 154 179 206 154 179 206 154 179 206 154 179 206 154 179 206 154 179 206 154 179 206 154 179 206 154 179 206 154 179 206 154 179 206 154 179 206 154 179 206 154 179 206 154 179 206 154 179 206 154 179 206 154 179 206 154 179 206 154 179 206 154 179 206 154 179 206 154 179 206 154 179 206 154 179 206 154 179 206 154 179 206 154 179 206 154 179 206 154 179 206 154 179 206 154 179 206 154 179 206 154 179 206 154 179 206 154 179 206 154 179 206 154 179 206 154 179 206 154 179 206 154 179 206 154 179 206 154 179 206 154 179 206 154 179 206 154 179 206 154 179 206 154 179 206 154 179 206 154 179 206 154 179 206 154 179 206 154 179 206 154 179 206 154 179 206 154 179 206 154 179 206 154 179 206 154 179 206 154 179 206 154 179 206 154 179 206 154 179 206 154 179 206 154 179 206 154 179 206 154 179 206 154 179 206 154 179 206 154 179 206 154 179 206 154 179 206 154 179 206 154 179 206 154 179 206 154 179 206 154 179 206 154 179 206 154 179 206 154 179 206 154 179 206 154 179 206 154 179 206 154 179 206 154 179 206 154 179 206 154 179 206 154 179 206 154 179 206 154 179 206 154 179 206 154 179 206 154 179 206 154 179 206 154 179 206 154 179 206 154 179 206 154 179 206 154 179 206 154 179 206 154 179 206 154 179 206 154 179 206 154 179 206 154 179 206 154 179 206 154 179 206 154 179 206 154 179 206 154 179 206 154 179 206 154 179 206 154 179 206 154 179 206 154 179 206 154 179 206 154 179 206 154 179 206 154 179 206 154 179 206 154 179 206 154 179 206 154 179 206 154 179 206 154 179 206 154 179 206 154 179 206 154 179 206 154 179 206 154 179 206 154 179 206 154 179 206 154 179 206 154 179 206 154 179 206 154 179 206 154 180 206 154 179 206 154 179 206 154 179 206 154 180 206 154 180 206 154 180 206 154 180 206 154 180 206 154 180 206 154 180 206 154 180 206 154 180 206 154 180 206 154 180 206 154 180 206 154 180 206 154 180 206 154 180 206 154 180 206 154 180 206 154 180 206 154 180 206 154 180 206 154 180 206 154 180 206 154 180 206 154 180 206 154 180 206 154 180 206 154 180 206 154 180 206 154 180 206 154 180 206 154 180 206 154 180 206 154 180 206 154 180 206 154 180 206 154 180 206 154 180 206 154 180 206 154 180 206 154 180 206 154 180 206 154 180 206 154 180 206 154 180 206 154 180 206 154 180 206 154 180 206 154 180 206 154 180 206 154 180 206 154 180 206 154 180 206 154 180 206 154 180 206 154 180 206 154 180 206 154 180 206 154 180 206 154 180 206 154 180 206 154 180 206 154 180 206 154 180 206 154 180 206 154 180 206 154 180 206 154 180 206 154 180 206 154 180 206 154 180 206 154 180 206 154 180 206 154 180 206 154 180 206 154 180 206 154 180 206 154 180 206 154 180 206 154 180 206 154 180 206 154 180 206 154 180 206 154 180 206 154 180 206 154 180 206 154 180 206 154 180 206 154 180 206 154 180 206 154 180 206 154 180 206 154 180 206 154 180 206 154 180 206 154 180 206 154 180 206 154 180 206 154 180 206 154 180 206 154 180 206 154 180 206 154 180 206 154 180 206 154 180 206 154 180 206 154 180 206 154 180 206 154 180 206 154 180 206 154 180 206 154 180 206 154 180 206 154 180 206 154 180 206 154 180 206 154 180 206 154 180 206 154 180 206 154 180 206 154 180 206 154 180 206 154 180 206 154 180 206 154 180 206 154 180 206 154 180 206 154 180 206 154 180 206 154 180 206 154 180 206 154 180 206 154 180 206 154 180 206 154 180 206 154 180 206 154 180 206 154 180 206 154 180 206 154 180 206 154 180 206 154 180 206 154 180 206 154 180 206 154 180 206 154 180 206 154 180 206 154 180 206 154 180 206 154 180 206 154 180 206 154 180 206 154 180 206 154 180 206 154 180 206 154 180 206 154 180 206 154 180 206 154 180 206 154 180 206 154 180 206 154 180 206 154 180 206 154 180 206 154 180 206 154 180 206 154 180 206 154 180 206 154 180 206 154 180 206 154 180 206 154 180 206 154 180 206 154 180 206 154 180 206 154 180 206 154 180 206 154 180 206 154 180 206 154 180 206 154 180 206 154 180 206 154 180 206 154 180 206 154 180 206 154 180 206 154 180 206 154 180 206 154 180 206 154 180 206 154 180 206 154 180 206 154 180 206 154 180 206 154 180 206 154 180 206 154 180 206 154 180 206 154 180 206 154 180 206 154 180 206 154 180 206 154 180 206 154 180 206 154 180 206 154 180 206 154 180 206 154 180 206 154 180 206 154 180 206 154 180 206 154 180 206 154 180 206 154 180 206 154 180 206 154 180 206 154 180 206 154 180 206 154 180 206 154 180 206 154 180 206 154 180 206 154 180 206 154 180 206 154 180 206 154 180 206 154 180 206 154 180 206 154 180 206 154 180 206 154 180 206 154 180 206 154 180 206 154 180 206 154 179 206 154 179 206 154 179 206 154 179 206 154 179 206 154 179 206 154 179 206 154 179 206 154 179 206 154 179 206 154 179 206 154 179 206 154 179 206 154 179 206 154 179 206 154 179 206 154 179 206 154 179 206 154 179 206 154 179 206 154 179 206 154 179 206 154 179 206 154 179 206 154 179 206 154 179 206 154 179 206 154 179 206 154 179 206 154 179 206 154 179 206 154 179 206 154 179 206 154 179 206 154 179 206 154 179 206 154 179 206 154 179 206 154 179 206 154 179 206 154 179 206 154 179 206 154 179 206 154 179 206 154 179 206 154 179 206 154 179 206 154 179 206 154 179 206 154 179 206 154 179 206 154 179 206 154 179 206 154 179 206 154 179 206 154 179 206 154 179 206 154 179 206 154 179 206 154 179 206 154 179 206 154 179 206 154 179 206 154 179 206 154 179 206 154 179 206 154 179 206 154 179 206 154 179 206 154 179 206 154 179 206 154 179 206 154 179 206 154 179 206 154 179 206 154 179 206 154 179 206 154 179 206 154 179 206 154 179 206 154 179 206 154 179 206 154 179 206 154 179 206 154 179 206 154 179 206 154 179 206 154 179 206 154 179 206 154 179 206 154 179 206 154 179 206 154 179 206 154 179 206 154 179 206 154 179 206 154 179 206 154 179 206 154 179 206 154 179 206 154 179 206 154 179 206 154 179 206 154 179 206 154 179 206 154 179 206 154 179 206 154 179 206 154 179 206 154 179 206 154 179 206 154 179 206 154 179 206 154 179 206 154 179 206 154 179 206 154 179 206 154 179 206 154 179 206 154 179 206 154 179 206 154 179 206 154 179 206 154 179 206 154 179 206 154 179 206 154 179 206 154 179 206 154 179 206 154 179 206 154 179 206 154 179 206 154 179 206 154 179 206 154 179 206 154 179 206 154 179 206 154 179 206 154 179 206 154 179 206 154 179 206 154 179 206 154 179 206 154 179 206 154 179 206 154 179 206 154 179 206 154 179 206 154 179 206 154 179 206 154 179 206 154 179 206 154 179 206 154 179 206 154 179 206 154 179 206 154 179 206 154 179 206 154 179 206 154 179 206 154 179 206 154 179 206 154 179 206 154 179 206 154 179 206 154 179 206 154 179 206 154 179 206 154 179 206 154 179 206 154 179 206 154 179 206 154 179 206 154 179 206 154 179 206 154 179 206 154 179 206 154 179 206 154 179 206 154 179 206 154 179 206 154 179 206 154 179 206 154 179 206 154 179 206 154 179 206 154 179 206 154 179 206 154 179 206 154 179 206 154 179 206 154 179 206 154 179 206 154 179 206 154 179 206 154 179 206 154 179 206 154 179 206 154 179 206 154 179 206 154 179 206 154 179 206 154 179 206 154 179 206 154 179 206 154 179 206 154 179 206 154 179 206 154 179 206 154 179 206 154 179 206 154 179 206 154 179 206 154 179 205 154 179 206 154 179 205 154 179 205 154 179 205 154 179 205 154 179 205 154 179 205 154 179 205 154 179 205 154 179 205 154 179 205 154 179 205 154 179 205 154 179 205 154 179 205 154 179 205 154 179 205 154 179 205 154 179 205 154 179 205 154 179 205 154 179 205 154 179 205 154 179 205 154 179 205 154 179 205 154 179 205 154 179 205 153 179 205 153 179 205 153 179 205 153 179 205 153 179 205 153 179 205 153 179 205 153 179 205 153 179 205 153 179 205 153 179 205 153 179 205 153 179 205 153 179 205 153 178 205 153 178 205 153 178 205 153 178 205 153 178 205 153 178 205 153 178 205 153 178 205 153 178 205 153 178 205 153 178 205 153 178 205 153 178 205 153 178 205 153 178 205 153 178 205 153 178 205 153 178 205 153 178 205 153 178 205 153 178 205 153 178 205 153 178 205 153 178 205 153 178 205 153 178 205 
153 178 205 153 178 205 153 178 205 153 178 205 153 178 205 153 178 205 153 178 205 153 178 205 153 178 205 153 178 205 153 178 205 153 178 205 153 178 205 153 178 205 153 178 205 153 178 205 153 178 205 153 178 205 153 178 205 153 178 205 153 178 205 153 178 205 153 178 205 153 178 205 153 178 205 153 178 205 153 178 205 153 178 205 153 178 205 153 178 205 153 178 205 153 178 205 153 178 205 153 178 205 153 179 205 153 179 205 153 179 205 153 179 205 153 179 205 153 179 205 153 179 205 153 179 205 153 179 205 153 179 205 153 179 205 153 179 205 153 179 205 154 179 205 154 179 205 154 179 205 154 179 205 154 179 205 154 179 205 154 179 205 154 179 205 154 179 205 154 179 205 154 179 205 154 179 205 154 179 205 154 179 205 154 179 205 154 179 205 154 179 205 154 179 205 154 179 205 154 179 205 154 179 205 154 179 205 154 179 205 154 179 205 154 179 205 154 179 205 154 179 205 154 179 205 154 179 206 154 179 206 154 179 205 154 179 206 154 179 206 154 179 206 154 179 206 154 179 206 154 179 206 154 179 206 154 179 206 154 179 206 154 179 206 154 179 206 154 179 206 154 179 206 154 179 206 154 179 206 154 179 206 154 179 206 154 179 206 154 179 206 154 179 206 154 179 206 154 179 206 154 179 206 154 179 206 154 179 206 154 179 206 154 179 206 154 179 206 154 179 206 154 179 206 154 179 206 154 179 206 154 179 206 154 179 206 154 179 206 154 179 206 154 179 206 154 179 206 154 179 206 154 179 206 154 179 206 154 179 206 154 179 206 154 179 206 154 179 206 154 179 206 154 179 206 154 179 206 154 179 206 154 179 206 154 179 206 154 179 206 154 179 206 154 179 206 154 179 206 154 179 206 154 179 206 154 179 206 154 179 206 154 179 206 154 179 206 154 179 206 154 179 206 154 179 206 154 179 206 154 179 206 154 179 206 154 179 206 154 179 206 154 179 206 154 179 206 154 179 206 154 179 206 154 179 206 154 179 206 154 179 206 154 179 206 154 179 206 154 179 206 154 179 206 154 179 206 154 179 206 154 179 206 154 179 206 154 179 206 154 179 206 154 179 206 154 179 206 154 179 206 154 179 206 154 179 206 154 179 206 154 179 206 154 179 206 154 179 206 154 179 206 154 179 206 154 179 206 154 179 206 154 179 206 154 179 206 154 179 206 154 179 206 154 179 206 154 179 206 154 179 206 154 179 206 154 179 206 154 179 206 154 179 206 154 179 206 154 179 206 154 179 206 154 179 206 154 179 206 154 179 206 154 179 206 154 179 206 154 179 206 154 179 206 154 179 206 154 179 206 154 179 206 154 179 206 154 179 206 154 179 206 154 179 206 154 179 206 154 179 206 154 179 206 154 179 206 154 179 206 154 179 206 154 179 206 154 179 206 154 179 206 154 179 206 154 179 206 154 179 206 154 179 206 154 179 206 154 179 206 154 179 206 154 179 206 154 179 206 154 179 206 154 179 206 154 179 206 154 179 206 154 179 206 154 179 206 154 179 206 154 179 206 154 179 206 154 179 206 154 179 206 154 179 206 154 179 206 154 179 206 154 179 206 154 179 206 154 179 206 154 179 206 154 179 206 154 179 206 154 179 206 154 179 206 154 179 206 154 179 206 154 179 206 154 179 206 154 179 206 154 179 206 154 179 206 154 179 206 154 179 206 154 179 206 154 179 206 154 179 206 154 179 206 154 179 206 154 179 206 154 179 206 154 179 206 154 179 206 154 179 206 154 179 206 154 179 206 154 179 206 154 179 206 154 179 206 154 179 206 154 179 206 154 179 206 154 179 206 154 179 206 154 179 206 154 179 206 154 179 206 154 179 206 154 179 206 154 179 206 154 179 206 154 179 206 154 179 206 154 179 206 154 179 206 154 179 206 154 179 206 154 179 206 154 179 206 154 179 206 154 179 206 154 179 206 154 179 206 154 179 206 154 179 206 154 179 206 154 179 206 154 179 206 154 179 206 154 179 206 154 179 206 154 179 206 154 179 206 154 179 206 154 179 206 154 180 206 154 180 206 154 180 206 154 180 206 154 180 206 154 180 206 154 180 206 154 180 206 154 180 206 154 180 206 154 180 206 154 180 206 154 180 206 154 180 206 154 180 206 154 180 206 154 180 206 154 180 206 154 180 206 154 180 206 154 180 206 154 180 206 154 180 206 154 180 206 154 180 206 154 180 206 154 180 206 154 180 206 154 180 206 154 180 206 154 180 206 154 180 206 154 180 206 154 180 206 154 180 206 154 180 206 154 180 206 154 180 206 154 180 206 154 180 206 154 180 206 154 180 206 154 180 206 154 180 206 154 180 206 154 180 206 154 180 206 154 180 206 154 180 206 154 180 206 154 180 206 154 180 206 154 180 206 154 180 206 154 180 206 154 180 206 154 180 206 154 180 206 154 180 206 154 180 206 154 180 206 154 180 206 154 180 206 154 180 206 154 180 206 154 180 206 154 180 206 154 180 206 154 180 206 154 180 206 154 180 206 154 180 206 154 180 206 154 180 206 154 180 206 154 180 206 154 180 206 154 180 206 154 180 206 154 180 206 154 180 206 154 180 206 154 180 206 154 180 206 154 180 206 154 180 206 154 180 206 154 180 206 154 180 206 154 180 206 154 180 206 154 180 206 154 180 206 154 180 206 154 180 206 154 180 206 154 180 206 154 180 206 154 180 206 154 180 206 154 180 206 154 180 206 154 180 206 154 180 206 154 180 206 154 180 206 154 180 206 154 180 206 154 180 206 154 180 206 154 180 206 154 180 206 154 180 206 154 180 206 154 180 206 154 180 206 154 180 206 154 180 206 154 180 206 154 180 206 154 180 206 154 180 206 154 180 206 154 180 206 154 180 206 154 180 206 154 180 206 154 180 206 154 180 206 154 180 206 154 180 206 154 180 206 154 180 206 154 180 206 154 180 206 154 180 206 154 180 206 154 180 206 154 180 206 154 180 206 154 180 206 154 180 206 154 180 206 154 180 206 154 180 206 154 180 206 154 180 206 154 180 206 154 180 206 154 180 206 154 180 206 154 180 206 154 180 206 154 180 206 154 180 206 154 180 206 154 180 206 154 180 206 154 180 206 154 180 206 154 180 206 154 180 206 154 180 206 154 180 206 154 180 206 154 180 206 154 180 206 154 180 206 154 180 206 154 180 206 154 180 206 154 180 206 154 180 206 154 180 206 154 180 206 154 180 206 154 180 206 154 180 206 154 180 206 154 180 206 154 180 206 154 180 206 154 180 206 154 180 206 154 180 206 154 180 206 154 180 206 154 180 206 154 180 206 154 179 206 154 180 206 154 180 206 154 179 206 154 179 206 154 179 206 154 179 206 154 179 206 154 179 206 154 179 206 154 179 206 154 179 206 154 179 206 154 179 206 154 179 206 154 179 206 154 179 206 154 179 206 154 179 206 154 179 206 154 179 206 154 179 206 154 179 206 154 179 206 154 179 206 154 179 206 154 179 206 154 179 206 154 179 206 154 179 206 154 179 206 154 179 206 154 179 206 154 179 206 154 179 206 154 179 206 154 179 206 154 179 206 154 179 206 154 179 206 154 179 206 154 179 206 154 179 206 154 179 206 154 179 206 154 179 206 154 179 206 154 179 206 154 179 206 154 179 206 154 179 206 154 179 206 154 179 206 154 179 206 154 179 206 154 179 206 154 179 206 154 179 206 154 179 206 154 179 206 154 179 206 154 179 206 154 179 206 154 179 206 154 179 206 154 179 206 154 179 206 154 179 206 154 179 206 154 179 206 154 179 206 154 179 206 154 179 206 154 179 206 154 179 206 154 179 206 154 179 206 154 179 206 154 179 206 154 179 206 154 179 206 154 179 206 154 179 206 154 179 206 154 179 206 154 179 206 154 179 206 154 179 206 154 179 206 154 179 206 154 179 206 154 179 206 154 179 206 154 179 206 154 179 206 154 179 206 154 179 206 154 179 206 154 179 206 154 179 206 154 179 206 154 179 206 154 179 206 154 179 206 154 179 206 154 179 206 154 179 206 154 179 206 154 179 206 154 179 206 154 179 206 154 179 206 154 179 206 154 179 206 154 179 206 154 179 206 154 179 206 154 179 206 154 179 206 154 179 206 154 179 206 154 179 206 154 179 206 154 179 206 154 179 206 154 179 206 154 179 206 154 179 206 154 179 206 154 179 206 154 179 206 154 179 206 154 179 206 154 179 206 154 179 206 154 179 206 154 179 206 154 179 206 154 179 206 154 179 206 154 179 206 154 179 206 154 179 206 154 179 206 154 179 206 154 179 206 154 179 206 154 179 206 154 179 206 154 179 206 154 179 206 154 179 206 154 179 206 154 179 206 154 179 206 154 179 206 154 179 206 154 179 206 154 179 206 154 179 206 154 179 206 154 179 206 154 179 206 154 179 206 154 179 206 154 179 206 154 179 206 154 179 206 154 179 206 154 179 206 154 179 206 154 179 206 154 179 206 154 179 206 154 179 206 154 179 206 154 179 206 154 179 206 154 179 206 154 179 206 154 179 206 154 179 206 154 179 206 154 179 206 154 179 206 154 179 206 154 179 206 154 179 206 154 179 206 154 179 206 154 179 206 154 179 206 154 179 206 154 179 206 154 179 206 154 179 206 154 179 206 154 179 206 154 179 206 154 179 206 154 179 206 154 179 206 154 179 206 154 179 206 154 179 206 154 179 206 154 179 206 154 179 206 154 179 206 154 179 206 154 179 206 154 179 206 154 179 206 154 179 206 154 179 206 154 179 206 154 179 206 154 179 206 154 179 206 154 179 206 154 179 206 154 179 206 154 179 206 154 179 206 154 179 206 154 179 206 154 179 206 154 179 206 154 179 206 154 179 205 154 179 205 154 179 206 154 179 205 154 179 205 154 179 205 154 179 205 154 179 205 154 179 205 154 179 205 154 179 205 154 179 205 154 179 205 154 179 205 154 179 205 154 179 205 154 179 205 154 179 205 154 179 205 154 179 205 154 179 205 154 179 205 154 179 205 154 179 205 154 179 205 154 179 205 154 179 205 154 179 205 154 179 205 154 179 205 153 179 205 153 179 205 153 179 205 153 179 205 153 179 205 153 179 205 153 179 205 153 179 205 153 179 205 153 179 205 153 179 205 153 179 205 153 179 205 153 179 205 153 178 205 153 178 205 153 178 205 153 178 205 153 178 205 153 178 205 153 178 205 153 178 205 153 178 205 153 178 205 153 178 205 153 178 205 153 178 205 153 178 205 153 178 205 153 178 205 153 178 205 153 178 205 153 178 205 153 178 205 153 178 205 153 178 205 153 178 205 153 178 205 153 178 205 153 178 205 153 178 205 153 178 205 153 178 205 153 178 205 153 178 205 153 178 205 153 178 205 
153 178 205 153 178 205 153 178 205 153 178 205 153 178 205 153 178 205 153 178 205 153 178 205 153 178 205 153 178 205 153 178 205 153 178 205 153 178 205 153 178 205 153 178 205 153 178 205 153 178 205 153 178 205 153 178 205 153 178 205 153 178 205 153 178 205 153 178 205 153 178 205 153 178 205 153 178 205 153 178 205 153 178 205 153 178 205 153 178 205 153 178 205 153 178 205 153 178 205 153 178 205 153 178 205 153 178 205 153 178 205 153 178 205 153 178 205 153 178 205 153 178 205 153 179 205 153 179 205 153 179 205 153 179 205 153 179 205 153 179 205 153 179 205 153 179 205 153 179 205 153 179 205 153 179 205 153 179 205 153 179 205 153 179 205 154 179 205 154 179 205 154 179 205 154 179 205 154 179 205 154 179 205 154 179 205 154 179 205 154 179 205 154 179 205 154 179 205 154 179 205 154 179 205 154 179 205 154 179 205 154 179 205 154 179 205 154 179 205 154 179 205 154 179 205 154 179 205 154 179 205 154 179 205 154 179 205 154 179 205 154 179 205 154 179 205 154 179 205 154 179 205 154 179 205 154 179 206 154 179 206 154 179 206 154 179 206 154 179 206 154 179 206 154 179 206 154 179 206 154 179 206 154 179 206 154 179 206 154 179 206 154 179 206 154 179 206 154 179 206 154 179 206 154 179 206 154 179 206 154 179 206 154 179 206 154 179 206 154 179 206 154 179 206 154 179 206 154 179 206 154 179 206 154 179 206 154 179 206 154 179 206 154 179 206 154 179 206 154 179 206 154 179 206 154 179 206 154 179 206 154 179 206 154 179 206 154 179 206 154 179 206 154 179 206 154 179 206 154 179 206 154 179 206 154 179 206 154 179 206 154 179 206 154 179 206 154 179 206 154 179 206 154 179 206 154 179 206 154 179 206 154 179 206 154 179 206 154 179 206 154 179 206 154 179 206 154 179 206 154 179 206 154 179 206 154 179 206 154 179 206 154 179 206 154 179 206 154 179 206 154 179 206 154 179 206 154 179 206 154 179 206 154 179 206 154 179 206 154 179 206 154 179 206 154 179 206 154 179 206 154 179 206 154 179 206 154 179 206 154 179 206 154 179 206 154 179 206 154 179 206 154 179 206 154 179 206 154 179 206 154 179 206 154 179 206 154 179 206 154 179 206 154 179 206 154 179 206 154 179 206 154 179 206 154 179 206 154 179 206 154 179 206 154 179 206 154 179 206 154 179 206 154 179 206 154 179 206 154 179 206 154 179 206 154 179 206 154 179 206 154 179 206 154 179 206 154 179 206 154 179 206 154 179 206 154 179 206 154 179 206 154 179 206 154 179 206 154 179 206 154 179 206 154 179 206 154 179 206 154 179 206 154 179 206 154 179 206 154 179 206 154 179 206 154 179 206 154 179 206 154 179 206 154 179 206 154 179 206 154 179 206 154 179 206 154 179 206 154 179 206 154 179 206 154 179 206 154 179 206 154 179 206 154 179 206 154 179 206 154 179 206 154 179 206 154 179 206 154 179 206 154 179 206 154 179 206 154 179 206 154 179 206 154 179 206 154 179 206 154 179 206 154 179 206 154 179 206 154 179 206 154 179 206 154 179 206 154 179 206 154 179 206 154 179 206 154 179 206 154 179 206 154 179 206 154 179 206 154 179 206 154 179 206 154 179 206 154 179 206 154 179 206 154 179 206 154 179 206 154 179 206 154 179 206 154 179 206 154 179 206 154 179 206 154 179 206 154 179 206 154 179 206 154 179 206 154 179 206 154 179 206 154 179 206 154 179 206 154 179 206 154 179 206 154 179 206 154 179 206 154 179 206 154 179 206 154 179 206 154 179 206 154 179 206 154 179 206 154 179 206 154 179 206 154 179 206 154 179 206 154 179 206 154 179 206 154 179 206 154 179 206 154 179 206 154 179 206 154 179 206 154 179 206 154 179 206 154 179 206 154 179 206 154 179 206 154 179 206 154 179 206 154 179 206 154 179 206 154 179 206 154 179 206 154 179 206 154 179 206 154 179 206 154 179 206 154 179 206 154 179 206 154 179 206 154 179 206 154 179 206 154 179 206 154 179 206 154 179 206 154 179 206 154 179 206 154 179 206 154 179 206 154 179 206 154 179 206 154 179 206 154 179 206 154 179 206 154 179 206 154 179 206 154 179 206 154 179 206 154 179 206 154 179 206 154 179 206 154 179 206 154 179 206 154 179 206 154 180 206 154 180 206 154 180 206 154 179 206 154 179 206 154 180 206 154 180 206 154 180 206 154 180 206 154 180 206 154 180 206 154 180 206 154 180 206 154 180 206 154 180 206 154 180 206 154 180 206 154 180 206 154 180 206 154 180 206 154 180 206 154 180 206 154 180 206 154 180 206 154 180 206 154 180 206 154 180 206 154 180 206 154 180 206 154 180 206 154 180 206 154 180 206 154 180 206 154 180 206 154 180 206 154 180 206 154 180 206 154 180 206 154 180 206 154 180 206 154 180 206 154 180 206 154 180 206 154 180 206 154 180 206 154 180 206 154 180 206 154 180 206 154 180 206 154 180 206 154 180 206 154 180 206 154 180 206 154 180 206 154 180 206 154 180 206 154 180 206 154 180 206 154 180 206 154 180 206 154 180 206 154 180 206 154 180 206 154 180 206 154 180 206 154 180 206 154 180 206 154 180 206 154 180 206 154 180 206 154 180 206 154 180 206 154 180 206 154 180 206 154 180 206 154 180 206 154 180 206 154 180 206 154 180 206 154 180 206 154 180 206 154 180 206 154 180 206 154 180 206 154 180 206 154 180 206 154 180 206 154 180 206 154 180 206 154 180 206 154 180 206 154 180 206 154 180 206 154 180 206 154 180 206 154 180 206 154 180 206 154 180 206 154 180 206 154 180 206 154 180 206 154 180 206 154 180 206 154 180 206 154 180 206 154 180 206 154 180 206 154 180 206 154 180 206 154 180 206 154 180 206 154 180 206 154 180 206 154 180 206 154 180 206 154 180 206 154 180 206 154 180 206 154 180 206 154 180 206 154 180 206 154 180 206 154 180 206 154 180 206 154 180 206 154 180 206 154 180 206 154 180 206 154 180 206 154 180 206 154 180 206 154 180 206 154 180 206 154 180 206 154 180 206 154 180 206 154 180 206 154 180 206 154 180 206 154 179 206 154 180 206 154 179 206 154 180 206 154 179 206 154 180 206 154 180 206 154 179 206 154 179 206 154 179 206 154 179 206 154 179 206 154 179 206 154 179 206 154 179 206 154 179 206 154 179 206 154 179 206 154 179 206 154 179 206 154 179 206 154 179 206 154 179 206 154 179 206 154 179 206 154 179 206 154 179 206 154 179 206 154 179 206 154 179 206 154 179 206 154 179 206 154 179 206 154 179 206 154 179 206 154 179 206 154 179 206 154 179 206 154 179 206 154 179 206 154 179 206 154 179 206 154 179 206 154 179 206 154 179 206 154 179 206 154 179 206 154 179 206 154 179 206 154 179 206 154 179 206 154 179 206 154 179 206 154 179 206 154 179 206 154 179 206 154 179 206 154 179 206 154 179 206 154 179 206 154 179 206 154 179 206 154 179 206 154 179 206 154 179 206 154 179 206 154 179 206 154 179 206 154 179 206 154 179 206 154 179 206 154 179 206 154 179 206 154 179 206 154 179 206 154 179 206 154 179 206 154 179 206 154 179 206 154 179 206 154 179 206 154 179 206 154 179 206 154 179 206 154 179 206 154 179 206 154 179 206 154 179 206 154 179 206 154 179 206 154 179 206 154 179 206 154 179 206 154 179 206 154 179 206 154 179 206 154 179 206 154 179 206 154 179 206 154 179 206 154 179 206 154 179 206 154 179 206 154 179 206 154 179 206 154 179 206 154 179 206 154 179 206 154 179 206 154 179 206 154 179 206 154 179 206 154 179 206 154 179 206 154 179 206 154 179 206 154 179 206 154 179 206 154 179 206 154 179 206 154 179 206 154 179 206 154 179 206 154 179 206 154 179 206 154 179 206 154 179 206 154 179 206 154 179 206 154 179 206 154 179 206 154 179 206 154 179 206 154 179 206 154 179 206 154 179 206 154 179 206 154 179 206 154 179 206 154 179 206 154 179 206 154 179 206 154 179 206 154 179 206 154 179 206 154 179 206 154 179 206 154 179 206 154 179 206 154 179 206 154 179 206 154 179 206 154 179 206 154 179 206 154 179 206 154 179 206 154 179 206 154 179 206 154 179 206 154 179 206 154 179 206 154 179 206 154 179 206 154 179 206 154 179 206 154 179 206 154 179 206 154 179 206 154 179 206 154 179 206 154 179 206 154 179 206 154 179 206 154 179 206 154 179 206 154 179 206 154 179 206 154 179 206 154 179 206 154 179 206 154 179 206 154 179 206 154 179 206 154 179 206 154 179 206 154 179 206 154 179 206 154 179 206 154 179 206 154 179 206 154 179 206 154 179 206 154 179 206 154 179 206 154 179 206 154 179 206 154 179 206 154 179 206 154 179 206 154 179 206 154 179 206 154 179 206 154 179 206 154 179 206 154 179 206 154 179 206 154 179 206 154 179 206 154 179 206 154 179 206 154 179 206 154 179 206 154 179 206 154 179 206 154 179 206 154 179 206 154 179 206 154 179 206 154 179 206 154 179 206 154 179 206 154 179 206 154 179 206 154 179 206 154 179 206 154 179 206 154 179 206 154 179 206 154 179 206 154 179 206 154 179 206 154 179 206 154 179 206 154 179 206 154 179 206 154 179 206 154 179 206 154 179 206 154 179 206 154 179 206 154 179 206 154 179 206 154 179 206 154 179 206 154 179 206 154 179 206 154 179 206 154 179 206 154 179 206 154 179 205 154 179 205 154 179 205 154 179 205 154 179 205 154 179 205 154 179 205 154 179 205 154 179 205 154 179 205 154 179 205 154 179 205 154 179 205 154 179 205 154 179 205 154 179 205 154 179 205 154 179 205 154 179 205 154 179 205 154 179 205 154 179 205 154 179 205 154 179 205 154 179 205 154 179 205 154 179 205 154 179 205 154 179 205 153 179 205 153 179 205 153 179 205 153 179 205 153 179 205 153 179 205 153 179 205 153 179 205 153 179 205 153 179 205 153 179 205 153 179 205 153 179 205 153 178 205 153 178 205 153 178 205 153 178 205 153 178 205 153 178 205 153 178 205 153 178 205 153 178 205 153 178 205 153 178 205 153 178 205 153 178 205 153 178 205 153 178 205 153 178 205 153 178 205 153 178 205 153 178 205 153 178 205 153 178 205 153 178 205 153 178 205 153 178 205 153 178 205 153 178 205 153 178 205 153 178 205 153 178 205 153 178 205 153 178 205 153 178 205 153 178 205 153 178 205 153 178 205 153 178 205 153 178 205 153 178 205 153 178 205 153 178 205 153 178 205 
153 178 205 153 178 205 153 178 205 153 178 205 153 178 205 153 178 205 153 178 205 153 178 205 153 178 205 153 178 205 153 178 205 153 178 205 153 178 205 153 178 205 153 178 205 153 178 205 153 178 205 153 178 205 153 178 205 153 178 205 153 178 205 153 178 205 153 178 205 153 178 205 153 178 205 153 178 205 153 178 205 153 178 205 153 178 205 153 178 205 153 178 205 153 178 205 153 178 205 153 178 205 153 178 205 153 178 205 153 178 205 153 178 205 153 178 205 153 178 205 153 178 205 153 178 205 153 178 205 153 178 205 153 178 205 153 178 205 153 178 205 153 178 205 153 178 205 153 179 205 153 179 205 153 179 205 153 179 205 153 179 205 153 179 205 153 179 205 153 179 205 153 179 205 153 179 205 153 179 205 153 179 205 153 179 205 154 179 205 154 179 205 154 179 205 154 179 205 154 179 205 154 179 205 154 179 205 154 179 205 154 179 205 154 179 205 154 179 205 154 179 205 154 179 205 154 179 205 154 179 205 154 179 205 154 179 205 154 179 205 154 179 205 154 179 205 154 179 205 154 179 205 154 179 205 154 179 205 154 179 205 154 179 205 154 179 205 154 179 205 154 179 205 154 179 205 154 179 206 154 179 206 154 179 206 154 179 206 154 179 206 154 179 206 154 179 206 154 179 206 154 179 206 154 179 206 154 179 206 154 179 206 154 179 206 154 179 206 154 179 206 154 179 206 154 179 206 154 179 206 154 179 206 154 179 206 154 179 206 154 179 206 154 179 206 154 179 206 154 179 206 154 179 206 154 179 206 154 179 206 154 179 206 154 179 206 154 179 206 154 179 206 154 179 206 154 179 206 154 179 206 154 179 206 154 179 206 154 179 206 154 179 206 154 179 206 154 179 206 154 179 206 154 179 206 154 179 206 154 179 206 154 179 206 154 179 206 154 179 206 154 179 206 154 179 206 154 179 206 154 179 206 154 179 206 154 179 206 154 179 206 154 179 206 154 179 206 154 179 206 154 179 206 154 179 206 154 179 206 154 179 206 154 179 206 154 179 206 154 179 206 154 179 206 154 179 206 154 179 206 154 179 206 154 179 206 154 179 206 154 179 206 154 179 206 154 179 206 154 179 206 154 179 206 154 179 206 154 179 206 154 179 206 154 179 206 154 179 206 154 179 206 154 179 206 154 179 206 154 179 206 154 179 206 154 179 206 154 179 206 154 179 206 154 179 206 154 179 206 154 179 206 154 179 206 154 179 206 154 179 206 154 179 206 154 179 206 154 179 206 154 179 206 154 179 206 154 179 206 154 179 206 154 179 206 154 179 206 154 179 206 154 179 206 154 179 206 154 179 206 154 179 206 154 179 206 154 179 206 154 179 206 154 179 206 154 179 206 154 179 206 154 179 206 154 179 206 154 179 206 154 179 206 154 179 206 154 179 206 154 179 206 154 179 206 154 179 206 154 179 206 154 179 206 154 179 206 154 179 206 154 179 206 154 179 206 154 179 206 154 179 206 154 179 206 154 179 206 154 179 206 154 179 206 154 179 206 154 179 206 154 179 206 154 179 206 154 179 206 154 179 206 154 179 206 154 179 206 154 179 206 154 179 206 154 179 206 154 179 206 154 179 206 154 179 206 154 179 206 154 179 206 154 179 206 154 179 206 154 179 206 154 179 206 154 179 206 154 179 206 154 179 206 154 179 206 154 179 206 154 179 206 154 179 206 154 179 206 154 179 206 154 179 206 154 179 206 154 179 206 154 179 206 154 179 206 154 179 206 154 179 206 154 179 206 154 179 206 154 179 206 154 179 206 154 179 206 154 179 206 154 179 206 154 179 206 154 179 206 154 179 206 154 179 206 154 179 206 154 179 206 154 179 206 154 179 206 154 179 206 154 179 206 154 179 206 154 179 206 154 179 206 154 179 206 154 179 206 154 179 206 154 179 206 154 179 206 154 179 206 154 179 206 154 179 206 154 179 206 154 179 206 154 179 206 154 179 206 154 179 206 154 179 206 154 179 206 154 179 206 154 179 206 154 179 206 154 179 206 154 179 206 154 179 206 154 179 206 154 179 206 154 179 206 154 179 206 154 179 206 154 179 206 154 179 206 154 179 206 154 179 206 154 179 206 154 179 206 154 179 206 154 179 206 154 179 206 154 179 206 154 179 206 154 179 206 154 179 206 154 179 206 154 179 206 154 179 206 154 179 206 154 179 206 154 179 206 154 179 206 154 179 206 154 179 206 154 179 206 154 179 206 154 179 206 154 179 206 154 179 206 154 179 206 154 179 206 154 179 206 154 179 206 154 179 206 154 179 206 154 179 206 154 179 206 154 179 206 154 179 206 154 179 206 154 179 206 154 179 206 154 179 206 154 179 206 154 179 206 154 179 206 154 179 206 154 179 206 154 179 206 154 179 206 154 179 206 154 179 206 154 179 206 154 179 206 154 179 206 154 179 206 154 179 206 154 180 206 154 179 206 154 179 206 154 179 206 154 179 206 154 180 206 154 180 206 154 179 206 154 180 206 154 180 206 154 180 206 154 179 206 154 180 206 154 179 206 154 179 206 154 180 206 154 180 206 154 179 206 154 180 206 154 180 206 154 180 206 154 180 206 154 180 206 154 180 206 154 180 206 154 180 206 154 180 206 154 180 206 154 180 206 154 180 206 154 180 206 154 180 206 154 180 206 154 180 206 154 180 206 154 180 206 154 180 206 154 180 206 154 180 206 154 180 206 154 179 206 154 180 206 154 180 206 154 180 206 154 180 206 154 180 206 154 180 206 154 180 206 154 180 206 154 180 206 154 180 206 154 180 206 154 180 206 154 179 206 154 180 206 154 180 206 154 180 206 154 180 206 154 179 206 154 180 206 154 179 206 154 179 206 154 180 206 154 180 206 154 179 206 154 179 206 154 179 206 154 180 206 154 179 206 154 179 206 154 179 206 154 179 206 154 179 206 154 179 206 154 179 206 154 179 206 154 179 206 154 179 206 154 179 206 154 179 206 154 179 206 154 179 206 154 179 206 154 179 206 154 179 206 154 179 206 154 179 206 154 179 206 154 179 206 154 179 206 154 179 206 154 179 206 154 179 206 154 179 206 154 179 206 154 179 206 154 179 206 154 179 206 154 179 206 154 179 206 154 179 206 154 179 206 154 179 206 154 179 206 154 179 206 154 179 206 154 179 206 154 179 206 154 179 206 154 179 206 154 179 206 154 179 206 154 179 206 154 179 206 154 179 206 154 179 206 154 179 206 154 179 206 154 179 206 154 179 206 154 179 206 154 179 206 154 179 206 154 179 206 154 179 206 154 179 206 154 179 206 154 179 206 154 179 206 154 179 206 154 179 206 154 179 206 154 179 206 154 179 206 154 179 206 154 179 206 154 179 206 154 179 206 154 179 206 154 179 206 154 179 206 154 179 206 154 179 206 154 179 206 154 179 206 154 179 206 154 179 206 154 179 206 154 179 206 154 179 206 154 179 206 154 179 206 154 179 206 154 179 206 154 179 206 154 179 206 154 179 206 154 179 206 154 179 206 154 179 206 154 179 206 154 179 206 154 179 206 154 179 206 154 179 206 154 179 206 154 179 206 154 179 206 154 179 206 154 179 206 154 179 206 154 179 206 154 179 206 154 179 206 154 179 206 154 179 206 154 179 206 154 179 206 154 179 206 154 179 206 154 179 206 154 179 206 154 179 206 154 179 206 154 179 206 154 179 206 154 179 206 154 179 206 154 179 206 154 179 206 154 179 206 154 179 206 154 179 206 154 179 206 154 179 206 154 179 206 154 179 206 154 179 206 154 179 206 154 179 206 154 179 206 154 179 206 154 179 206 154 179 206 154 179 206 154 179 206 154 179 206 154 179 206 154 179 206 154 179 206 154 179 206 154 179 206 154 179 206 154 179 206 154 179 206 154 179 206 154 179 206 154 179 206 154 179 206 154 179 206 154 179 206 154 179 206 154 179 206 154 179 206 154 179 206 154 179 206 154 179 206 154 179 206 154 179 206 154 179 206 154 179 206 154 179 206 154 179 206 154 179 206 154 179 206 154 179 206 154 179 206 154 179 206 154 179 206 154 179 206 154 179 206 154 179 206 154 179 206 154 179 206 154 179 206 154 179 206 154 179 206 154 179 206 154 179 206 154 179 206 154 179 206 154 179 206 154 179 206 154 179 206 154 179 206 154 179 206 154 179 206 154 179 206 154 179 206 154 179 206 154 179 206 154 179 206 154 179 206 154 179 206 154 179 206 154 179 206 154 179 206 154 179 206 154 179 206 154 179 206 154 179 206 154 179 206 154 179 206 154 179 206 154 179 206 154 179 206 154 179 206 154 179 206 154 179 206 154 179 206 154 179 206 154 179 206 154 179 206 154 179 206 154 179 206 154 179 206 154 179 206 154 179 206 154 179 206 154 179 206 154 179 206 154 179 206 154 179 206 154 179 206 154 179 206 154 179 206 154 179 206 154 179 206 154 179 206 154 179 206 154 179 206 154 179 206 154 179 206 154 179 206 154 179 206 154 179 206 154 179 206 154 179 206 154 179 206 154 179 206 154 179 206 154 179 206 154 179 206 154 179 206 154 179 206 154 179 206 154 179 206 154 179 206 154 179 206 154 179 206 154 179 206 154 179 206 154 179 206 154 179 206 154 179 206 154 179 206 154 179 206 154 179 206 154 179 206 154 179 206 154 179 206 154 179 206 154 179 206 154 179 206 154 179 206 154 179 206 154 179 206 154 179 206 154 179 206 154 179 206 154 179 206 154 179 206 154 179 206 154 179 205 154 179 205 154 179 205 154 179 205 154 179 205 154 179 205 154 179 205 154 179 205 154 179 205 154 179 205 154 179 205 154 179 205 154 179 205 154 179 205 154 179 205 154 179 205 154 179 205 154 179 205 154 179 205 154 179 205 154 179 205 154 179 205 154 179 205 154 179 205 154 179 205 154 179 205 154 179 205 154 179 205 154 179 205 154 179 205 153 179 205 153 179 205 153 179 205 153 179 205 153 179 205 153 179 205 153 179 205 153 179 205 153 179 205 153 179 205 153 179 205 153 179 205 153 179 205 153 178 205 153 179 205 153 178 205 153 178 205 153 178 205 153 178 205 153 178 205 153 178 205 153 178 205 153 178 205 153 178 205 153 178 205 153 178 205 153 178 205 153 178 205 153 178 205 153 178 205 153 178 205 153 178 205 153 178 205 153 178 205 153 178 205 153 178 205 153 178 205 153 178 205 153 178 205 153 178 205 153 178 205 153 178 205 153 178 205 153 178 205 153 178 205 153 178 205 153 178 205 153 178 205 153 178 205 153 178 205 153 178 205 153 178 205 153 178 205 153 178 205 153 178 205 153 178 205 153 178 205 153 178 205 153 178 205 153 178 205 153 178 205 153 178 205 
153 178 205 153 178 205 153 178 205 153 178 205 153 178 205 153 178 205 153 178 205 153 178 205 153 178 205 153 178 205 153 178 205 153 178 205 153 178 205 153 178 205 153 178 205 153 178 205 153 178 205 153 178 205 153 178 205 153 178 205 153 178 205 153 178 205 153 178 205 153 178 205 153 178 205 153 178 205 153 178 205 153 178 205 153 178 205 153 178 205 153 178 205 153 178 205 153 178 205 153 178 205 153 178 205 153 178 205 153 178 205 153 178 205 153 178 205 153 178 205 153 178 205 153 178 205 153 178 205 153 178 205 153 178 205 153 178 205 153 178 205 153 178 205 153 178 205 153 178 205 153 178 205 153 178 205 153 178 205 153 178 205 153 179 205 153 179 205 153 179 205 153 179 205 153 179 205 153 179 205 153 179 205 153 179 205 153 179 205 153 179 205 153 179 205 153 179 205 153 179 205 153 179 205 153 179 205 153 179 205 154 179 205 154 179 205 154 179 205 154 179 205 154 179 205 154 179 205 154 179 205 154 179 205 154 179 205 154 179 205 154 179 205 154 179 205 154 179 205 154 179 205 154 179 205 154 179 205 154 179 205 154 179 205 154 179 205 154 179 205 154 179 205 154 179 205 154 179 205 154 179 205 154 179 205 154 179 205 154 179 205 154 179 205 154 179 205 154 179 205 154 179 206 154 179 206 154 179 206 154 179 206 154 179 206 154 179 206 154 179 206 154 179 206 154 179 206 154 179 206 154 179 206 154 179 206 154 179 206 154 179 206 154 179 206 154 179 206 154 179 206 154 179 206 154 179 206 154 179 206 154 179 206 154 179 206 154 179 206 154 179 206 154 179 206 154 179 206 154 179 206 154 179 206 154 179 206 154 179 206 154 179 206 154 179 206 154 179 206 154 179 206 154 179 206 154 179 206 154 179 206 154 179 206 154 179 206 154 179 206 154 179 206 154 179 206 154 179 206 154 179 206 154 179 206 154 179 206 154 179 206 154 179 206 154 179 206 154 179 206 154 179 206 154 179 206 154 179 206 154 179 206 154 179 206 154 179 206 154 179 206 154 179 206 154 179 206 154 179 206 154 179 206 154 179 206 154 179 206 154 179 206 154 179 206 154 179 206 154 179 206 154 179 206 154 179 206 154 179 206 154 179 206 154 179 206 154 179 206 154 179 206 154 179 206 154 179 206 154 179 206 154 179 206 154 179 206 154 179 206 154 179 206 154 179 206 154 179 206 154 179 206 154 179 206 154 179 206 154 179 206 154 179 206 154 179 206 154 179 206 154 179 206 154 179 206 154 179 206 154 179 206 154 179 206 154 179 206 154 179 206 154 179 206 154 179 206 154 179 206 154 179 206 154 179 206 154 179 206 154 179 206 154 179 206 154 179 206 154 179 206 154 179 206 154 179 206 154 179 206 154 179 206 154 179 206 154 179 206 154 179 206 154 179 206 154 179 206 154 179 206 154 179 206 154 179 206 154 179 206 154 179 206 154 179 206 154 179 206 154 179 206 154 179 206 154 179 206 154 179 206 154 179 206 154 179 206 154 179 206 154 179 206 154 179 206 154 179 206 154 179 206 154 179 206 154 179 206 154 179 206 154 179 206 154 179 206 154 179 206 154 179 206 154 179 206 154 179 206 154 179 206 154 179 206 154 179 206 154 179 206 154 179 206 154 179 206 154 179 206 154 179 206 154 179 206 154 179 206 154 179 206 154 179 206 154 179 206 154 179 206 154 179 206 154 179 206 154 179 206 154 179 206 154 179 206 154 179 206 154 179 206 154 179 206 154 179 206 154 179 206 154 179 206 154 179 206 154 179 206 154 179 206 154 179 206 154 179 206 154 179 206 154 179 206 154 179 206 154 179 206 154 179 206 154 179 206 154 179 206 154 179 206 154 179 206 154 179 206 154 179 206 154 179 206 154 179 206 154 179 206 154 179 206 154 179 206 154 179 206 154 179 206 154 179 206 154 179 206 154 179 206 154 179 206 154 179 206 154 179 206 154 179 206 154 179 206 154 179 206 154 179 206 154 179 206 154 179 206 154 179 206 154 179 206 154 179 206 154 179 206 154 179 206 154 179 206 154 179 206 154 179 206 154 179 206 154 179 206 154 179 206 154 179 206 154 179 206 154 179 206 154 179 206 154 179 206 154 179 206 154 179 206 154 179 206 154 179 206 154 179 206 154 179 206 154 179 206 154 179 206 154 179 206 154 179 206 154 179 206 154 179 206 154 179 206 154 179 206 154 179 206 154 179 206 154 179 206 154 179 206 154 179 206 154 179 206 154 179 206 154 179 206 154 179 206 154 179 206 154 179 206 154 179 206 154 179 206 154 179 206 154 179 206 154 179 206 154 179 206 154 179 206 154 179 206 154 179 206 154 179 206 154 179 206 154 179 206 154 179 206 154 179 206 154 179 206 154 179 206 154 179 206 154 179 206 154 179 206 154 179 206 154 179 206 154 179 206 154 179 206 154 179 206 154 179 206 154 179 206 154 179 206 154 179 206 154 179 206 154 179 206 154 179 206 154 179 206 154 179 206 154 179 206 154 179 206 154 179 206 154 179 206 154 179 206 154 179 206 154 179 206 154 179 206 154 179 206 154 179 206 154 179 206 154 179 206 154 179 206 154 179 206 154 179 206 154 179 206 154 179 206 154 179 206 154 179 206 154 179 206 154 179 206 154 179 206 154 179 206 154 179 206 154 179 206 154 179 206 154 179 206 154 179 206 154 179 206 154 179 206 154 179 206 154 179 206 154 179 206 154 179 206 154 179 206 154 179 206 154 179 206 154 179 206 154 179 206 154 179 206 154 179 206 154 179 206 154 179 206 154 179 206 154 179 206 154 179 206 154 179 206 154 179 206 154 179 206 154 179 206 154 179 206 154 179 206 154 179 206 154 179 206 154 179 206 154 179 206 154 179 206 154 179 206 154 179 206 154 179 206 154 179 206 154 179 206 154 179 206 154 179 206 154 179 206 154 179 206 154 179 206 154 179 206 154 179 206 154 179 206 154 179 206 154 179 206 154 179 206 154 179 206 154 179 206 154 179 206 154 179 206 154 179 206 154 179 206 154 179 206 154 179 206 154 179 206 154 179 206 154 179 206 154 179 206 154 179 206 154 179 206 154 179 206 154 179 206 154 179 206 154 179 206 154 179 206 154 179 206 154 179 206 154 179 206 154 179 206 154 179 206 154 179 206 154 179 206 154 179 206 154 179 206 154 179 206 154 179 206 154 179 206 154 179 206 154 179 206 154 179 206 154 179 206 154 179 206 154 179 206 154 179 206 154 179 206 154 179 206 154 179 206 154 179 206 154 179 206 154 179 206 154 179 206 154 179 206 154 179 206 154 179 206 154 179 206 154 179 206 154 179 206 154 179 206 154 179 206 154 179 206 154 179 206 154 179 206 154 179 206 154 179 206 154 179 206 154 179 206 154 179 206 154 179 206 154 179 206 154 179 206 154 179 206 154 179 206 154 179 206 154 179 206 154 179 206 154 179 206 154 179 206 154 179 206 154 179 206 154 179 206 154 179 206 154 179 206 154 179 206 154 179 206 154 179 206 154 179 206 154 179 206 154 179 206 154 179 206 154 179 206 154 179 206 154 179 206 154 179 206 154 179 206 154 179 206 154 179 206 154 179 206 154 179 206 154 179 206 154 179 206 154 179 206 154 179 206 154 179 206 154 179 206 154 179 206 154 179 206 154 179 206 154 179 206 154 179 206 154 179 206 154 179 206 154 179 206 154 179 206 154 179 206 154 179 206 154 179 206 154 179 206 154 179 206 154 179 206 154 179 206 154 179 206 154 179 206 154 179 206 154 179 206 154 179 206 154 179 206 154 179 206 154 179 206 154 179 206 154 179 206 154 179 206 154 179 206 154 179 206 154 179 206 154 179 206 154 179 206 154 179 206 154 179 206 154 179 206 154 179 206 154 179 206 154 179 206 154 179 206 154 179 206 154 179 206 154 179 206 154 179 206 154 179 206 154 179 206 154 179 206 154 179 206 154 179 206 154 179 206 154 179 206 154 179 206 154 179 206 154 179 206 154 179 206 154 179 206 154 179 206 154 179 206 154 179 206 154 179 206 154 179 206 154 179 206 154 179 206 154 179 206 154 179 206 154 179 206 154 179 206 154 179 206 154 179 206 154 179 206 154 179 206 154 179 206 154 179 206 154 179 206 154 179 206 154 179 206 154 179 206 154 179 206 154 179 206 154 179 206 154 179 206 154 179 206 154 179 206 154 179 206 154 179 206 154 179 206 154 179 206 154 179 206 154 179 206 154 179 206 154 179 206 154 179 206 154 179 206 154 179 206 154 179 206 154 179 206 154 179 206 154 179 206 154 179 206 154 179 206 154 179 206 154 179 206 154 179 206 154 179 206 154 179 206 154 179 206 154 179 206 154 179 206 154 179 206 154 179 206 154 179 206 154 179 206 154 179 206 154 179 206 154 179 206 154 179 206 154 179 206 154 179 206 154 179 206 154 179 206 154 179 206 154 179 206 154 179 206 154 179 206 154 179 206 154 179 206 154 179 206 154 179 206 154 179 206 154 179 206 154 179 206 154 179 206 154 179 206 154 179 206 154 179 206 154 179 206 154 179 206 154 179 206 154 179 206 154 179 206 154 179 206 154 179 206 154 179 206 154 179 206 154 179 206 154 179 206 154 179 206 154 179 206 154 179 206 154 179 206 154 179 206 154 179 205 154 179 206 154 179 205 154 179 205 154 179 205 154 179 205 154 179 205 154 179 205 154 179 205 154 179 205 154 179 205 154 179 205 154 179 205 154 179 205 154 179 205 154 179 205 154 179 205 154 179 205 154 179 205 154 179 205 154 179 205 154 179 205 154 179 205 154 179 205 154 179 205 154 179 205 154 179 205 154 179 205 154 179 205 154 179 205 154 179 205 154 179 205 153 179 205 153 179 205 153 179 205 153 179 205 153 179 205 153 179 205 153 179 205 153 179 205 153 179 205 153 179 205 153 179 205 153 179 205 153 179 205 153 179 205 153 179 205 153 178 205 153 178 205 153 178 205 153 178 205 153 178 205 153 178 205 153 178 205 153 178 205 153 178 205 153 178 205 153 178 205 153 178 205 153 178 205 153 178 205 153 178 205 153 178 205 153 178 205 153 178 205 153 178 205 153 178 205 153 178 205 153 178 205 153 178 205 153 178 205 153 178 205 153 178 205 153 178 205 153 178 205 153 178 205 153 178 205 153 178 205 153 178 205 153 178 205 153 178 205 153 178 205 153 178 205 153 178 205 153 178 205 153 178 205 153 178 205 153 178 205 153 178 205 153 178 205 153 178 205 153 178 205 153 178 205 153 178 205 153 178 205 153 178 205 153 178 205 153 178 205 153 178 205 153 178 205 153 178 205 153 178 205 
153 178 205 153 178 205 153 178 205 153 178 205 153 178 205 153 178 205 153 178 205 153 178 205 153 178 205 153 178 205 153 178 205 153 178 205 153 178 205 153 178 205 153 178 205 153 178 205 153 178 205 153 178 205 153 178 205 153 178 205 153 178 205 153 178 205 153 178 205 153 178 205 153 178 205 153 178 205 153 178 205 153 178 205 153 178 205 153 178 205 153 178 205 153 178 205 153 178 205 153 178 205 153 178 205 153 178 205 153 178 205 153 178 205 153 178 205 153 178 205 153 178 205 153 178 205 153 178 205 153 178 205 153 178 205 153 178 205 153 178 205 153 178 205 153 178 205 153 178 205 153 178 205 153 178 205 153 178 205 153 178 205 153 178 205 153 178 205 153 178 205 153 178 205 153 178 205 153 178 205 153 178 205 153 178 205 153 178 205 153 179 205 153 179 205 153 179 205 153 179 205 153 179 205 153 179 205 153 179 205 153 179 205 153 179 205 153 179 205 153 179 205 153 179 205 153 179 205 153 179 205 153 179 205 154 179 205 154 179 205 154 179 205 154 179 205 154 179 205 154 179 205 154 179 205 154 179 205 154 179 205 154 179 205 154 179 205 154 179 205 154 179 205 154 179 205 154 179 205 154 179 205 154 179 205 154 179 205 154 179 205 154 179 205 154 179 205 154 179 205 154 179 205 154 179 205 154 179 205 154 179 205 154 179 205 154 179 205 154 179 205 154 179 205 154 179 206 154 179 206 154 179 206 154 179 206 154 179 206 154 179 206 154 179 206 154 179 206 154 179 206 154 179 206 154 179 206 154 179 206 154 179 206 154 179 206 154 179 206 154 179 206 154 179 206 154 179 206 154 179 206 154 179 206 154 179 206 154 179 206 154 179 206 154 179 206 154 179 206 154 179 206 154 179 206 154 179 206 154 179 206 154 179 206 154 179 206 154 179 206 154 179 206 154 179 206 154 179 206 154 179 206 154 179 206 154 179 206 154 179 206 154 179 206 154 179 206 154 179 206 154 179 206 154 179 206 154 179 206 154 179 206 154 179 206 154 179 206 154 179 206 154 179 206 154 179 206 154 179 206 154 179 206 154 179 206 154 179 206 154 179 206 154 179 206 154 179 206 154 179 206 154 179 206 154 179 206 154 179 206 154 179 206 154 179 206 154 179 206 154 179 206 154 179 206 154 179 206 154 179 206 154 179 206 154 179 206 154 179 206 154 179 206 154 179 206 154 179 206 154 179 206 154 179 206 154 179 206 154 179 206 154 179 206 154 179 206 154 179 206 154 179 206 154 179 206 154 179 206 154 179 206 154 179 206 154 179 206 154 179 206 154 179 206 154 179 206 154 179 206 154 179 206 154 179 206 154 179 206 154 179 206 154 179 206 154 179 206 154 179 206 154 179 206 154 179 206 154 179 206 154 179 206 154 179 206 154 179 206 154 179 206 154 179 206 154 179 206 154 179 206 154 179 206 154 179 206 154 179 206 154 179 206 154 179 206 154 179 206 154 179 206 154 179 206 154 179 206 154 179 206 154 179 206 154 179 206 154 179 206 154 179 206 154 179 206 154 179 206 154 179 206 154 179 206 154 179 206 154 179 206 154 179 206 154 179 206 154 179 206 154 179 206 154 179 206 154 179 206 154 179 206 154 179 206 154 179 206 154 179 206 154 179 206 154 179 206 154 179 206 154 179 206 154 179 206 154 179 206 154 179 206 154 179 206 154 179 206 154 179 206 154 179 206 154 179 206 154 179 206 154 179 206 154 179 206 154 179 206 154 179 206 154 179 206 154 179 206 154 179 206 154 179 206 154 179 206 154 179 206 154 179 206 154 179 206 154 179 206 154 179 206 154 179 206 154 179 206 154 179 206 154 179 206 154 179 206 154 179 206 154 179 206 154 179 206 154 179 206 154 179 206 154 179 206 154 179 206 154 179 206 154 179 206 154 179 206 154 179 206 154 179 206 154 179 206 154 179 206 154 179 206 154 179 206 154 179 206 154 179 206 154 179 206 154 179 206 154 179 206 154 179 206 154 179 206 154 179 206 154 179 206 154 179 206 154 179 206 154 179 206 154 179 206 154 179 206 154 179 206 154 179 206 154 179 206 154 179 206 154 179 206 154 179 206 154 179 206 154 179 206 154 179 206 154 179 206 154 179 206 154 179 206 154 179 206 154 179 206 154 179 206 154 179 206 154 179 206 154 179 206 154 179 206 154 179 206 154 179 206 154 179 206 154 179 206 154 179 206 154 179 206 154 179 206 154 179 206 154 179 206 154 179 206 154 179 206 154 179 206 154 179 206 154 179 206 154 179 206 154 179 206 154 179 206 154 179 206 154 179 206 154 179 206 154 179 206 154 179 206 154 179 206 154 179 206 154 179 206 154 179 206 154 179 206 154 179 206 154 179 206 154 179 206 154 179 206 154 179 206 154 179 206 154 179 206 154 179 206 154 179 206 154 179 206 154 179 206 154 179 206 154 179 206 154 179 206 154 179 206 154 179 206 154 179 206 154 179 206 154 179 206 154 179 206 154 179 206 154 179 206 154 179 206 154 179 206 154 179 206 154 179 206 154 179 206 154 179 206 154 179 206 154 179 206 154 179 206 154 179 206 154 179 206 154 179 206 154 179 206 154 179 206 154 179 206 154 179 206 154 179 206 154 179 206 154 179 206 154 179 206 154 179 206 154 179 206 154 179 206 154 179 206 154 179 206 154 179 206 154 179 206 154 179 206 154 179 206 154 179 206 154 179 206 154 179 206 154 179 206 154 179 206 154 179 206 154 179 206 154 179 206 154 179 206 154 179 206 154 179 206 154 179 206 154 179 206 154 179 206 154 179 206 154 179 206 154 179 206 154 179 206 154 179 206 154 179 206 154 179 206 154 179 206 154 179 206 154 179 206 154 179 206 154 179 206 154 179 206 154 179 206 154 179 206 154 179 206 154 179 206 154 179 206 154 179 206 154 179 206 154 179 206 154 179 206 154 179 206 154 179 206 154 179 206 154 179 206 154 179 206 154 179 206 154 179 206 154 179 206 154 179 206 154 179 206 154 179 206 154 179 206 154 179 206 154 179 206 154 179 206 154 179 206 154 179 206 154 179 206 154 179 206 154 179 206 154 179 206 154 179 206 154 179 206 154 179 206 154 179 206 154 179 206 154 179 206 154 179 206 154 179 206 154 179 206 154 179 206 154 179 206 154 179 206 154 179 206 154 179 206 154 179 206 154 179 206 154 179 206 154 179 206 154 179 206 154 179 206 154 179 206 154 179 206 154 179 206 154 179 206 154 179 206 154 179 206 154 179 206 154 179 206 154 179 206 154 179 206 154 179 206 154 179 206 154 179 206 154 179 206 154 179 206 154 179 206 154 179 206 154 179 206 154 179 206 154 179 206 154 179 206 154 179 206 154 179 206 154 179 206 154 179 206 154 179 206 154 179 206 154 179 206 154 179 206 154 179 206 154 179 206 154 179 206 154 179 206 154 179 206 154 179 206 154 179 206 154 179 206 154 179 206 154 179 206 154 179 206 154 179 206 154 179 206 154 179 206 154 179 206 154 179 206 154 179 206 154 179 206 154 179 206 154 179 206 154 179 206 154 179 206 154 179 206 154 179 206 154 179 206 154 179 206 154 179 206 154 179 206 154 179 206 154 179 206 154 179 206 154 179 206 154 179 206 154 179 206 154 179 206 154 179 206 154 179 206 154 179 206 154 179 206 154 179 206 154 179 206 154 179 206 154 179 206 154 179 206 154 179 206 154 179 206 154 179 206 154 179 206 154 179 206 154 179 206 154 179 206 154 179 206 154 179 206 154 179 206 154 179 206 154 179 206 154 179 206 154 179 206 154 179 206 154 179 206 154 179 206 154 179 206 154 179 206 154 179 206 154 179 206 154 179 206 154 179 206 154 179 206 154 179 206 154 179 206 154 179 206 154 179 206 154 179 206 154 179 206 154 179 206 154 179 206 154 179 206 154 179 206 154 179 206 154 179 206 154 179 206 154 179 206 154 179 206 154 179 206 154 179 206 154 179 206 154 179 206 154 179 206 154 179 206 154 179 206 154 179 206 154 179 206 154 179 206 154 179 206 154 179 206 154 179 206 154 179 206 154 179 206 154 179 206 154 179 206 154 179 206 154 179 206 154 179 206 154 179 206 154 179 206 154 179 206 154 179 206 154 179 206 154 179 206 154 179 206 154 179 206 154 179 206 154 179 206 154 179 206 154 179 206 154 179 206 154 179 206 154 179 206 154 179 206 154 179 206 154 179 206 154 179 206 154 179 206 154 179 206 154 179 206 154 179 206 154 179 206 154 179 206 154 179 206 154 179 206 154 179 206 154 179 206 154 179 206 154 179 206 154 179 206 154 179 206 154 179 206 154 179 206 154 179 206 154 179 206 154 179 206 154 179 206 154 179 206 154 179 206 154 179 206 154 179 206 154 179 206 154 179 206 154 179 206 154 179 206 154 179 206 154 179 206 154 179 206 154 179 206 154 179 206 154 179 206 154 179 206 154 179 206 154 179 206 154 179 206 154 179 206 154 179 206 154 179 206 154 179 206 154 179 206 154 179 206 154 179 206 154 179 206 154 179 206 154 179 206 154 179 206 154 179 206 154 179 206 154 179 206 154 179 206 154 179 206 154 179 206 154 179 206 154 179 206 154 179 205 154 179 205 154 179 205 154 179 205 154 179 205 154 179 205 154 179 205 154 179 205 154 179 205 154 179 205 154 179 205 154 179 205 154 179 205 154 179 205 154 179 205 154 179 205 154 179 205 154 179 205 154 179 205 154 179 205 154 179 205 154 179 205 154 179 205 154 179 205 154 179 205 154 179 205 154 179 205 154 179 205 154 179 205 154 179 205 154 179 205 154 179 205 153 179 205 153 179 205 153 179 205 153 179 205 153 179 205 153 179 205 153 179 205 153 179 205 153 179 205 153 179 205 153 179 205 153 179 205 153 179 205 153 179 205 153 178 205 153 178 205 153 178 205 153 178 205 153 178 205 153 178 205 153 178 205 153 178 205 153 178 205 153 178 205 153 178 205 153 178 205 153 178 205 153 178 205 153 178 205 153 178 205 153 178 205 153 178 205 153 178 205 153 178 205 153 178 205 153 178 205 153 178 205 153 178 205 153 178 205 153 178 205 153 178 205 153 178 205 153 178 205 153 178 205 153 178 205 153 178 205 153 178 205 153 178 205 153 178 205 153 178 205 153 178 205 153 178 205 153 178 205 153 178 205 153 178 205 153 178 205 153 178 205 153 178 205 153 178 205 153 178 205 153 178 205 153 178 205 153 178 205 153 178 205 153 178 205 153 178 205 153 178 205 153 178 205 153 178 205 153 178 205 153 178 205 153 178 205 153 178 205 153 178 205 153 178 205 153 178 205 153 178 205 
153 178 205 153 178 205 153 178 205 153 178 205 153 178 205 153 178 205 153 178 205 153 178 205 153 178 205 153 178 205 153 178 205 153 178 205 153 178 205 153 178 205 153 178 205 153 178 205 153 178 205 153 178 205 153 178 205 153 178 205 153 178 205 153 178 205 153 178 205 153 178 205 153 178 205 153 178 205 153 178 205 153 178 205 153 178 205 153 178 205 153 178 205 153 178 205 153 178 205 153 178 205 153 178 205 153 178 205 153 178 205 153 178 205 153 178 205 153 178 205 153 178 205 153 178 205 153 178 205 153 178 205 153 178 205 153 178 205 153 178 205 153 178 205 153 178 205 153 178 205 153 178 205 153 178 205 153 178 205 153 178 205 153 178 205 153 178 205 153 178 205 153 178 205 153 178 205 153 178 205 153 178 205 153 178 205 153 178 205 153 178 205 153 178 205 153 178 205 153 178 205 153 178 205 153 178 205 153 178 205 153 178 205 153 179 205 153 179 205 153 179 205 153 179 205 153 179 205 153 179 205 153 179 205 153 179 205 153 179 205 153 179 205 153 179 205 153 179 205 153 179 205 153 179 205 154 179 205 154 179 205 154 179 205 154 179 205 154 179 205 154 179 205 154 179 205 154 179 205 154 179 205 154 179 205 154 179 205 154 179 205 154 179 205 154 179 205 154 179 205 154 179 205 154 179 205 154 179 205 154 179 205 154 179 205 154 179 205 154 179 205 154 179 205 154 179 205 154 179 205 154 179 205 154 179 205 154 179 205 154 179 205 154 179 205 154 179 205 154 179 205 154 179 205 154 179 206 154 179 206 154 179 206 154 179 206 154 179 206 154 179 206 154 179 206 154 179 206 154 179 206 154 179 206 154 179 206 154 179 206 154 179 206 154 179 206 154 179 206 154 179 206 154 179 206 154 179 206 154 179 206 154 179 206 154 179 206 154 179 206 154 179 206 154 179 206 154 179 206 154 179 206 154 179 206 154 179 206 154 179 206 154 179 206 154 179 206 154 179 206 154 179 206 154 179 206 154 179 206 154 179 206 154 179 206 154 179 206 154 179 206 154 179 206 154 179 206 154 179 206 154 179 206 154 179 206 154 179 206 154 179 206 154 179 206 154 179 206 154 179 206 154 179 206 154 179 206 154 179 206 154 179 206 154 179 206 154 179 206 154 179 206 154 179 206 154 179 206 154 179 206 154 179 206 154 179 206 154 179 206 154 179 206 154 179 206 154 179 206 154 179 206 154 179 206 154 179 206 154 179 206 154 179 206 154 179 206 154 179 206 154 179 206 154 179 206 154 179 206 154 179 206 154 179 206 154 179 206 154 179 206 154 179 206 154 179 206 154 179 206 154 179 206 154 179 206 154 179 206 154 179 206 154 179 206 154 179 206 154 179 206 154 179 206 154 179 206 154 179 206 154 179 206 154 179 206 154 179 206 154 179 206 154 179 206 154 179 206 154 179 206 154 179 206 154 179 206 154 179 206 154 179 206 154 179 206 154 179 206 154 179 206 154 179 206 154 179 206 154 179 206 154 179 206 154 179 206 154 179 206 154 179 206 154 179 206 154 179 206 154 179 206 154 179 206 154 179 206 154 179 206 154 179 206 154 179 206 154 179 206 154 179 206 154 179 206 154 179 206 154 179 206 154 179 206 154 179 206 154 179 206 154 179 206 154 179 206 154 179 206 154 179 206 154 179 206 154 179 206 154 179 206 154 179 206 154 179 206 154 179 206 154 179 206 154 179 206 154 179 206 154 179 206 154 179 206 154 179 206 154 179 206 154 179 206 154 179 206 154 179 206 154 179 206 154 179 206 154 179 206 154 179 206 154 179 206 154 179 206 154 179 206 154 179 206 154 179 206 154 179 206 154 179 206 154 179 206 154 179 206 154 179 206 154 179 206 154 179 206 154 179 206 154 179 206 154 179 206 154 179 206 154 179 206 154 179 206 154 179 206 154 179 206 154 179 206 154 179 206 154 179 206 154 179 206 154 179 206 154 179 206 154 179 206 154 179 206 154 179 206 154 179 206 154 179 206 154 179 206 154 179 206 154 179 206 154 179 206 154 179 206 154 179 206 154 179 206 154 179 206 154 179 206 154 179 206 154 179 206 154 179 206 154 179 206 154 179 206 154 179 206 154 179 206 154 179 206 154 179 206 154 179 206 154 179 206 154 179 206 154 179 206 154 179 206 154 179 206 154 179 206 154 179 206 154 179 206 154 179 206 154 179 206 154 179 206 154 179 206 154 179 206 154 179 206 154 179 206 154 179 206 154 179 206 154 179 206 154 179 206 154 179 206 154 179 206 154 179 206 154 179 206 154 179 206 154 179 206 154 179 206 154 179 206 154 179 206 154 179 206 154 179 206 154 179 206 154 179 206 154 179 206 154 179 206 154 179 206 154 179 206 154 179 206 154 179 206 154 179 206 154 179 206 154 179 206 154 179 206 154 179 206 154 179 206 154 179 206 154 179 206 154 179 206 154 179 206 154 179 206 154 179 206 154 179 206 154 179 206 154 179 206 154 179 206 154 179 206 154 179 206 154 179 206 154 179 206 154 179 206 154 179 206 154 179 206 154 179 206 154 179 206 154 179 206 154 179 206 154 179 206 154 179 206 154 179 206 154 179 206 154 179 206 154 179 206 154 179 206 154 179 206 154 179 206 154 179 206 154 179 206 154 179 206 154 179 206 154 179 206 154 179 206 154 179 206 154 179 206 154 179 206 154 179 206 154 179 206 154 179 206 154 179 206 154 179 206 154 179 206 154 179 206 154 179 206 154 179 206 154 179 206 154 179 206 154 179 206 154 179 206 154 179 206 154 179 206 154 179 206 154 179 206 154 179 206 154 179 206 154 179 206 154 179 206 154 179 206 154 179 206 154 179 206 154 179 206 154 179 206 154 179 206 154 179 206 154 179 206 154 179 206 154 179 206 154 179 206 154 179 206 154 179 206 154 179 206 154 179 206 154 179 206 154 179 206 154 179 206 154 179 206 154 179 206 154 179 206 154 179 206 154 179 206 154 179 206 154 179 206 154 179 206 154 179 206 154 179 206 154 179 206 154 179 206 154 179 206 154 179 206 154 179 206 154 179 206 154 179 206 154 179 206 154 179 206 154 179 206 154 179 206 154 179 206 154 179 206 154 179 206 154 179 206 154 179 206 154 179 206 154 179 206 154 179 206 154 179 206 154 179 206 154 179 206 154 179 206 154 179 206 154 179 206 154 179 206 154 179 206 154 179 206 154 179 206 154 179 206 154 179 206 154 179 206 154 179 206 154 179 206 154 179 206 154 179 206 154 179 206 154 179 206 154 179 206 154 179 206 154 179 206 154 179 206 154 179 206 154 179 206 154 179 206 154 179 206 154 179 206 154 179 206 154 179 206 154 179 206 154 179 206 154 179 206 154 179 206 154 179 206 154 179 206 154 179 206 154 179 206 154 179 206 154 179 206 154 179 206 154 179 206 154 179 206 154 179 206 154 179 206 154 179 206 154 179 206 154 179 206 154 179 206 154 179 206 154 179 206 154 179 206 154 179 206 154 179 206 154 179 206 154 179 206 154 179 206 154 179 206 154 179 206 154 179 206 154 179 206 154 179 206 154 179 206 154 179 206 154 179 206 154 179 206 154 179 206 154 179 206 154 179 206 154 179 206 154 179 206 154 179 206 154 179 206 154 179 206 154 179 206 154 179 206 154 179 206 154 179 206 154 179 206 154 179 206 154 179 206 154 179 206 154 179 206 154 179 206 154 179 206 154 179 206 154 179 206 154 179 206 154 179 206 154 179 206 154 179 206 154 179 206 154 179 206 154 179 206 154 179 206 154 179 206 154 179 206 154 179 206 154 179 206 154 179 206 154 179 206 154 179 206 154 179 206 154 179 206 154 179 206 154 179 206 154 179 206 154 179 206 154 179 206 154 179 206 154 179 206 154 179 206 154 179 206 154 179 206 154 179 206 154 179 206 154 179 206 154 179 206 154 179 206 154 179 206 154 179 206 154 179 206 154 179 206 154 179 206 154 179 206 154 179 206 154 179 206 154 179 206 154 179 206 154 179 206 154 179 206 154 179 206 154 179 206 154 179 206 154 179 206 154 179 206 154 179 206 154 179 206 154 179 206 154 179 206 154 179 206 154 179 206 154 179 206 154 179 206 154 179 206 154 179 206 154 179 206 154 179 206 154 179 206 154 179 206 154 179 206 154 179 206 154 179 206 154 179 206 154 179 206 154 179 206 154 179 206 154 179 206 154 179 206 154 179 206 154 179 206 154 179 206 154 179 206 154 179 206 154 179 206 154 179 206 154 179 206 154 179 206 154 179 206 154 179 206 154 179 206 154 179 206 154 179 206 154 179 206 154 179 206 154 179 206 154 179 206 154 179 206 154 179 206 154 179 206 154 179 206 154 179 206 154 179 206 154 179 206 154 179 206 154 179 206 154 179 206 154 179 206 154 179 206 154 179 206 154 179 206 154 179 206 154 179 206 154 179 206 154 179 206 154 179 206 154 179 206 154 179 206 154 179 206 154 179 206 154 179 206 154 179 206 154 179 206 154 179 206 154 179 206 154 179 206 154 179 206 154 179 206 154 179 206 154 179 206 154 179 206 154 179 206 154 179 205 154 179 205 154 179 205 154 179 205 154 179 205 154 179 205 154 179 205 154 179 205 154 179 205 154 179 205 154 179 205 154 179 205 154 179 205 154 179 205 154 179 205 154 179 205 154 179 205 154 179 205 154 179 205 154 179 205 154 179 205 154 179 205 154 179 205 154 179 205 154 179 205 154 179 205 154 179 205 154 179 205 154 179 205 154 179 205 154 179 205 153 179 205 153 179 205 153 179 205 153 179 205 153 179 205 153 179 205 153 179 205 153 179 205 153 179 205 153 179 205 153 179 205 153 179 205 153 179 205 153 179 205 153 178 205 153 178 205 153 178 205 153 178 205 153 178 205 153 178 205 153 178 205 153 178 205 153 178 205 153 178 205 153 178 205 153 178 205 153 178 205 153 178 205 153 178 205 153 178 205 153 178 205 153 178 205 153 178 205 153 178 205 153 178 205 153 178 205 153 178 205 153 178 205 153 178 205 153 178 205 153 178 205 153 178 205 153 178 205 153 178 205 153 178 205 153 178 205 153 178 205 153 178 205 153 178 205 153 178 205 153 178 205 153 178 205 153 178 205 153 178 205 153 178 205 153 178 205 153 178 205 153 178 205 153 178 205 153 178 205 153 178 205 153 178 205 153 178 205 153 178 205 153 178 205 153 178 205 153 178 205 153 178 205 153 178 205 153 178 205 153 178 205 153 178 205 153 178 205 153 178 205 153 178 205 153 178 205 153 178 205 153 178 205 153 178 205 153 178 205 153 178 205 153 178 205 153 178 205 153 178 205 153 178 205 
153 178 205 153 178 205 153 178 205 153 178 205 153 178 205 153 178 205 153 178 205 153 178 205 153 178 205 153 178 205 153 178 205 153 178 205 153 178 205 153 178 205 153 178 205 153 178 205 153 178 205 153 178 205 153 178 205 153 178 205 153 178 205 153 178 205 153 178 205 153 178 205 153 178 205 153 178 205 153 178 205 153 178 205 153 178 205 153 178 205 153 178 205 153 178 205 153 178 205 153 178 205 153 178 205 153 178 205 153 178 205 153 178 205 153 178 205 153 178 205 153 178 205 153 178 205 153 178 205 153 178 205 153 178 205 153 178 205 153 178 205 153 178 205 153 178 205 153 178 205 153 178 205 153 178 205 153 178 205 153 178 205 153 178 205 153 178 205 153 178 205 153 178 205 153 178 205 153 178 205 153 178 205 153 178 205 153 178 205 153 178 205 153 178 205 153 178 205 153 178 205 153 178 205 153 178 205 153 178 205 153 178 205 153 178 205 153 178 205 153 178 205 153 178 205 153 178 205 153 178 205 153 178 205 153 178 205 153 179 205 153 179 205 153 179 205 153 179 205 153 179 205 153 179 205 153 179 205 153 179 205 153 179 205 153 179 205 153 179 205 153 179 205 153 179 205 154 179 205 153 179 205 154 179 205 154 179 205 154 179 205 154 179 205 154 179 205 154 179 205 154 179 205 154 179 205 154 179 205 154 179 205 154 179 205 154 179 205 154 179 205 154 179 205 154 179 205 154 179 205 154 179 205 154 179 205 154 179 205 154 179 205 154 179 205 154 179 205 154 179 205 154 179 205 154 179 205 154 179 205 154 179 205 154 179 205 154 179 205 154 179 205 154 179 205 154 179 205 154 179 206 154 179 206 154 179 206 154 179 206 154 179 206 154 179 206 154 179 206 154 179 206 154 179 206 154 179 206 154 179 206 154 179 206 154 179 206 154 179 206 154 179 206 154 179 206 154 179 206 154 179 206 154 179 206 154 179 206 154 179 206 154 179 206 154 179 206 154 179 206 154 179 206 154 179 206 154 179 206 154 179 206 154 179 206 154 179 206 154 179 206 154 179 206 154 179 206 154 179 206 154 179 206 154 179 206 154 179 206 154 179 206 154 179 206 154 179 206 154 179 206 154 179 206 154 179 206 154 179 206 154 179 206 154 179 206 154 179 206 154 179 206 154 179 206 154 179 206 154 179 206 154 179 206 154 179 206 154 179 206 154 179 206 154 179 206 154 179 206 154 179 206 154 179 206 154 179 206 154 179 206 154 179 206 154 179 206 154 179 206 154 179 206 154 179 206 154 179 206 154 179 206 154 179 206 154 179 206 154 179 206 154 179 206 154 179 206 154 179 206 154 179 206 154 179 206 154 179 206 154 179 206 154 179 206 154 179 206 154 179 206 154 179 206 154 179 206 154 179 206 154 179 206 154 179 206 154 179 206 154 179 206 154 179 206 154 179 206 154 179 206 154 179 206 154 179 206 154 179 206 154 179 206 154 179 206 154 179 206 154 179 206 154 179 206 154 179 206 154 179 206 154 179 206 154 179 206 154 179 206 154 179 206 154 179 206 154 179 206 154 179 206 154 179 206 154 179 206 154 179 206 154 179 206 154 179 206 154 179 206 154 179 206 154 179 206 154 179 206 154 179 206 154 179 206 154 179 206 154 179 206 154 179 206 154 179 206 154 179 206 154 179 206 154 179 206 154 179 206 154 179 206 154 179 206 154 179 206 154 179 206 154 179 206 154 179 206 154 179 206 154 179 206 154 179 206 154 179 206 154 179 206 154 179 206 154 179 206 154 179 206 154 179 206 154 179 206 154 179 206 154 179 206 154 179 206 154 179 206 154 179 206 154 179 206 154 179 206 154 179 206 154 179 206 154 179 206 154 179 206 154 179 206 154 179 206 154 179 206 154 179 206 154 179 206 154 179 206 154 179 206 154 179 206 154 179 206 154 179 206 154 179 206 154 179 206 154 179 206 154 179 206 154 179 206 154 179 206 154 179 206 154 179 206 154 179 206 154 179 206 154 179 206 154 179 206 154 179 206 154 179 206 154 179 206 154 179 206 154 179 206 154 179 206 154 179 206 154 179 206 154 179 206 154 179 206 154 179 206 154 179 206 154 179 206 154 179 206 154 179 206 154 179 206 154 179 206 154 179 206 154 179 206 154 179 206 154 179 206 154 179 206 154 179 206 154 179 206 154 179 206 154 179 206 154 179 206 154 179 206 154 179 206 154 179 206 154 179 206 154 179 206 154 179 206 154 179 206 154 179 206 154 179 206 154 179 206 154 179 206 154 179 206 154 179 206 154 179 206 154 179 206 154 179 206 154 179 206 154 179 206 154 179 206 154 179 206 154 179 206 154 179 206 154 179 206 154 179 206 154 179 206 154 179 206 154 179 206 154 179 206 154 179 206 154 179 206 154 179 206 154 179 206 154 179 206 154 179 206 154 179 206 154 179 206 154 179 206 154 179 206 154 179 206 154 179 206 154 179 206 154 179 206 154 179 206 154 179 206 154 179 206 154 179 206 154 179 206 154 179 206 154 179 206 154 179 206 154 179 206 154 179 206 154 179 206 154 179 206 154 179 206 154 179 206 154 179 206 154 179 206 154 179 206 154 179 206 154 179 206 154 179 206 154 179 206 154 179 206 154 179 206 154 179 206 154 179 206 154 179 206 154 179 206 154 179 206 154 179 206 154 179 206 154 179 206 154 179 206 154 179 206 154 179 206 154 179 206 154 179 206 154 179 206 154 179 206 154 179 206 154 179 206 154 179 206 154 179 206 154 179 206 154 179 206 154 179 206 154 179 206 154 179 206 154 179 206 154 179 206 154 179 206 154 179 206 154 179 206 154 179 206 154 179 206 154 179 206 154 179 206 154 179 206 154 179 206 154 179 206 154 179 206 154 179 206 154 179 206 154 179 206 154 179 206 154 179 206 154 179 206 154 179 206 154 179 206 154 179 206 154 179 206 154 179 206 154 179 206 154 179 206 154 179 206 154 179 206 154 179 206 154 179 206 154 179 206 154 179 206 154 179 206 154 179 206 154 179 206 154 179 206 154 179 206 154 179 206 154 179 206 154 179 206 154 179 206 154 179 206 154 179 206 154 179 206 154 179 206 154 179 206 154 179 206 154 179 206 154 179 206 154 179 206 154 179 206 154 179 206 154 179 206 154 179 206 154 179 206 154 179 206 154 179 206 154 179 206 154 179 206 154 179 206 154 179 206 154 179 206 154 179 206 154 179 206 154 179 206 154 179 206 154 179 206 154 179 206 154 179 206 154 179 206 154 179 206 154 179 206 154 179 206 154 179 206 154 179 206 154 179 206 154 179 206 154 179 206 154 179 206 154 179 206 154 179 206 154 179 206 154 179 206 154 179 206 154 179 206 154 179 206 154 179 206 154 179 206 154 179 206 154 179 206 154 179 206 154 179 206 154 179 206 154 179 206 154 179 206 154 179 206 154 179 206 154 179 206 154 179 206 154 179 206 154 179 206 154 179 206 154 179 206 154 179 206 154 179 206 154 179 206 154 179 206 154 179 206 154 179 206 154 179 206 154 179 206 154 179 206 154 179 206 154 179 206 154 179 206 154 179 206 154 179 206 154 179 206 154 179 206 154 179 206 154 179 206 154 179 206 154 179 206 154 179 206 154 179 206 154 179 206 154 179 206 154 179 206 154 179 206 154 179 206 154 179 206 154 179 206 154 179 206 154 179 206 154 179 206 154 179 206 154 179 206 154 179 206 154 179 206 154 179 206 154 179 206 154 179 206 154 179 206 154 179 206 154 179 206 154 179 206 154 179 206 154 179 206 154 179 206 154 179 206 154 179 206 154 179 206 154 179 206 154 179 206 154 179 206 154 179 206 154 179 206 154 179 206 154 179 206 154 179 206 154 179 206 154 179 206 154 179 206 154 179 206 154 179 206 154 179 206 154 179 206 154 179 206 154 179 206 154 179 206 154 179 206 154 179 206 154 179 206 154 179 206 154 179 206 154 179 206 154 179 206 154 179 206 154 179 206 154 179 206 154 179 206 154 179 206 154 179 206 154 179 206 154 179 206 154 179 206 154 179 206 154 179 206 154 179 206 154 179 206 154 179 206 154 179 206 154 179 206 154 179 206 154 179 206 154 179 206 154 179 206 154 179 206 154 179 206 154 179 206 154 179 206 154 179 206 154 179 206 154 179 206 154 179 206 154 179 206 154 179 206 154 179 206 154 179 206 154 179 206 154 179 206 154 179 206 154 179 206 154 179 206 154 179 206 154 179 206 154 179 206 154 179 206 154 179 206 154 179 206 154 179 206 154 179 206 154 179 206 154 179 206 154 179 206 154 179 206 154 179 206 154 179 206 154 179 206 154 179 206 154 179 206 154 179 206 154 179 206 154 179 206 154 179 206 154 179 206 154 179 206 154 179 206 154 179 206 154 179 206 154 179 206 154 179 206 154 179 206 154 179 206 154 179 206 154 179 206 154 179 206 154 179 206 154 179 206 154 179 206 154 179 206 154 179 206 154 179 206 154 179 206 154 179 206 154 179 205 154 179 205 154 179 205 154 179 205 154 179 205 154 179 205 154 179 205 154 179 205 154 179 205 154 179 205 154 179 205 154 179 205 154 179 205 154 179 205 154 179 205 154 179 205 154 179 205 154 179 205 154 179 205 154 179 205 154 179 205 154 179 205 154 179 205 154 179 205 154 179 205 154 179 205 154 179 205 154 179 205 154 179 205 154 179 205 154 179 205 154 179 205 154 179 205 154 179 205 153 179 205 154 179 205 153 179 205 153 179 205 153 179 205 153 179 205 153 179 205 153 179 205 153 179 205 153 179 205 153 179 205 153 179 205 153 179 205 153 179 205 153 178 205 153 178 205 153 178 205 153 178 205 153 178 205 153 178 205 153 178 205 153 178 205 153 178 205 153 178 205 153 178 205 153 178 205 153 178 205 153 178 205 153 178 205 153 178 205 153 178 205 153 178 205 153 178 205 153 178 205 153 178 205 153 178 205 153 178 205 153 178 205 153 178 205 153 178 205 153 178 205 153 178 205 153 178 205 153 178 205 153 178 205 153 178 205 153 178 205 153 178 205 153 178 205 153 178 205 153 178 205 153 178 205 153 178 205 153 178 205 153 178 205 153 178 205 153 178 205 153 178 205 153 178 205 153 178 205 153 178 205 153 178 205 153 178 205 153 178 205 153 178 205 153 178 205 153 178 205 153 178 205 153 178 205 153 178 205 153 178 205 153 178 205 153 178 205 153 178 205 153 178 205 153 178 205 153 178 205 153 178 205 153 178 205 153 178 205 153 178 205 153 178 205 153 178 205 153 178 205 153 178 205 153 178 205 153 178 205 153 178 205 153 178 205 153 178 205 153 178 205 153 178 205 153 178 205 
153 178 205 153 178 205 153 178 205 153 178 205 153 178 205 153 178 205 153 178 205 153 178 205 153 178 205 153 178 205 153 178 205 153 178 205 153 178 205 153 178 205 153 178 205 153 178 205 153 178 205 153 178 205 153 178 205 153 178 205 153 178 205 153 178 205 153 178 205 153 178 205 153 178 205 153 178 205 153 178 205 153 178 205 153 178 205 153 178 205 153 178 205 153 178 205 153 178 205 153 178 205 153 178 205 153 178 205 153 178 205 153 178 205 153 178 205 153 178 205 153 178 205 153 178 205 153 178 205 153 178 205 153 178 205 153 178 205 153 178 205 153 178 205 153 178 205 153 178 205 153 178 205 153 178 205 153 178 205 153 178 205 153 178 205 153 178 205 153 178 205 153 178 205 153 178 205 153 178 205 153 178 205 153 178 205 153 178 205 153 178 205 153 178 205 153 178 205 153 178 205 153 178 205 153 178 205 153 178 205 153 178 205 153 178 205 153 178 205 153 178 205 153 178 205 153 178 205 153 178 205 153 178 205 153 178 205 153 178 205 153 178 205 153 178 205 153 178 205 153 178 205 153 178 205 153 178 205 153 178 205 153 179 205 153 179 205 153 179 205 153 179 205 153 179 205 153 179 205 153 179 205 153 179 205 153 179 205 153 179 205 153 179 205 153 179 205 153 179 205 153 179 205 154 179 205 154 179 205 154 179 205 154 179 205 154 179 205 154 179 205 154 179 205 154 179 205 154 179 205 154 179 205 154 179 205 154 179 205 154 179 205 154 179 205 154 179 205 154 179 205 154 179 205 154 179 205 154 179 205 154 179 205 154 179 205 154 179 205 154 179 205 154 179 205 154 179 205 154 179 205 154 179 205 154 179 205 154 179 205 154 179 205 154 179 205 154 179 205 154 179 205 154 179 205 154 179 206 154 179 206 154 179 206 154 179 206 154 179 206 154 179 206 154 179 206 154 179 206 154 179 206 154 179 206 154 179 206 154 179 206 154 179 206 154 179 206 154 179 206 154 179 206 154 179 206 154 179 206 154 179 206 154 179 206 154 179 206 154 179 206 154 179 206 154 179 206 154 179 206 154 179 206 154 179 206 154 179 206 154 179 206 154 179 206 154 179 206 154 179 206 154 179 206 154 179 206 154 179 206 154 179 206 154 179 206 154 179 206 154 179 206 154 179 206 154 179 206 154 179 206 154 179 206 154 179 206 154 179 206 154 179 206 154 179 206 154 179 206 154 179 206 154 179 206 154 179 206 154 179 206 154 179 206 154 179 206 154 179 206 154 179 206 154 179 206 154 179 206 154 179 206 154 179 206 154 179 206 154 179 206 154 179 206 154 179 206 154 179 206 154 179 206 154 179 206 154 179 206 154 179 206 154 179 206 154 179 206 154 179 206 154 179 206 154 179 206 154 179 206 154 179 206 154 179 206 154 179 206 154 179 206 154 179 206 154 179 206 154 179 206 154 179 206 154 179 206 154 179 206 154 179 206 154 179 206 154 179 206 154 179 206 154 179 206 154 179 206 154 179 206 154 179 206 154 179 206 154 179 206 154 179 206 154 179 206 154 179 206 154 179 206 154 179 206 154 179 206 154 179 206 154 179 206 154 179 206 154 179 206 154 179 206 154 179 206 154 179 206 154 179 206 154 179 206 154 179 206 154 179 206 154 179 206 154 179 206 154 179 206 154 179 206 154 179 206 154 179 206 154 179 206 154 179 206 154 179 206 154 179 206 154 179 206 154 179 206 154 179 206 154 179 206 154 179 206 154 179 206 154 179 206 154 179 206 154 179 206 154 179 206 154 179 206 154 179 206 154 179 206 154 179 206 154 179 206 154 179 206 154 179 206 154 179 206 154 179 206 154 179 206 154 179 206 154 179 206 154 179 206 154 179 206 154 179 206 154 179 206 154 179 206 154 179 206 154 179 206 154 179 206 154 179 206 154 179 206 154 179 206 154 179 206 154 179 206 154 179 206 154 179 206 154 179 206 154 179 206 154 179 206 154 179 206 154 179 206 154 179 206 154 179 206 154 179 206 154 179 206 154 179 206 154 179 206 154 179 206 154 179 206 154 179 206 154 179 206 154 179 206 154 179 206 154 179 206 154 179 206 154 179 206 154 179 206 154 179 206 154 179 206 154 179 206 154 179 206 154 179 206 154 179 206 154 179 206 154 179 206 154 179 206 154 179 206 154 179 206 154 179 206 154 179 206 154 179 206 154 179 206 154 179 206 154 179 206 154 179 206 154 179 206 154 179 206 154 179 206 154 179 206 154 179 206 154 179 206 154 179 206 154 179 206 154 179 206 154 179 206 154 179 206 154 179 206 154 179 206 154 179 206 154 179 206 154 179 206 154 179 206 154 179 206 154 179 206 154 179 206 154 179 206 154 179 206 154 179 206 154 179 206 154 179 206 154 179 206 154 179 206 154 179 206 154 179 206 154 179 206 154 179 206 154 179 206 154 179 206 154 179 206 154 179 206 154 179 206 154 179 206 154 179 206 154 179 206 154 179 206 154 179 206 154 179 206 154 179 206 154 179 206 154 179 206 154 179 206 154 179 206 154 179 206 154 179 206 154 179 206 154 179 206 154 179 206 154 179 206 154 179 206 154 179 206 154 179 206 154 179 206 154 179 206 154 179 206 154 179 206 154 179 206 154 179 206 154 179 206 154 179 206 154 179 206 154 179 206 154 179 206 154 179 206 154 179 206 154 179 206 154 179 206 154 179 206 154 179 206 154 179 206 154 179 206 154 179 206 154 179 206 154 179 206 154 179 206 154 179 206 154 179 206 154 179 206 154 179 206 154 179 206 154 179 206 154 179 206 154 179 206 154 179 206 154 179 206 154 179 206 154 179 206 154 179 206 154 179 206 154 179 206 154 179 206 154 179 206 154 179 206 154 179 206 154 179 206 154 179 206 154 179 206 154 179 206 154 179 206 154 179 206 154 179 206 154 179 206 154 179 206 154 179 206 154 179 206 154 179 206 154 179 206 154 179 206 154 179 206 154 179 206 154 179 206 154 179 206 154 179 206 154 179 206 154 179 206 154 179 206 154 179 206 154 179 206 154 179 206 154 179 206 154 179 206 154 179 206 154 179 206 154 179 206 154 179 206 154 179 206 154 179 206 154 179 206 154 179 206 154 179 206 154 179 206 154 179 206 154 179 206 154 179 206 154 179 206 154 179 206 154 179 206 154 179 206 154 179 206 154 179 206 154 179 206 154 179 206 154 179 206 154 179 206 154 179 206 154 179 206 154 179 206 154 179 206 154 179 206 154 179 206 154 179 206 154 179 206 154 179 206 154 179 206 154 179 206 154 179 206 154 179 206 154 179 206 154 179 206 154 179 206 154 179 206 154 179 206 154 179 206 154 179 206 154 179 206 154 179 206 154 179 206 154 179 206 154 179 206 154 179 206 154 179 206 154 179 206 154 179 206 154 179 206 154 179 206 154 179 206 154 179 206 154 179 206 154 179 206 154 179 206 154 179 206 154 179 206 154 179 206 154 179 206 154 179 206 154 179 206 154 179 206 154 179 206 154 179 206 154 179 206 154 179 206 154 179 206 154 179 206 154 179 206 154 179 206 154 179 206 154 179 206 154 179 206 154 179 206 154 179 206 154 179 206 154 179 206 154 179 206 154 179 206 154 179 206 154 179 206 154 179 206 154 179 206 154 179 206 154 179 206 154 179 206 154 179 206 154 179 206 154 179 206 154 179 206 154 179 206 154 179 206 154 179 206 154 179 206 154 179 206 154 179 206 154 179 206 154 179 206 154 179 206 154 179 206 154 179 206 154 179 206 154 179 206 154 179 206 154 179 206 154 179 206 154 179 206 154 179 206 154 179 206 154 179 206 154 179 206 154 179 206 154 179 206 154 179 206 154 179 206 154 179 206 154 179 206 154 179 206 154 179 206 154 179 206 154 179 206 154 179 206 154 179 206 154 179 206 154 179 206 154 179 206 154 179 206 154 179 206 154 179 206 154 179 206 154 179 206 154 179 206 154 179 206 154 179 206 154 179 206 154 179 206 154 179 206 154 179 206 154 179 206 154 179 206 154 179 206 154 179 206 154 179 206 154 179 206 154 179 206 154 179 206 154 179 206 154 179 206 154 179 206 154 179 206 154 179 206 154 179 206 154 179 206 154 179 206 154 179 206 154 179 206 154 179 206 154 179 206 154 179 206 154 179 206 154 179 206 154 179 206 154 179 206 154 179 206 154 179 206 154 179 206 154 179 206 154 179 206 154 179 206 154 179 206 154 179 206 154 179 206 154 179 206 154 179 206 154 179 206 154 179 206 154 179 206 154 179 206 154 179 206 154 179 206 154 179 206 154 179 206 154 179 206 154 179 206 154 179 206 154 179 206 154 179 206 154 179 206 154 179 206 154 179 206 154 179 206 154 179 206 154 179 206 154 179 206 154 179 206 154 179 206 154 179 206 154 179 206 154 179 206 154 179 206 154 179 206 154 179 206 154 179 206 154 179 206 154 179 205 154 179 205 154 179 205 154 179 205 154 179 205 154 179 205 154 179 205 154 179 205 154 179 205 154 179 205 154 179 205 154 179 205 154 179 205 154 179 205 154 179 205 154 179 205 154 179 205 154 179 205 154 179 205 154 179 205 154 179 205 154 179 205 154 179 205 154 179 205 154 179 205 154 179 205 154 179 205 154 179 205 154 179 205 154 179 205 154 179 205 154 179 205 153 179 205 153 179 205 153 179 205 153 179 205 153 179 205 153 179 205 153 179 205 153 179 205 153 179 205 153 179 205 153 179 205 153 179 205 153 179 205 153 179 205 153 179 205 153 178 205 153 178 205 153 178 205 153 178 205 153 178 205 153 178 205 153 178 205 153 178 205 153 178 205 153 178 205 153 178 205 153 178 205 153 178 205 153 178 205 153 178 205 153 178 205 153 178 205 153 178 205 153 178 205 153 178 205 153 178 205 153 178 205 153 178 205 153 178 205 153 178 205 153 178 205 153 178 205 153 178 205 153 178 205 153 178 205 153 178 205 153 178 205 153 178 205 153 178 205 153 178 205 153 178 205 153 178 205 153 178 205 153 178 205 153 178 205 153 178 205 153 178 205 153 178 205 153 178 205 153 178 205 153 178 205 153 178 205 153 178 205 153 178 205 153 178 205 153 178 205 153 178 205 153 178 205 153 178 205 153 178 205 153 178 205 153 178 205 153 178 205 153 178 205 153 178 205 153 178 205 153 178 205 153 178 205 153 178 205 153 178 205 153 178 205 153 178 205 153 178 205 153 178 205 153 178 205 153 178 205 153 178 205 153 178 205 153 178 205 153 178 205 153 178 205 153 178 205 153 178 205 153 178 205 153 178 205 153 178 205 153 178 205 153 178 205 153 178 205 153 178 205 153 178 205 153 178 205 
153 178 205 153 178 205 153 178 205 153 178 205 153 178 205 153 178 205 153 178 205 153 178 205 153 178 205 153 178 205 153 178 205 153 178 205 153 178 205 153 178 205 153 178 205 153 178 205 153 178 205 153 178 205 153 178 205 153 178 205 153 178 205 153 178 205 153 178 205 153 178 205 153 178 205 153 178 205 153 178 205 153 178 205 153 178 205 153 178 205 153 178 205 153 178 205 153 178 205 153 178 205 153 178 205 153 178 205 153 178 205 153 178 205 153 178 205 153 178 205 153 178 205 153 178 205 153 178 205 153 178 205 153 178 205 153 178 205 153 178 205 153 178 205 153 178 205 153 178 205 153 178 205 153 178 205 153 178 205 153 178 205 153 178 205 153 178 205 153 178 205 153 178 205 153 178 205 153 178 205 153 178 205 153 178 205 153 178 205 153 178 205 153 178 205 153 178 205 153 178 205 153 178 205 153 178 205 153 178 205 153 178 205 153 178 205 153 178 205 153 178 205 153 178 205 153 178 205 153 178 205 153 178 205 153 178 205 153 178 205 153 178 205 153 178 205 153 178 205 153 178 205 153 178 205 153 178 205 153 178 205 153 178 205 153 178 205 153 178 205 153 178 205 153 178 205 153 178 205 153 178 205 153 178 205 153 179 205 153 179 205 153 179 205 153 179 205 153 179 205 153 179 205 153 179 205 153 179 205 153 179 205 153 179 205 153 179 205 153 179 205 153 179 205 153 179 205 153 179 205 154 179 205 154 179 205 154 179 205 154 179 205 154 179 205 154 179 205 154 179 205 154 179 205 154 179 205 154 179 205 154 179 205 154 179 205 154 179 205 154 179 205 154 179 205 154 179 205 154 179 205 154 179 205 154 179 205 154 179 205 154 179 205 154 179 205 154 179 205 154 179 205 154 179 205 154 179 205 154 179 205 154 179 205 154 179 205 154 179 205 154 179 205 154 179 205 154 179 205 154 179 205 154 179 206 154 179 206 154 179 206 154 179 206 154 179 206 154 179 206 154 179 206 154 179 206 154 179 206 154 179 206 154 179 206 154 179 206 154 179 206 154 179 206 154 179 206 154 179 206 154 179 206 154 179 206 154 179 206 154 179 206 154 179 206 154 179 206 154 179 206 154 179 206 154 179 206 154 179 206 154 179 206 154 179 206 154 179 206 154 179 206 154 179 206 154 179 206 154 179 206 154 179 206 154 179 206 154 179 206 154 179 206 154 179 206 154 179 206 154 179 206 154 179 206 154 179 206 154 179 206 154 179 206 154 179 206 154 179 206 154 179 206 154 179 206 154 179 206 154 179 206 154 179 206 154 179 206 154 179 206 154 179 206 154 179 206 154 179 206 154 179 206 154 179 206 154 179 206 154 179 206 154 179 206 154 179 206 154 179 206 154 179 206 154 179 206 154 179 206 154 179 206 154 179 206 154 179 206 154 179 206 154 179 206 154 179 206 154 179 206 154 179 206 154 179 206 154 179 206 154 179 206 154 179 206 154 179 206 154 179 206 154 179 206 154 179 206 154 179 206 154 179 206 154 179 206 154 179 206 154 179 206 154 179 206 154 179 206 154 179 206 154 179 206 154 179 206 154 179 206 154 179 206 154 179 206 154 179 206 154 179 206 154 179 206 154 179 206 154 179 206 154 179 206 154 179 206 154 179 206 154 179 206 154 179 206 154 179 206 154 179 206 154 179 206 154 179 206 154 179 206 154 179 206 154 179 206 154 179 206 154 179 206 154 179 206 154 179 206 154 179 206 154 179 206 154 179 206 154 179 206 154 179 206 154 179 206 154 179 206 154 179 206 154 179 206 154 179 206 154 179 206 154 179 206 154 179 206 154 179 206 154 179 206 154 179 206 154 179 206 154 179 206 154 179 206 154 179 206 154 179 206 154 179 206 154 179 206 154 179 206 154 179 206 154 179 206 154 179 206 154 179 206 154 179 206 154 179 206 154 179 206 154 179 206 154 179 206 154 179 206 154 179 206 154 179 206 154 179 206 154 179 206 154 179 206 154 179 206 154 179 206 154 179 206 154 179 206 154 179 206 154 179 206 154 179 206 154 179 206 154 179 206 154 179 206 154 179 206 154 179 206 154 179 206 154 179 206 154 179 206 154 179 206 154 179 206 154 179 206 154 179 206 154 179 206 154 179 206 154 179 206 154 179 206 154 179 206 154 179 206 154 179 206 154 179 206 154 179 206 154 179 206 154 179 206 154 179 206 154 179 206 154 179 206 154 179 206 154 179 206 154 179 206 154 179 206 154 179 206 154 179 206 154 179 206 154 179 206 154 179 206 154 179 206 154 179 206 154 179 206 154 179 206 154 179 206 154 179 206 154 179 206 154 179 206 154 179 206 154 179 206 154 179 206 154 179 206 154 179 206 154 179 206 154 179 206 154 179 206 154 179 206 154 179 206 154 179 206 154 179 206 154 179 206 154 179 206 154 179 206 154 179 206 154 179 206 154 179 206 154 179 206 154 179 206 154 179 206 154 179 206 154 179 206 154 179 206 154 179 206 154 179 206 154 179 206 154 179 206 154 179 206 154 179 206 154 179 206 154 179 206 154 179 206 154 179 206 154 179 206 154 179 206 154 179 206 154 179 206 154 179 206 154 179 206 154 179 206 154 179 206 154 179 206 154 179 206 154 179 206 154 179 206 154 179 206 154 179 206 154 179 206 154 179 206 154 179 206 154 179 206 154 179 206 154 179 206 154 179 206 154 179 206 154 179 206 154 179 206 154 179 206 154 179 206 154 179 206 154 179 206 154 179 206 154 179 206 154 179 206 154 179 206 154 179 206 154 179 206 154 179 206 154 179 206 154 179 206 154 179 206 154 179 206 154 179 206 154 179 206 154 179 206 154 179 206 154 179 206 154 179 206 154 179 206 154 179 206 154 179 206 154 179 206 154 179 206 154 179 206 154 179 206 154 179 206 154 179 206 154 179 206 154 179 206 154 179 206 154 179 206 154 179 206 154 179 206 154 179 206 154 179 206 154 179 206 154 179 206 154 179 206 154 179 206 154 179 206 154 179 206 154 179 206 154 179 206 154 179 206 154 179 206 154 179 206 154 179 206 154 179 206 154 179 206 154 179 206 154 179 206 154 179 206 154 179 206 154 179 206 154 179 206 154 179 206 154 179 206 154 179 206 154 179 206 154 179 206 154 179 206 154 179 206 154 179 206 154 179 206 154 179 206 154 179 206 154 179 206 154 179 206 154 179 206 154 179 206 154 179 206 154 179 206 154 179 206 154 179 206 154 179 206 154 179 206 154 179 206 154 179 206 154 179 206 154 179 206 154 179 206 154 179 206 154 179 206 154 179 206 154 179 206 154 179 206 154 179 206 154 179 206 154 179 206 154 179 206 154 179 206 154 179 206 154 179 206 154 179 206 154 179 206 154 179 206 154 179 206 154 179 206 154 179 206 154 179 206 154 179 206 154 179 206 154 179 206 154 179 206 154 179 206 154 179 206 154 179 206 154 179 206 154 179 206 154 179 206 154 179 206 154 179 206 154 179 206 154 179 206 154 179 206 154 179 206 154 179 206 154 179 206 154 179 206 154 179 206 154 179 206 154 179 206 154 179 206 154 179 206 154 179 206 154 179 206 154 179 206 154 179 206 154 179 206 154 179 206 154 179 206 154 179 206 154 179 206 154 179 206 154 179 206 154 179 206 154 179 206 154 179 206 154 179 206 154 179 206 154 179 206 154 179 206 154 179 206 154 179 206 154 179 206 154 179 206 154 179 206 154 179 206 154 179 206 154 179 206 154 179 206 154 179 206 154 179 206 154 179 206 154 179 206 154 179 206 154 179 206 154 179 206 154 179 206 154 179 206 154 179 206 154 179 206 154 179 206 154 179 206 154 179 206 154 179 206 154 179 206 154 179 206 154 179 206 154 179 206 154 179 206 154 179 206 154 179 206 154 179 206 154 179 206 154 179 206 154 179 206 154 179 206 154 179 206 154 179 206 154 179 206 154 179 206 154 179 206 154 179 206 154 179 206 154 179 206 154 179 206 154 179 206 154 179 206 154 179 206 154 179 206 154 179 206 154 179 206 154 179 206 154 179 206 154 179 206 154 179 206 154 179 206 154 179 206 154 179 206 154 179 206 154 179 206 154 179 206 154 179 206 154 179 206 154 179 206 154 179 206 154 179 206 154 179 206 154 179 206 154 179 206 154 179 206 154 179 206 154 179 206 154 179 206 154 179 206 154 179 206 154 179 206 154 179 206 154 179 206 154 179 206 154 179 206 154 179 206 154 179 206 154 179 206 154 179 206 154 179 206 154 179 206 154 179 206 154 179 206 154 179 206 154 179 206 154 179 206 154 179 206 154 179 206 154 179 206 154 179 206 154 179 206 154 179 206 154 179 206 154 179 206 154 179 206 154 179 206 154 179 206 154 179 206 154 179 206 154 179 205 154 179 205 154 179 205 154 179 205 154 179 205 154 179 205 154 179 205 154 179 205 154 179 205 154 179 205 154 179 205 154 179 205 154 179 205 154 179 205 154 179 205 154 179 205 154 179 205 154 179 205 154 179 205 154 179 205 154 179 205 154 179 205 154 179 205 154 179 205 154 179 205 154 179 205 154 179 205 154 179 205 154 179 205 154 179 205 154 179 205 154 179 205 154 179 205 153 179 205 153 179 205 153 179 205 153 179 205 153 179 205 153 179 205 153 179 205 153 179 205 153 179 205 153 179 205 153 179 205 153 179 205 153 179 205 153 179 205 153 179 205 153 179 205 153 179 205 153 178 205 153 178 205 153 178 205 153 178 205 153 178 205 153 178 205 153 178 205 153 178 205 153 178 205 153 178 205 153 178 205 153 178 205 153 178 205 153 178 205 153 178 205 153 178 205 153 178 205 153 178 205 153 178 205 153 178 205 153 178 205 153 178 205 153 178 205 153 178 205 153 178 205 153 178 205 153 178 205 153 178 205 153 178 205 153 178 205 153 178 205 153 178 205 153 178 205 153 178 205 153 178 205 153 178 205 153 178 205 153 178 205 153 178 205 153 178 205 153 178 205 153 178 205 153 178 205 153 178 205 153 178 205 153 178 205 153 178 205 153 178 205 153 178 205 153 178 205 153 178 205 153 178 205 153 178 205 153 178 205 153 178 205 153 178 205 153 178 205 153 178 205 153 178 205 153 178 205 153 178 205 153 178 205 153 178 205 153 178 205 153 178 205 153 178 205 153 178 205 153 178 205 153 178 205 153 178 205 153 178 205 153 178 205 153 178 205 153 178 205 153 178 205 153 178 205 153 178 205 153 178 205 153 178 205 153 178 205 153 178 205 153 178 205 153 178 205 153 178 205 153 178 205 153 178 205 153 178 205 153 178 205 153 178 205 153 178 205 153 178 205 153 178 205 153 178 205 153 178 205 
153 178 205 153 178 205 153 178 205 153 178 205 153 178 205 153 178 205 153 178 205 153 178 205 153 178 205 153 178 205 153 178 205 153 178 205 153 178 205 153 178 205 153 178 205 153 178 205 153 178 205 153 178 205 153 178 205 153 178 205 153 178 205 153 178 205 153 178 205 153 178 205 153 178 205 153 178 205 153 178 205 153 178 205 153 178 205 153 178 205 153 178 205 153 178 205 153 178 205 153 178 205 153 178 205 153 178 205 153 178 205 153 178 205 153 178 205 153 178 205 153 178 205 153 178 205 153 178 205 153 178 205 153 178 205 153 178 205 153 178 205 153 178 205 153 178 205 153 178 205 153 178 205 153 178 205 153 178 205 153 178 205 153 178 205 153 178 205 153 178 205 153 178 205 153 178 205 153 178 205 153 178 205 153 178 205 153 178 205 153 178 205 153 178 205 153 178 205 153 178 205 153 178 205 153 178 205 153 178 205 153 178 205 153 178 205 153 178 205 153 178 205 153 178 205 153 178 205 153 178 205 153 178 205 153 178 205 153 178 205 153 178 205 153 178 205 153 178 205 153 178 205 153 178 205 153 178 205 153 178 205 153 178 205 153 178 205 153 178 205 153 178 205 153 178 205 153 178 205 153 178 205 153 178 205 153 178 205 153 178 205 153 178 205 153 178 205 153 178 205 153 178 205 153 178 205 153 178 205 153 178 205 153 179 205 153 179 205 153 179 205 153 179 205 153 179 205 153 179 205 153 179 205 153 179 205 153 179 205 153 179 205 153 179 205 153 179 205 153 179 205 153 179 205 153 179 205 154 179 205 154 179 205 154 179 205 154 179 205 154 179 205 154 179 205 154 179 205 154 179 205 154 179 205 154 179 205 154 179 205 154 179 205 154 179 205 154 179 205 154 179 205 154 179 205 154 179 205 154 179 205 154 179 205 154 179 205 154 179 205 154 179 205 154 179 205 154 179 205 154 179 205 154 179 205 154 179 205 154 179 205 154 179 205 154 179 205 154 179 205 154 179 205 154 179 205 154 179 205 154 179 205 154 179 205 154 179 206 154 179 206 154 179 206 154 179 206 154 179 206 154 179 206 154 179 206 154 179 206 154 179 206 154 179 206 154 179 206 154 179 206 154 179 206 154 179 206 154 179 206 154 179 206 154 179 206 154 179 206 154 179 206 154 179 206 154 179 206 154 179 206 154 179 206 154 179 206 154 179 206 154 179 206 154 179 206 154 179 206 154 179 206 154 179 206 154 179 206 154 179 206 154 179 206 154 179 206 154 179 206 154 179 206 154 179 206 154 179 206 154 179 206 154 179 206 154 179 206 154 179 206 154 179 206 154 179 206 154 179 206 154 179 206 154 179 206 154 179 206 154 179 206 154 179 206 154 179 206 154 179 206 154 179 206 154 179 206 154 179 206 154 179 206 154 179 206 154 179 206 154 179 206 154 179 206 154 179 206 154 179 206 154 179 206 154 179 206 154 179 206 154 179 206 154 179 206 154 179 206 154 179 206 154 179 206 154 179 206 154 179 206 154 179 206 154 179 206 154 179 206 154 179 206 154 179 206 154 179 206 154 179 206 154 179 206 154 179 206 154 179 206 154 179 206 154 179 206 154 179 206 154 179 206 154 179 206 154 179 206 154 179 206 154 179 206 154 179 206 154 179 206 154 179 206 154 179 206 154 179 206 154 179 206 154 179 206 154 179 206 154 179 206 154 179 206 154 179 206 154 179 206 154 179 206 154 179 206 154 179 206 154 179 206 154 179 206 154 179 206 154 179 206 154 179 206 154 179 206 154 179 206 154 179 206 154 179 206 154 179 206 154 179 206 154 179 206 154 179 206 154 179 206 154 179 206 154 179 206 154 179 206 154 179 206 154 179 206 154 179 206 154 179 206 154 179 206 154 179 206 154 179 206 154 179 206 154 179 206 154 179 206 154 179 206 154 179 206 154 179 206 154 179 206 154 179 206 154 179 206 154 179 206 154 179 206 154 179 206 154 179 206 154 179 206 154 179 206 154 179 206 154 179 206 154 179 206 154 179 206 154 179 206 154 179 206 154 179 206 154 179 206 154 179 206 154 179 206 154 179 206 154 179 206 154 179 206 154 179 206 154 179 206 154 179 206 154 179 206 154 179 206 154 179 206 154 179 206 154 179 206 154 179 206 154 179 206 154 179 206 154 179 206 154 179 206 154 179 206 154 179 206 154 179 206 154 179 206 154 179 206 154 179 206 154 179 206 154 179 206 154 179 206 154 179 206 154 179 206 154 179 206 154 179 206 154 179 206 154 179 206 154 179 206 154 179 206 154 179 206 154 179 206 154 179 206 154 179 206 154 179 206 154 179 206 154 179 206 154 179 206 154 179 206 154 179 206 154 179 206 154 179 206 154 179 206 154 179 206 154 179 206 154 179 206 154 179 206 154 179 206 154 179 206 154 179 206 154 179 206 154 179 206 154 179 206 154 179 206 154 179 206 154 179 206 154 179 206 154 179 206 154 179 206 154 179 206 154 179 206 154 179 206 154 179 206 154 179 206 154 179 206 154 179 206 154 179 206 154 179 206 154 179 206 154 179 206 154 179 206 154 179 206 154 179 206 154 179 206 154 179 206 154 179 206 154 179 206 154 179 206 154 179 206 154 179 206 154 179 206 154 179 206 154 179 206 154 179 206 154 179 206 154 179 206 154 179 206 154 179 206 154 179 206 154 179 206 154 179 206 154 179 206 154 179 206 154 179 206 154 179 206 154 179 206 154 179 206 154 179 206 154 179 206 154 179 206 154 179 206 154 179 206 154 179 206 154 179 206 154 179 206 154 179 206 154 179 206 154 179 206 154 179 206 154 179 206 154 179 206 154 179 206 154 179 206 154 179 206 154 179 206 154 179 206 154 179 206 154 179 206 154 179 206 154 179 206 154 179 206 154 179 206 154 179 206 154 179 206 154 179 206 154 179 206 154 179 206 154 179 206 154 179 206 154 179 206 154 179 206 154 179 206 154 179 206 154 179 206 154 179 206 154 179 206 154 179 206 154 179 206 154 179 206 154 179 206 154 179 206 154 179 206 154 179 206 154 179 206 154 179 206 154 179 206 154 179 206 154 179 206 154 179 206 154 179 206 154 179 206 154 179 206 154 179 206 154 179 206 154 179 206 154 179 206 154 179 206 154 179 206 154 179 206 154 179 206 154 179 206 154 179 206 154 179 206 154 179 206 154 179 206 154 179 206 154 179 206 154 179 206 154 179 206 154 179 206 154 179 206 154 179 206 154 179 206 154 179 206 154 179 206 154 179 206 154 179 206 154 179 206 154 179 206 154 179 206 154 179 206 154 179 206 154 179 206 154 179 206 154 179 206 154 179 206 154 179 206 154 179 206 154 179 206 154 179 206 154 179 206 154 179 206 154 179 206 154 179 206 154 179 206 154 179 206 154 179 206 154 179 206 154 179 206 154 179 206 154 179 206 154 179 206 154 179 206 154 179 206 154 179 206 154 179 206 154 179 206 154 179 206 154 179 206 154 179 206 154 179 206 154 179 206 154 179 206 154 179 206 154 179 206 154 179 206 154 179 206 154 179 206 154 179 206 154 179 206 154 179 206 154 179 206 154 179 206 154 179 206 154 179 206 154 179 206 154 179 206 154 179 206 154 179 206 154 179 206 154 179 206 154 179 206 154 179 206 154 179 206 154 179 206 154 179 206 154 179 206 154 179 206 154 179 206 154 179 206 154 179 206 154 179 206 154 179 206 154 179 206 154 179 206 154 179 206 154 179 206 154 179 206 154 179 206 154 179 206 154 179 206 154 179 206 154 179 206 154 179 206 154 179 206 154 179 206 154 179 206 154 179 206 154 179 206 154 179 206 154 179 206 154 179 206 154 179 206 154 179 206 154 179 206 154 179 206 154 179 206 154 179 206 154 179 206 154 179 206 154 179 206 154 179 206 154 179 206 154 179 206 154 179 206 154 179 206 154 179 206 154 179 206 154 179 206 154 179 206 154 179 206 154 179 206 154 179 206 154 179 206 154 179 206 154 179 206 154 179 206 154 179 206 154 179 206 154 179 206 154 179 206 154 179 206 154 179 206 154 179 206 154 179 206 154 179 206 154 179 206 154 179 206 154 179 206 154 179 206 154 179 206 154 179 206 154 179 206 154 179 206 154 179 206 154 179 206 154 179 206 154 179 206 154 179 206 154 179 206 154 179 206 154 179 206 154 179 206 154 179 206 154 179 206 154 179 206 154 179 206 154 179 206 154 179 206 154 179 206 154 179 206 154 179 206 154 179 206 154 179 206 154 179 206 154 179 206 154 179 206 154 179 206 154 179 206 154 179 206 154 179 206 154 179 206 154 179 206 154 179 205 154 179 205 154 179 206 154 179 205 154 179 205 154 179 205 154 179 205 154 179 205 154 179 205 154 179 205 154 179 205 154 179 205 154 179 205 154 179 205 154 179 205 154 179 205 154 179 205 154 179 205 154 179 205 154 179 205 154 179 205 154 179 205 154 179 205 154 179 205 154 179 205 154 179 205 154 179 205 154 179 205 154 179 205 154 179 205 154 179 205 154 179 205 154 179 205 154 179 205 154 179 205 154 179 205 153 179 205 153 179 205 153 179 205 153 179 205 153 179 205 153 179 205 153 179 205 153 179 205 153 179 205 153 179 205 153 179 205 153 179 205 153 179 205 153 179 205 153 179 205 153 179 205 153 178 205 153 178 205 153 178 205 153 178 205 153 178 205 153 178 205 153 178 205 153 178 205 153 178 205 153 178 205 153 178 205 153 178 205 153 178 205 153 178 205 153 178 205 153 178 205 153 178 205 153 178 205 153 178 205 153 178 205 153 178 205 153 178 205 153 178 205 153 178 205 153 178 205 153 178 205 153 178 205 153 178 205 153 178 205 153 178 205 153 178 205 153 178 205 153 178 205 153 178 205 153 178 205 153 178 205 153 178 205 153 178 205 153 178 205 153 178 205 153 178 205 153 178 205 153 178 205 153 178 205 153 178 205 153 178 205 153 178 205 153 178 205 153 178 205 153 178 205 153 178 205 153 178 205 153 178 205 153 178 205 153 178 205 153 178 205 153 178 205 153 178 205 153 178 205 153 178 205 153 178 205 153 178 205 153 178 205 153 178 205 153 178 205 153 178 205 153 178 205 153 178 205 153 178 205 153 178 205 153 178 205 153 178 205 153 178 205 153 178 205 153 178 205 153 178 205 153 178 205 153 178 205 153 178 205 153 178 205 153 178 205 153 178 205 153 178 205 153 178 205 153 178 205 153 178 205 153 178 205 153 178 205 153 178 205 153 178 205 153 178 205 153 178 205 153 178 205 153 178 205 153 178 205 153 178 205 153 178 205 153 178 205 153 178 205 153 178 205 153 178 205 153 178 205 153 178 205 
153 178 205 153 178 205 153 178 205 153 178 205 153 178 205 153 178 205 153 178 205 153 178 205 153 178 205 153 178 205 153 178 205 153 178 205 153 178 205 153 178 205 153 178 205 153 178 205 153 178 205 153 178 205 153 178 205 153 178 205 153 178 205 153 178 205 153 178 205 153 178 205 153 178 205 153 178 205 153 178 205 153 178 205 153 178 205 153 178 205 153 178 205 153 178 205 153 178 205 153 178 205 153 178 205 153 178 205 153 178 205 153 178 205 153 178 205 153 178 205 153 178 205 153 178 205 153 178 205 153 178 205 153 178 205 153 178 205 153 178 205 153 178 205 153 178 205 153 178 205 153 178 205 153 178 205 153 178 205 153 178 205 153 178 205 153 178 205 153 178 205 153 178 205 153 178 205 153 178 205 153 178 205 153 178 205 153 178 205 153 178 205 153 178 205 153 178 205 153 178 205 153 178 205 153 178 205 153 178 205 153 178 205 153 178 205 153 178 205 153 178 205 153 178 205 153 178 205 153 178 205 153 178 205 153 178 205 153 178 205 153 178 205 153 178 205 153 178 205 153 178 205 153 178 205 153 178 205 153 178 205 153 178 205 153 178 205 153 178 205 153 178 205 153 178 205 153 178 205 153 178 205 153 178 205 153 178 205 153 178 205 153 178 205 153 178 205 153 178 205 153 178 205 153 178 205 153 178 205 153 178 205 153 178 205 153 178 205 153 178 205 153 178 205 153 178 205 153 178 205 153 178 205 153 178 205 153 179 205 153 179 205 153 179 205 153 179 205 153 179 205 153 179 205 153 179 205 153 179 205 153 179 205 153 179 205 153 179 205 153 179 205 153 179 205 153 179 205 153 179 205 153 179 205 154 179 205 154 179 205 154 179 205 154 179 205 154 179 205 154 179 205 154 179 205 154 179 205 154 179 205 154 179 205 154 179 205 154 179 205 154 179 205 154 179 205 154 179 205 154 179 205 154 179 205 154 179 205 154 179 205 154 179 205 154 179 205 154 179 205 154 179 205 154 179 205 154 179 205 154 179 205 154 179 205 154 179 205 154 179 205 154 179 205 154 179 205 154 179 205 154 179 205 154 179 205 154 179 205 154 179 205 154 179 206 154 179 206 154 179 206 154 179 206 154 179 206 154 179 206 154 179 206 154 179 206 154 179 206 154 179 206 154 179 206 154 179 206 154 179 206 154 179 206 154 179 206 154 179 206 154 179 206 154 179 206 154 179 206 154 179 206 154 179 206 154 179 206 154 179 206 154 179 206 154 179 206 154 179 206 154 179 206 154 179 206 154 179 206 154 179 206 154 179 206 154 179 206 154 179 206 154 179 206 154 179 206 154 179 206 154 179 206 154 179 206 154 179 206 154 179 206 154 179 206 154 179 206 154 179 206 154 179 206 154 179 206 154 179 206 154 179 206 154 179 206 154 179 206 154 179 206 154 179 206 154 179 206 154 179 206 154 179 206 154 179 206 154 179 206 154 179 206 154 179 206 154 179 206 154 179 206 154 179 206 154 179 206 154 179 206 154 179 206 154 179 206 154 179 206 154 179 206 154 179 206 154 179 206 154 179 206 154 179 206 154 179 206 154 179 206 154 179 206 154 179 206 154 179 206 154 179 206 154 179 206 154 179 206 154 179 206 154 179 206 154 179 206 154 179 206 154 179 206 154 179 206 154 179 206 154 179 206 154 179 206 154 179 206 154 179 206 154 179 206 154 179 206 154 179 206 154 179 206 154 179 206 154 179 206 154 179 206 154 179 206 154 179 206 154 179 206 154 179 206 154 179 206 154 179 206 154 179 206 154 179 206 154 179 206 154 179 206 154 179 206 154 179 206 154 179 206 154 179 206 154 179 206 154 179 206 154 179 206 154 179 206 154 179 206 154 179 206 154 179 206 154 179 206 154 179 206 154 179 206 154 179 206 154 179 206 154 179 206 154 179 206 154 179 206 154 179 206 154 179 206 154 179 206 154 179 206 154 179 206 154 179 206 154 179 206 154 179 206 154 179 206 154 179 206 154 179 206 154 179 206 154 179 206 154 179 206 154 179 206 154 179 206 154 179 206 154 179 206 154 179 206 154 179 206 154 179 206 154 179 206 154 179 206 154 179 206 154 179 206 154 179 206 154 179 206 154 179 206 154 179 206 154 179 206 154 179 206 154 179 206 154 179 206 154 179 206 154 179 206 154 179 206 154 179 206 154 179 206 154 179 206 154 179 206 154 179 206 154 179 206 154 179 206 154 179 206 154 179 206 154 179 206 154 179 206 154 179 206 154 179 206 154 179 206 154 179 206 154 179 206 154 179 206 154 179 206 154 179 206 154 179 206 154 179 206 154 179 206 154 179 206 154 179 206 154 179 206 154 179 206 154 179 206 154 179 206 154 179 206 154 179 206 154 179 206 154 179 206 154 179 206 154 179 206 154 179 206 154 179 206 154 179 206 154 179 206 154 179 206 154 179 206 154 179 206 154 179 206 154 179 206 154 179 206 154 179 206 154 179 206 154 179 206 154 179 206 154 179 206 154 179 206 154 179 206 154 179 206 154 179 206 154 179 206 154 179 206 154 179 206 154 179 206 154 179 206 154 179 206 154 179 206 154 179 206 154 179 206 154 179 206 154 179 206 154 179 206 154 179 206 154 179 206 154 179 206 154 179 206 154 179 206 154 179 206 154 179 206 154 179 206 154 179 206 154 179 206 154 179 206 154 179 206 154 179 206 154 179 206 154 179 206 154 179 206 154 179 206 154 179 206 154 179 206 154 179 206 154 179 206 154 179 206 154 179 206 154 179 206 154 179 206 154 179 206 154 179 206 154 179 206 154 179 206 154 179 206 154 179 206 154 179 206 154 179 206 154 179 206 154 179 206 154 179 206 154 179 206 154 179 206 154 179 206 154 179 206 154 179 206 154 179 206 154 179 206 154 179 206 154 179 206 154 179 206 154 179 206 154 179 206 154 179 206 154 179 206 154 179 206 154 179 206 154 179 206 154 179 206 154 179 206 154 179 206 154 179 206 154 179 206 154 179 206 154 179 206 154 179 206 154 179 206 154 179 206 154 179 206 154 179 206 154 179 206 154 179 206 154 179 206 154 179 206 154 179 206 154 179 206 154 179 206 154 179 206 154 179 206 154 179 206 154 179 206 154 179 206 154 179 206 154 179 206 154 179 206 154 179 206 154 179 206 154 179 206 154 179 206 154 179 206 154 179 206 154 179 206 154 179 206 154 179 206 154 179 206 154 179 206 154 179 206 154 179 206 154 179 206 154 179 206 154 179 206 154 179 206 154 179 206 154 179 206 154 179 206 154 179 206 154 179 206 154 179 206 154 179 206 154 179 206 154 179 206 154 179 206 154 179 206 154 179 206 154 179 206 154 179 206 154 179 206 154 179 206 154 179 206 154 179 206 154 179 206 154 179 206 154 179 206 154 179 206 154 179 206 154 179 206 154 179 206 154 179 206 154 179 206 154 179 206 154 179 206 154 179 206 154 179 206 154 179 206 154 179 206 154 179 206 154 179 206 154 179 206 154 179 206 154 179 206 154 179 206 154 179 206 154 179 206 154 179 206 154 179 206 154 179 206 154 179 206 154 179 206 154 179 206 154 179 206 154 179 206 154 179 206 154 179 206 154 179 206 154 179 206 154 179 206 154 179 206 154 179 206 154 179 206 154 179 206 154 179 206 154 179 206 154 179 206 154 179 206 154 179 206 154 179 206 154 179 206 154 179 206 154 179 206 154 179 206 154 179 206 154 179 206 154 179 206 154 179 206 154 179 206 154 179 206 154 179 206 154 179 206 154 179 206 154 179 206 154 179 206 154 179 206 154 179 206 154 179 206 154 179 206 154 179 206 154 179 206 154 179 206 154 179 206 154 179 206 154 179 206 154 179 206 154 179 206 154 179 206 154 179 206 154 179 206 154 179 206 154 179 206 154 179 206 154 179 206 154 179 206 154 179 206 154 179 206 154 179 206 154 179 206 154 179 206 154 179 206 154 179 206 154 179 206 154 179 206 154 179 206 154 179 206 154 179 206 154 179 206 154 179 206 154 179 206 154 179 206 154 179 206 154 179 206 154 179 206 154 179 206 154 179 206 154 179 206 154 179 206 154 179 206 154 179 206 154 179 206 154 179 206 154 179 206 154 179 206 154 179 206 154 179 206 154 179 206 154 179 206 154 179 206 154 179 206 154 179 206 154 179 206 154 179 206 154 179 206 154 179 206 154 179 206 154 179 206 154 179 206 154 179 206 154 179 206 154 179 206 154 179 206 154 179 206 154 179 205 154 179 205 154 179 205 154 179 205 154 179 205 154 179 205 154 179 205 154 179 205 154 179 205 154 179 205 154 179 205 154 179 205 154 179 205 154 179 205 154 179 205 154 179 205 154 179 205 154 179 205 154 179 205 154 179 205 154 179 205 154 179 205 154 179 205 154 179 205 154 179 205 154 179 205 154 179 205 154 179 205 154 179 205 154 179 205 154 179 205 154 179 205 154 179 205 154 179 205 154 179 205 154 179 205 153 179 205 153 179 205 153 179 205 153 179 205 153 179 205 153 179 205 153 179 205 153 179 205 153 179 205 153 179 205 153 179 205 153 179 205 153 179 205 153 179 205 153 179 205 153 179 205 153 179 205 153 178 205 153 178 205 153 178 205 153 178 205 153 178 205 153 178 205 153 178 205 153 178 205 153 178 205 153 178 205 153 178 205 153 178 205 153 178 205 153 178 205 153 178 205 153 178 205 153 178 205 153 178 205 153 178 205 153 178 205 153 178 205 153 178 205 153 178 205 153 178 205 153 178 205 153 178 205 153 178 205 153 178 205 153 178 205 153 178 205 153 178 205 153 178 205 153 178 205 153 178 205 153 178 205 153 178 205 153 178 205 153 178 205 153 178 205 153 178 205 153 178 205 153 178 205 153 178 205 153 178 205 153 178 205 153 178 205 153 178 205 153 178 205 153 178 205 153 178 205 153 178 205 153 178 205 153 178 205 153 178 205 153 178 205 153 178 205 153 178 205 153 178 205 153 178 205 153 178 205 153 178 205 153 178 205 153 178 205 153 178 205 153 178 205 153 178 205 153 178 205 153 178 205 153 178 205 153 178 205 153 178 205 153 178 205 153 178 205 153 178 205 153 178 205 153 178 205 153 178 205 153 178 205 153 178 205 153 178 205 153 178 205 153 178 205 153 178 205 153 178 205 153 178 205 153 178 205 153 178 205 153 178 205 153 178 205 153 178 205 153 178 205 153 178 205 153 178 205 153 178 205 153 178 205 153 178 205 153 178 205 153 178 205 153 178 205 153 178 205 153 178 205 153 178 205 153 178 205 153 178 205 153 178 205 153 178 205 153 178 205 153 178 205 153 178 205 153 178 205 153 178 205 153 178 205 
153 178 205 153 178 205 153 178 205 153 178 205 153 178 205 153 178 205 153 178 205 153 178 205 153 178 205 153 178 205 153 178 205 153 178 205 153 178 205 153 178 205 153 178 205 153 178 205 153 178 205 153 178 205 153 178 205 153 178 205 153 178 205 153 178 205 153 178 205 153 178 205 153 178 205 153 178 205 153 178 205 153 178 205 153 178 205 153 178 205 153 178 205 153 178 205 153 178 205 153 178 205 153 178 205 153 178 205 153 178 205 153 178 205 153 178 205 153 178 205 153 178 205 153 178 205 153 178 205 153 178 205 153 178 205 153 178 205 153 178 205 153 178 205 153 178 205 153 178 205 153 178 205 153 178 205 153 178 205 153 178 205 153 178 205 153 178 205 153 178 205 153 178 205 153 178 205 153 178 205 153 178 205 153 178 205 153 178 205 153 178 205 153 178 205 153 178 205 153 178 205 153 178 205 153 178 205 153 178 205 153 178 205 153 178 205 153 178 205 153 178 205 153 178 205 153 178 205 153 178 205 153 178 205 153 178 205 153 178 205 153 178 205 153 178 205 153 178 205 153 178 205 153 178 205 153 178 205 153 178 205 153 178 205 153 178 205 153 178 205 153 178 205 153 178 205 153 178 205 153 178 205 153 178 205 153 178 205 153 178 205 153 178 205 153 178 205 153 178 205 153 178 205 153 178 205 153 178 205 153 178 205 153 178 205 153 178 205 153 178 205 153 178 205 153 178 205 153 178 205 153 178 205 153 178 205 153 178 205 153 178 205 153 178 205 153 178 205 153 178 205 153 178 205 153 178 205 153 178 205 153 178 205 153 179 205 153 179 205 153 179 205 153 179 205 153 179 205 153 179 205 153 179 205 153 179 205 153 179 205 153 179 205 153 179 205 153 179 205 153 179 205 153 179 205 153 179 205 153 179 205 154 179 205 154 179 205 154 179 205 154 179 205 154 179 205 154 179 205 154 179 205 154 179 205 154 179 205 154 179 205 154 179 205 154 179 205 154 179 205 154 179 205 154 179 205 154 179 205 154 179 205 154 179 205 154 179 205 154 179 205 154 179 205 154 179 205 154 179 205 154 179 205 154 179 205 154 179 205 154 179 205 154 179 205 154 179 205 154 179 205 154 179 205 154 179 205 154 179 205 154 179 205 154 179 205 154 179 205 154 179 206 154 179 206 154 179 206 154 179 206 154 179 206 154 179 206 154 179 206 154 179 206 154 179 206 154 179 206 154 179 206 154 179 206 154 179 206 154 179 206 154 179 206 154 179 206 154 179 206 154 179 206 154 179 206 154 179 206 154 179 206 154 179 206 154 179 206 154 179 206 154 179 206 154 179 206 154 179 206 154 179 206 154 179 206 154 179 206 154 179 206 154 179 206 154 179 206 154 179 206 154 179 206 154 179 206 154 179 206 154 179 206 154 179 206 154 179 206 154 179 206 154 179 206 154 179 206 154 179 206 154 179 206 154 179 206 154 179 206 154 179 206 154 179 206 154 179 206 154 179 206 154 179 206 154 179 206 154 179 206 154 179 206 154 179 206 154 179 206 154 179 206 154 179 206 154 179 206 154 179 206 154 179 206 154 179 206 154 179 206 154 179 206 154 179 206 154 179 206 154 179 206 154 179 206 154 179 206 154 179 206 154 179 206 154 179 206 154 179 206 154 179 206 154 179 206 154 179 206 154 179 206 154 179 206 154 179 206 154 179 206 154 179 206 154 179 206 154 179 206 154 179 206 154 179 206 154 179 206 154 179 206 154 179 206 154 179 206 154 179 206 154 179 206 154 179 206 154 179 206 154 179 206 154 179 206 154 179 206 154 179 206 154 179 206 154 179 206 154 179 206 154 179 206 154 179 206 154 179 206 154 179 206 154 179 206 154 179 206 154 179 206 154 179 206 154 179 206 154 179 206 154 179 206 154 179 206 154 179 206 154 179 206 154 179 206 154 179 206 154 179 206 154 179 206 154 179 206 154 179 206 154 179 206 154 179 206 154 179 206 154 179 206 154 179 206 154 179 206 154 179 206 154 179 206 154 179 206 154 179 206 154 179 206 154 179 206 154 179 206 154 179 206 154 179 206 154 179 206 154 179 206 154 179 206 154 179 206 154 179 206 154 179 206 154 179 206 154 179 206 154 179 206 154 179 206 154 179 206 154 179 206 154 179 206 154 179 206 154 179 206 154 179 206 154 179 206 154 179 206 154 179 206 154 179 206 154 179 206 154 179 206 154 179 206 154 179 206 154 179 206 154 179 206 154 179 206 154 179 206 154 179 206 154 179 206 154 179 206 154 179 206 154 179 206 154 179 206 154 179 206 154 179 206 154 179 206 154 179 206 154 179 206 154 179 206 154 179 206 154 179 206 154 179 206 154 179 206 154 179 206 154 179 206 154 179 206 154 179 206 154 179 206 154 179 206 154 179 206 154 179 206 154 179 206 154 179 206 154 179 206 154 179 206 154 179 206 154 179 206 154 179 206 154 179 206 154 179 206 154 179 206 154 179 206 154 179 206 154 179 206 154 179 206 154 179 206 154 179 206 154 179 206 154 179 206 154 179 206 154 179 206 154 179 206 154 179 206 154 179 206 154 179 206 154 179 206 154 179 206 154 179 206 154 179 206 154 179 206 154 179 206 154 179 206 154 179 206 154 179 206 154 179 206 154 179 206 154 179 206 154 179 206 154 179 206 154 179 206 154 179 206 154 179 206 154 179 206 154 179 206 154 179 206 154 179 206 154 179 206 154 179 206 154 179 206 154 179 206 154 179 206 154 179 206 154 179 206 154 179 206 154 179 206 154 179 206 154 179 206 154 179 206 154 179 206 154 179 206 154 179 206 154 179 206 154 179 206 154 179 206 154 179 206 154 179 206 154 179 206 154 179 206 154 179 206 154 179 206 154 179 206 154 179 206 154 179 206 154 179 206 154 179 206 154 179 206 154 179 206 154 179 206 154 179 206 154 179 206 154 179 206 154 179 206 154 179 206 154 179 206 154 179 206 154 179 206 154 179 206 154 179 206 154 179 206 154 179 206 154 179 206 154 179 206 154 179 206 154 179 206 154 179 206 154 179 206 154 179 206 154 179 206 154 179 206 154 179 206 154 179 206 154 179 206 154 179 206 154 179 206 154 179 206 154 179 206 154 179 206 154 179 206 154 179 206 154 179 206 154 179 206 154 179 206 154 179 206 154 179 206 154 179 206 154 179 206 154 179 206 154 179 206 154 179 206 154 179 206 154 179 206 154 179 206 154 179 206 154 179 206 154 179 206 154 179 206 154 179 206 154 179 206 154 179 206 154 179 206 154 179 206 154 179 206 154 179 206 154 179 206 154 179 206 154 179 206 154 179 206 154 179 206 154 179 206 154 179 206 154 179 206 154 179 206 154 179 206 154 179 206 154 179 206 154 179 206 154 179 206 154 179 206 154 179 206 154 179 206 154 179 206 154 179 206 154 179 206 154 179 206 154 179 206 154 179 206 154 179 206 154 179 206 154 179 206 154 179 206 154 179 206 154 179 206 154 179 206 154 179 206 154 179 206 154 179 206 154 179 206 154 179 206 154 179 206 154 179 206 154 179 206 154 179 206 154 179 206 154 179 206 154 179 206 154 179 206 154 179 206 154 179 206 154 179 206 154 179 206 154 179 206 154 179 206 154 179 206 154 179 206 154 179 206 154 179 206 154 179 206 154 179 206 154 179 206 154 179 206 154 179 206 154 179 206 154 179 206 154 179 206 154 179 206 154 179 206 154 179 206 154 179 206 154 179 206 154 179 206 154 179 206 154 179 206 154 179 206 154 179 206 154 179 206 154 179 206 154 179 206 154 179 206 154 179 206 154 179 206 154 179 206 154 179 206 154 179 206 154 179 206 154 179 206 154 179 206 154 179 206 154 179 206 154 179 206 154 179 206 154 179 206 154 179 206 154 179 206 154 179 206 154 179 206 154 179 206 154 179 206 154 179 206 154 179 206 154 179 206 154 179 206 154 179 206 154 179 206 154 179 206 154 179 206 154 179 206 154 179 206 154 179 206 154 179 206 154 179 206 154 179 206 154 179 206 154 179 206 154 179 206 154 179 206 154 179 206 154 179 206 154 179 206 154 179 206 154 179 206 154 179 206 154 179 206 154 179 206 154 179 206 154 179 206 154 179 206 154 179 206 154 179 206 154 179 206 154 179 206 154 179 206 154 179 206 154 179 206 154 179 206 154 179 206 154 179 205 154 179 206 154 179 205 154 179 205 154 179 205 154 179 205 154 179 205 154 179 205 154 179 205 154 179 205 154 179 205 154 179 205 154 179 205 154 179 205 154 179 205 154 179 205 154 179 205 154 179 205 154 179 205 154 179 205 154 179 205 154 179 205 154 179 205 154 179 205 154 179 205 154 179 205 154 179 205 154 179 205 154 179 205 154 179 205 154 179 205 154 179 205 154 179 205 154 179 205 154 179 205 154 179 205 154 179 205 154 179 205 153 179 205 153 179 205 153 179 205 153 179 205 153 179 205 153 179 205 153 179 205 153 179 205 153 179 205 153 179 205 153 179 205 153 179 205 153 179 205 153 179 205 153 179 205 153 179 205 153 178 205 153 178 205 153 178 205 153 178 205 153 178 205 153 178 205 153 178 205 153 178 205 153 178 205 153 178 205 153 178 205 153 178 205 153 178 205 153 178 205 153 178 205 153 178 205 153 178 205 153 178 205 153 178 205 153 178 205 153 178 205 153 178 205 153 178 205 153 178 205 153 178 205 153 178 205 153 178 205 153 178 205 153 178 205 153 178 205 153 178 205 153 178 205 153 178 205 153 178 205 153 178 205 153 178 205 153 178 205 153 178 205 153 178 205 153 178 205 153 178 205 153 178 205 153 178 205 153 178 205 153 178 205 153 178 205 153 178 205 153 178 205 153 178 205 153 178 205 153 178 205 153 178 205 153 178 205 153 178 205 153 178 205 153 178 205 153 178 205 153 178 205 153 178 205 153 178 205 153 178 205 153 178 205 153 178 205 153 178 205 153 178 205 153 178 205 153 178 205 153 178 205 153 178 205 153 178 205 153 178 205 153 178 205 153 178 205 153 178 205 153 178 205 153 178 205 153 178 205 153 178 205 153 178 205 153 178 205 153 178 205 153 178 205 153 178 205 153 178 205 153 178 205 153 178 205 153 178 205 153 178 205 153 178 205 153 178 205 153 178 205 153 178 205 153 178 205 153 178 205 153 178 205 153 178 205 153 178 205 153 178 205 153 178 205 153 178 205 153 178 205 153 178 205 153 178 205 153 178 205 153 178 205 153 178 205 153 178 205 153 178 205 153 178 205 153 178 205 153 178 205 153 178 205 153 178 205 153 178 205 153 178 205 153 178 205 153 178 205 153 178 205 153 178 205 153 178 205 153 178 205 
153 178 205 153 178 205 153 178 205 153 178 205 153 178 205 153 178 205 153 178 205 153 178 205 153 178 205 153 178 205 153 178 205 153 178 205 153 178 205 153 178 205 153 178 205 153 178 205 153 178 205 153 178 205 153 178 205 153 178 205 153 178 205 153 178 205 153 178 205 153 178 205 153 178 205 153 178 205 153 178 205 153 178 205 153 178 205 153 178 205 153 178 205 153 178 205 153 178 205 153 178 205 153 178 205 153 178 205 153 178 205 153 178 205 153 178 205 153 178 205 153 178 205 153 178 205 153 178 205 153 178 205 153 178 205 153 178 205 153 178 205 153 178 205 153 178 205 153 178 205 153 178 205 153 178 205 153 178 205 153 178 205 153 178 205 153 178 205 153 178 205 153 178 205 153 178 205 153 178 205 153 178 205 153 178 205 153 178 205 153 178 205 153 178 205 153 178 205 153 178 205 153 178 205 153 178 205 153 178 205 153 178 205 153 178 205 153 178 205 153 178 205 153 178 205 153 178 205 153 178 205 153 178 205 153 178 205 153 178 205 153 178 205 153 178 205 153 178 205 153 178 205 153 178 205 153 178 205 153 178 205 153 178 205 153 178 205 153 178 205 153 178 205 153 178 205 153 178 205 153 178 205 153 178 205 153 178 205 153 178 205 153 178 205 153 178 205 153 178 205 153 178 205 153 178 205 153 178 205 153 178 205 153 178 205 153 178 205 153 178 205 153 178 205 153 178 205 153 178 205 153 178 205 153 178 205 153 178 205 153 178 205 153 178 205 153 178 205 153 178 205 153 178 205 153 178 205 153 178 205 153 178 205 153 178 205 153 178 205 153 178 205 153 178 205 153 178 205 153 178 205 153 178 205 153 179 205 153 179 205 153 179 205 153 179 205 153 179 205 153 179 205 153 179 205 153 179 205 153 179 205 153 179 205 153 179 205 153 179 205 153 179 205 153 179 205 153 179 205 153 179 205 153 179 205 154 179 205 153 179 205 154 179 205 154 179 205 154 179 205 154 179 205 154 179 205 154 179 205 154 179 205 154 179 205 154 179 205 154 179 205 154 179 205 154 179 205 154 179 205 154 179 205 154 179 205 154 179 205 154 179 205 154 179 205 154 179 205 154 179 205 154 179 205 154 179 205 154 179 205 154 179 205 154 179 205 154 179 205 154 179 205 154 179 205 154 179 205 154 179 205 154 179 205 154 179 205 154 179 205 154 179 205 154 179 205 154 179 205 154 179 205 154 179 205 154 179 206 154 179 206 154 179 206 154 179 206 154 179 206 154 179 206 154 179 206 154 179 206 154 179 206 154 179 206 154 179 206 154 179 206 154 179 206 154 179 206 154 179 206 154 179 206 154 179 206 154 179 206 154 179 206 154 179 206 154 179 206 154 179 206 154 179 206 154 179 206 154 179 206 154 179 206 154 179 206 154 179 206 154 179 206 154 179 206 154 179 206 154 179 206 154 179 206 154 179 206 154 179 206 154 179 206 154 179 206 154 179 206 154 179 206 154 179 206 154 179 206 154 179 206 154 179 206 154 179 206 154 179 206 154 179 206 154 179 206 154 179 206 154 179 206 154 179 206 154 179 206 154 179 206 154 179 206 154 179 206 154 179 206 154 179 206 154 179 206 154 179 206 154 179 206 154 179 206 154 179 206 154 179 206 154 179 206 154 179 206 154 179 206 154 179 206 154 179 206 154 179 206 154 179 206 154 179 206 154 179 206 154 179 206 154 179 206 154 179 206 154 179 206 154 179 206 154 179 206 154 179 206 154 179 206 154 179 206 154 179 206 154 179 206 154 179 206 154 179 206 154 179 206 154 179 206 154 179 206 154 179 206 154 179 206 154 179 206 154 179 206 154 179 206 154 179 206 154 179 206 154 179 206 154 179 206 154 179 206 154 179 206 154 179 206 154 179 206 154 179 206 154 179 206 154 179 206 154 179 206 154 179 206 154 179 206 154 179 206 154 179 206 154 179 206 154 179 206 154 179 206 154 179 206 154 179 206 154 179 206 154 179 206 154 179 206 154 179 206 154 179 206 154 179 206 154 179 206 154 179 206 154 179 206 154 179 206 154 179 206 154 179 206 154 179 206 154 179 206 154 179 206 154 179 206 154 179 206 154 179 206 154 179 206 154 179 206 154 179 206 154 179 206 154 179 206 154 179 206 154 179 206 154 179 206 154 179 206 154 179 206 154 179 206 154 179 206 154 179 206 154 179 206 154 179 206 154 179 206 154 179 206 154 179 206 154 179 206 154 179 206 154 179 206 154 179 206 154 179 206 154 179 206 154 179 206 154 179 206 154 179 206 154 179 206 154 179 206 154 179 206 154 179 206 154 179 206 154 179 206 154 179 206 154 179 206 154 179 206 154 179 206 154 179 206 154 179 206 154 179 206 154 179 206 154 179 206 154 179 206 154 179 206 154 179 206 154 179 206 154 179 206 154 179 206 154 179 206 154 179 206 154 179 206 154 179 206 154 179 206 154 179 206 154 179 206 154 179 206 154 179 206 154 179 206 154 179 206 154 179 206 154 179 206 154 179 206 154 179 206 154 179 206 154 179 206 154 179 206 154 179 206 154 179 206 154 179 206 154 179 206 154 179 206 154 179 206 154 179 206 154 179 206 154 179 206 154 179 206 154 179 206 154 179 206 154 179 206 154 179 206 154 179 206 154 179 206 154 179 206 154 179 206 154 179 206 154 179 206 154 179 206 154 179 206 154 179 206 154 179 206 154 179 206 154 179 206 154 179 206 154 179 206 154 179 206 154 179 206 154 179 206 154 179 206 154 179 206 154 179 206 154 179 206 154 179 206 154 179 206 154 179 206 154 179 206 154 179 206 154 179 206 154 179 206 154 179 206 154 179 206 154 179 206 154 179 206 154 179 206 154 179 206 154 179 206 154 179 206 154 179 206 154 179 206 154 179 206 154 179 206 154 179 206 154 179 206 154 179 206 154 179 206 154 179 206 154 179 206 154 179 206 154 179 206 154 179 206 154 179 206 154 179 206 154 179 206 154 179 206 154 179 206 154 179 206 154 179 206 154 179 206 154 179 206 154 179 206 154 179 206 154 179 206 154 179 206 154 179 206 154 179 206 154 179 206 154 179 206 154 179 206 154 179 206 154 179 206 154 179 206 154 179 206 154 179 206 154 179 206 154 179 206 154 179 206 154 179 206 154 179 206 154 179 206 154 179 206 154 179 206 154 179 206 154 179 206 154 179 206 154 179 206 154 179 206 154 179 206 154 179 206 154 179 206 154 179 206 154 179 206 154 179 206 154 179 206 154 179 206 154 179 206 154 179 206 154 179 206 154 179 206 154 179 206 154 179 206 154 179 206 154 179 206 154 179 206 154 179 206 154 179 206 154 179 206 154 179 206 154 179 206 154 179 206 154 179 206 154 179 206 154 179 206 154 179 206 154 179 206 154 179 206 154 179 206 154 179 206 154 179 206 154 179 206 154 179 206 154 179 206 154 179 206 154 179 206 154 179 206 154 179 206 154 179 206 154 179 206 154 179 206 154 179 206 154 179 206 154 179 206 154 179 206 154 179 206 154 179 206 154 179 206 154 179 206 154 179 206 154 179 206 154 179 206 154 179 206 154 179 206 154 179 206 154 179 206 154 179 206 154 179 206 154 179 206 154 179 206 154 179 206 154 179 206 154 179 206 154 179 206 154 179 206 154 179 206 154 179 206 154 179 206 154 179 206 154 179 206 154 179 206 154 179 206 154 179 206 154 179 206 154 179 206 154 179 206 154 179 206 154 179 206 154 179 206 154 179 206 154 179 206 154 179 206 154 179 206 154 179 206 154 179 206 154 179 206 154 179 206 154 179 206 154 179 206 154 179 206 154 179 206 154 179 206 154 179 206 154 179 206 154 179 206 154 179 206 154 179 206 154 179 206 154 179 206 154 179 206 154 179 206 154 179 206 154 179 206 154 179 206 154 179 206 154 179 206 154 179 206 154 179 206 154 179 206 154 179 206 154 179 206 154 179 206 154 179 206 154 179 206 154 179 206 154 179 206 154 179 206 154 179 206 154 179 206 154 179 206 154 179 206 154 179 206 154 179 206 154 179 206 154 179 206 154 179 206 154 179 206 154 179 206 154 179 206 154 179 206 154 179 206 154 179 206 154 179 205 154 179 205 154 179 205 154 179 205 154 179 205 154 179 205 154 179 205 154 179 205 154 179 205 154 179 205 154 179 205 154 179 205 154 179 205 154 179 205 154 179 205 154 179 205 154 179 205 154 179 205 154 179 205 154 179 205 154 179 205 154 179 205 154 179 205 154 179 205 154 179 205 154 179 205 154 179 205 154 179 205 154 179 205 154 179 205 154 179 205 154 179 205 154 179 205 154 179 205 154 179 205 154 179 205 154 179 205 154 179 205 153 179 205 154 179 205 153 179 205 153 179 205 153 179 205 153 179 205 153 179 205 153 179 205 153 179 205 153 179 205 153 179 205 153 179 205 153 179 205 153 179 205 153 179 205 153 179 205 153 179 205 153 178 205 153 178 205 153 178 205 153 178 205 153 178 205 153 178 205 153 178 205 153 178 205 153 178 205 153 178 205 153 178 205 153 178 205 153 178 205 153 178 205 153 178 205 153 178 205 153 178 205 153 178 205 153 178 205 153 178 205 153 178 205 153 178 205 153 178 205 153 178 205 153 178 205 153 178 205 153 178 205 153 178 205 153 178 205 153 178 205 153 178 205 153 178 205 153 178 205 153 178 205 153 178 205 153 178 205 153 178 205 153 178 205 153 178 205 153 178 205 153 178 205 153 178 205 153 178 205 153 178 205 153 178 205 153 178 205 153 178 205 153 178 205 153 178 205 153 178 205 153 178 205 153 178 205 153 178 205 153 178 205 153 178 205 153 178 205 153 178 205 153 178 205 153 178 205 153 178 205 153 178 205 153 178 205 153 178 205 153 178 205 153 178 205 153 178 205 153 178 205 153 178 205 153 178 205 153 178 205 153 178 205 153 178 205 153 178 205 153 178 205 153 178 205 153 178 205 153 178 205 153 178 205 153 178 205 153 178 205 153 178 205 153 178 205 153 178 205 153 178 205 153 178 205 153 178 205 153 178 205 153 178 205 153 178 205 153 178 205 153 178 205 153 178 205 153 178 205 153 178 205 153 178 205 153 178 205 153 178 205 153 178 205 153 178 205 153 178 205 153 178 205 153 178 205 153 178 205 153 178 205 153 178 205 153 178 205 153 178 205 153 178 205 153 178 205 153 178 205 153 178 205 153 178 205 153 178 205 153 178 205 153 178 205 153 178 205 153 178 205 153 178 205 153 178 205 153 178 205 153 178 205 153 178 205 153 178 205 153 178 205 153 178 205 153 178 205 153 178 205 153 178 205 153 178 205 153 178 205 153 178 205 
153 178 205 153 178 205 153 178 205 153 178 205 153 178 205 153 178 205 153 178 205 153 178 205 153 178 205 153 178 205 153 178 205 153 178 205 153 178 205 153 178 205 153 178 205 153 178 205 153 178 205 153 178 205 153 178 205 153 178 205 153 178 205 153 178 205 153 178 205 153 178 205 153 178 205 153 178 205 153 178 205 153 178 205 153 178 205 153 178 205 153 178 205 153 178 205 153 178 205 153 178 205 153 178 205 153 178 205 153 178 205 153 178 205 153 178 205 153 178 205 153 178 205 153 178 205 153 178 205 153 178 205 153 178 205 153 178 205 153 178 205 153 178 205 153 178 205 153 178 205 153 178 205 153 178 205 153 178 205 153 178 205 153 178 205 153 178 205 153 178 205 153 178 205 153 178 205 153 178 205 153 178 205 153 178 205 153 178 205 153 178 205 153 178 205 153 178 205 153 178 205 153 178 205 153 178 205 153 178 205 153 178 205 153 178 205 153 178 205 153 178 205 153 178 205 153 178 205 153 178 205 153 178 205 153 178 205 153 178 205 153 178 205 153 178 205 153 178 205 153 178 205 153 178 205 153 178 205 153 178 205 153 178 205 153 178 205 153 178 205 153 178 205 153 178 205 153 178 205 153 178 205 153 178 205 153 178 205 153 178 205 153 178 205 153 178 205 153 178 205 153 178 205 153 178 205 153 178 205 153 178 205 153 178 205 153 178 205 153 178 205 153 178 205 153 178 205 153 178 205 153 178 205 153 178 205 153 178 205 153 178 205 153 178 205 153 178 205 153 178 205 153 178 205 153 178 205 153 178 205 153 178 205 153 178 205 153 178 205 153 178 205 153 178 205 153 178 205 153 178 205 153 178 205 153 178 205 153 178 205 153 178 205 153 178 205 153 178 205 153 178 205 153 178 205 153 178 205 153 178 205 153 178 205 153 178 205 153 179 205 153 178 205 153 179 205 153 179 205 153 179 205 153 179 205 153 179 205 153 179 205 153 179 205 153 179 205 153 179 205 153 179 205 153 179 205 153 179 205 153 179 205 153 179 205 153 179 205 154 179 205 154 179 205 154 179 205 154 179 205 154 179 205 154 179 205 154 179 205 154 179 205 154 179 205 154 179 205 154 179 205 154 179 205 154 179 205 154 179 205 154 179 205 154 179 205 154 179 205 154 179 205 154 179 205 154 179 205 154 179 205 154 179 205 154 179 205 154 179 205 154 179 205 154 179 205 154 179 205 154 179 205 154 179 205 154 179 205 154 179 205 154 179 205 154 179 205 154 179 205 154 179 205 154 179 205 154 179 205 154 179 205 154 179 205 154 179 205 154 179 206 154 179 206 154 179 206 154 179 206 154 179 206 154 179 206 154 179 206 154 179 206 154 179 206 154 179 206 154 179 206 154 179 206 154 179 206 154 179 206 154 179 206 154 179 206 154 179 206 154 179 206 154 179 206 154 179 206 154 179 206 154 179 206 154 179 206 154 179 206 154 179 206 154 179 206 154 179 206 154 179 206 154 179 206 154 179 206 154 179 206 154 179 206 154 179 206 154 179 206 154 179 206 154 179 206 154 179 206 154 179 206 154 179 206 154 179 206 154 179 206 154 179 206 154 179 206 154 179 206 154 179 206 154 179 206 154 179 206 154 179 206 154 179 206 154 179 206 154 179 206 154 179 206 154 179 206 154 179 206 154 179 206 154 179 206 154 179 206 154 179 206 154 179 206 154 179 206 154 179 206 154 179 206 154 179 206 154 179 206 154 179 206 154 179 206 154 179 206 154 179 206 154 179 206 154 179 206 154 179 206 154 179 206 154 179 206 154 179 206 154 179 206 154 179 206 154 179 206 154 179 206 154 179 206 154 179 206 154 179 206 154 179 206 154 179 206 154 179 206 154 179 206 154 179 206 154 179 206 154 179 206 154 179 206 154 179 206 154 179 206 154 179 206 154 179 206 154 179 206 154 179 206 154 179 206 154 179 206 154 179 206 154 179 206 154 179 206 154 179 206 154 179 206 154 179 206 154 179 206 154 179 206 154 179 206 154 179 206 154 179 206 154 179 206 154 179 206 154 179 206 154 179 206 154 179 206 154 179 206 154 179 206 154 179 206 154 179 206 154 179 206 154 179 206 154 179 206 154 179 206 154 179 206 154 179 206 154 179 206 154 179 206 154 179 206 154 179 206 154 179 206 154 179 206 154 179 206 154 179 206 154 179 206 154 179 206 154 179 206 154 179 206 154 179 206 154 179 206 154 179 206 154 179 206 154 179 206 154 179 206 154 179 206 154 179 206 154 179 206 154 179 206 154 179 206 154 179 206 154 179 206 154 179 206 154 179 206 154 179 206 154 179 206 154 179 206 154 179 206 154 179 206 154 179 206 154 179 206 154 179 206 154 179 206 154 179 206 154 179 206 154 179 206 154 179 206 154 179 206 154 179 206 154 179 206 154 179 206 154 179 206 154 179 206 154 179 206 154 179 206 154 179 206 154 179 206 154 179 206 154 179 206 154 179 206 154 179 206 154 179 206 154 179 206 154 179 206 154 179 206 154 179 206 154 179 206 154 179 206 154 179 206 154 179 206 154 179 206 154 179 206 154 179 206 154 179 206 154 179 206 154 179 206 154 179 206 154 179 206 154 179 206 154 179 206 154 179 206 154 179 206 154 179 206 154 179 206 154 179 206 154 179 206 154 179 206 154 179 206 154 179 206 154 179 206 154 179 206 154 179 206 154 179 206 154 179 206 154 179 206 154 179 206 154 179 206 154 179 206 154 179 206 154 179 206 154 179 206 154 179 206 154 179 206 154 179 206 154 179 206 154 179 206 154 179 206 154 179 206 154 179 206 154 179 206 154 179 206 154 179 206 154 179 206 154 179 206 154 179 206 154 179 206 154 179 206 154 179 206 154 179 206 154 179 206 154 179 206 154 179 206 154 179 206 154 179 206 154 179 206 154 179 206 154 179 206 154 179 206 154 179 206 154 179 206 154 179 206 154 179 206 154 179 206 154 179 206 154 179 206 154 179 206 154 179 206 154 179 206 154 179 206 154 179 206 154 179 206 154 179 206 154 179 206 154 179 206 154 179 206 154 179 206 154 179 206 154 179 206 154 179 206 154 179 206 154 179 206 154 179 206 154 179 206 154 179 206 154 179 206 154 179 206 154 179 206 154 179 206 154 179 206 154 179 206 154 179 206 154 179 206 154 179 206 154 179 206 154 179 206 154 179 206 154 179 206 154 179 206 154 179 206 154 179 206 154 179 206 154 179 206 154 179 206 154 179 206 154 179 206 154 179 206 154 179 206 154 179 206 154 179 206 154 179 206 154 179 206 154 179 206 154 179 206 154 179 206 154 179 206 154 179 206 154 179 206 154 179 206 154 179 206 154 179 206 154 179 206 154 179 206 154 179 206 154 179 206 154 179 206 154 179 206 154 179 206 154 179 206 154 179 206 154 179 206 154 179 206 154 179 206 154 179 206 154 179 206 154 179 206 154 179 206 154 179 206 154 179 206 154 179 206 154 179 206 154 179 206 154 179 206 154 179 206 154 179 206 154 179 206 154 179 206 154 179 206 154 179 206 154 179 206 154 179 206 154 179 206 154 179 206 154 179 206 154 179 206 154 179 206 154 179 206 154 179 206 154 179 206 154 179 206 154 179 206 154 179 206 154 179 206 154 179 206 154 179 206 154 179 206 154 179 206 154 179 206 154 179 206 154 179 206 154 179 206 154 179 206 154 179 206 154 179 206 154 179 206 154 179 206 154 179 206 154 179 206 154 179 206 154 179 206 154 179 206 154 179 206 154 179 206 154 179 206 154 179 206 154 179 206 154 179 206 154 179 206 154 179 206 154 179 206 154 179 206 154 179 206 154 179 206 154 179 206 154 179 206 154 179 206 154 179 206 154 179 206 154 179 206 154 179 206 154 179 206 154 179 206 154 179 206 154 179 206 154 179 206 154 179 206 154 179 206 154 179 206 154 179 206 154 179 206 154 179 206 154 179 206 154 179 206 154 179 206 154 179 206 154 179 206 154 179 206 154 179 206 154 179 206 154 179 206 154 179 206 154 179 206 154 179 206 154 179 205 154 179 205 154 179 205 154 179 205 154 179 205 154 179 205 154 179 205 154 179 205 154 179 205 154 179 205 154 179 205 154 179 205 154 179 205 154 179 205 154 179 205 154 179 205 154 179 205 154 179 205 154 179 205 154 179 205 154 179 205 154 179 205 154 179 205 154 179 205 154 179 205 154 179 205 154 179 205 154 179 205 154 179 205 154 179 205 154 179 205 154 179 205 154 179 205 154 179 205 154 179 205 154 179 205 154 179 205 154 179 205 154 179 205 153 179 205 153 179 205 153 179 205 153 179 205 153 179 205 153 179 205 153 179 205 153 179 205 153 179 205 153 179 205 153 179 205 153 179 205 153 179 205 153 179 205 153 179 205 153 179 205 153 179 205 153 178 205 153 178 205 153 178 205 153 178 205 153 178 205 153 178 205 153 178 205 153 178 205 153 178 205 153 178 205 153 178 205 153 178 205 153 178 205 153 178 205 153 178 205 153 178 205 153 178 205 153 178 205 153 178 205 153 178 205 153 178 205 153 178 205 153 178 205 153 178 205 153 178 205 153 178 205 153 178 205 153 178 205 153 178 205 153 178 205 153 178 205 153 178 205 153 178 205 153 178 205 153 178 205 153 178 205 153 178 205 153 178 205 153 178 205 153 178 205 153 178 205 153 178 205 153 178 205 153 178 205 153 178 205 153 178 205 153 178 205 153 178 205 153 178 205 153 178 205 153 178 205 153 178 205 153 178 205 153 178 205 153 178 205 153 178 205 153 178 205 153 178 205 153 178 205 153 178 205 153 178 205 153 178 205 153 178 205 153 178 205 153 178 205 153 178 205 153 178 205 153 178 205 153 178 205 153 178 205 153 178 205 153 178 205 153 178 205 153 178 205 153 178 205 153 178 205 153 178 205 153 178 205 153 178 205 153 178 205 153 178 205 153 178 205 153 178 205 153 178 205 153 178 205 153 178 205 153 178 205 153 178 205 153 178 205 153 178 205 153 178 205 153 178 205 153 178 205 153 178 205 153 178 205 153 178 205 153 178 205 153 178 205 153 178 205 153 178 205 153 178 205 153 178 205 153 178 205 153 178 205 153 178 205 153 178 205 153 178 205 153 178 205 153 178 205 153 178 205 153 178 205 153 178 205 153 178 205 153 178 205 153 178 205 153 178 205 153 178 205 153 178 205 153 178 205 153 178 205 153 178 205 153 178 205 153 178 205 153 178 205 153 178 205 153 178 205 153 178 205 153 178 205 153 178 205 153 178 205 153 178 205 153 178 205 153 178 205 153 178 205 153 178 205 153 178 205 153 178 205 153 178 205 153 178 205 153 178 205 
153 178 205 153 178 205 153 178 205 153 178 205 153 178 205 153 178 205 153 178 205 153 178 205 153 178 205 153 178 205 153 178 205 153 178 205 153 178 205 153 178 205 153 178 205 153 178 205 153 178 205 153 178 205 153 178 205 153 178 205 153 178 205 153 178 205 153 178 205 153 178 205 153 178 205 153 178 205 153 178 205 153 178 205 153 178 205 153 178 205 153 178 205 153 178 205 153 178 205 153 178 205 153 178 205 153 178 205 153 178 205 153 178 205 153 178 205 153 178 205 153 178 205 153 178 205 153 178 205 153 178 205 153 178 205 153 178 205 153 178 205 153 178 205 153 178 205 153 178 205 153 178 205 153 178 205 153 178 205 153 178 205 153 178 205 153 178 205 153 178 205 153 178 205 153 178 205 153 178 205 153 178 205 153 178 205 153 178 205 153 178 205 153 178 205 153 178 205 153 178 205 153 178 205 153 178 205 153 178 205 153 178 205 153 178 205 153 178 205 153 178 205 153 178 205 153 178 205 153 178 205 153 178 205 153 178 205 153 178 205 153 178 205 153 178 205 153 178 205 153 178 205 153 178 205 153 178 205 153 178 205 153 178 205 153 178 205 153 178 205 153 178 205 153 178 205 153 178 205 153 178 205 153 178 205 153 178 205 153 178 205 153 178 205 153 178 205 153 178 205 153 178 205 153 178 205 153 178 205 153 178 205 153 178 205 153 178 205 153 178 205 153 178 205 153 178 205 153 178 205 153 178 205 153 178 205 153 178 205 153 178 205 153 178 205 153 178 205 153 178 205 153 178 205 153 178 205 153 178 205 153 178 205 153 178 205 153 178 205 153 178 205 153 178 205 153 178 205 153 178 205 153 178 205 153 178 205 153 178 205 153 178 205 153 178 205 153 178 205 153 178 205 153 178 205 153 178 205 153 178 205 153 178 205 153 178 205 153 178 205 153 178 205 153 178 205 153 178 205 153 178 205 153 178 205 153 178 205 153 178 205 153 178 205 153 178 205 153 179 205 153 179 205 153 179 205 153 179 205 153 179 205 153 179 205 153 179 205 153 179 205 153 179 205 153 179 205 153 179 205 153 179 205 153 179 205 153 179 205 153 179 205 153 179 205 153 179 205 153 179 205 154 179 205 154 179 205 154 179 205 154 179 205 154 179 205 154 179 205 154 179 205 154 179 205 154 179 205 154 179 205 154 179 205 154 179 205 154 179 205 154 179 205 154 179 205 154 179 205 154 179 205 154 179 205 154 179 205 154 179 205 154 179 205 154 179 205 154 179 205 154 179 205 154 179 205 154 179 205 154 179 205 154 179 205 154 179 205 154 179 205 154 179 205 154 179 205 154 179 205 154 179 205 154 179 205 154 179 205 154 179 205 154 179 205 154 179 205 154 179 205 154 179 206 154 179 206 154 179 205 154 179 206 154 179 206 154 179 206 154 179 206 154 179 206 154 179 206 154 179 206 154 179 206 154 179 206 154 179 206 154 179 206 154 179 206 154 179 206 154 179 206 154 179 206 154 179 206 154 179 206 154 179 206 154 179 206 154 179 206 154 179 206 154 179 206 154 179 206 154 179 206 154 179 206 154 179 206 154 179 206 154 179 206 154 179 206 154 179 206 154 179 206 154 179 206 154 179 206 154 179 206 154 179 206 154 179 206 154 179 206 154 179 206 154 179 206 154 179 206 154 179 206 154 179 206 154 179 206 154 179 206 154 179 206 154 179 206 154 179 206 154 179 206 154 179 206 154 179 206 154 179 206 154 179 206 154 179 206 154 179 206 154 179 206 154 179 206 154 179 206 154 179 206 154 179 206 154 179 206 154 179 206 154 179 206 154 179 206 154 179 206 154 179 206 154 179 206 154 179 206 154 179 206 154 179 206 154 179 206 154 179 206 154 179 206 154 179 206 154 179 206 154 179 206 154 179 206 154 179 206 154 179 206 154 179 206 154 179 206 154 179 206 154 179 206 154 179 206 154 179 206 154 179 206 154 179 206 154 179 206 154 179 206 154 179 206 154 179 206 154 179 206 154 179 206 154 179 206 154 179 206 154 179 206 154 179 206 154 179 206 154 179 206 154 179 206 154 179 206 154 179 206 154 179 206 154 179 206 154 179 206 154 179 206 154 179 206 154 179 206 154 179 206 154 179 206 154 179 206 154 179 206 154 179 206 154 179 206 154 179 206 154 179 206 154 179 206 154 179 206 154 179 206 154 179 206 154 179 206 154 179 206 154 179 206 154 179 206 154 179 206 154 179 206 154 179 206 154 179 206 154 179 206 154 179 206 154 179 206 154 179 206 154 179 206 154 179 206 154 179 206 154 179 206 154 179 206 154 179 206 154 179 206 154 179 206 154 179 206 154 179 206 154 179 206 154 179 206 154 179 206 154 179 206 154 179 206 154 179 206 154 179 206 154 179 206 154 179 206 154 179 206 154 179 206 154 179 206 154 179 206 154 179 206 154 179 206 154 179 206 154 179 206 154 179 206 154 179 206 154 179 206 154 179 206 154 179 206 154 179 206 154 179 206 154 179 206 154 179 206 154 179 206 154 179 206 154 179 206 154 179 206 154 179 206 154 179 206 154 179 206 154 179 206 154 179 206 154 179 206 154 179 206 154 179 206 154 179 206 154 179 206 154 179 206 154 179 206 154 179 206 154 179 206 154 179 206 154 179 206 154 179 206 154 179 206 154 179 206 154 179 206 154 179 206 154 179 206 154 179 206 154 179 206 154 179 206 154 179 206 154 179 206 154 179 206 154 179 206 154 179 206 154 179 206 154 179 206 154 179 206 154 179 206 154 179 206 154 179 206 154 179 206 154 179 206 154 179 206 154 179 206 154 179 206 154 179 206 154 179 206 154 179 206 154 179 206 154 179 206 154 179 206 154 179 206 154 179 206 154 179 206 154 179 206 154 179 206 154 179 206 154 179 206 154 179 206 154 179 206 154 179 206 154 179 206 154 179 206 154 179 206 154 179 206 154 179 206 154 179 206 154 179 206 154 179 206 154 179 206 154 179 206 154 179 206 154 179 206 154 179 206 154 179 206 154 179 206 154 179 206 154 179 206 154 179 206 154 179 206 154 179 206 154 179 206 154 179 206 154 179 206 154 179 206 154 179 206 154 179 206 154 179 206 154 179 206 154 179 206 154 179 206 154 179 206 154 179 206 154 179 206 154 179 206 154 179 206 154 179 206 154 179 206 154 179 206 154 179 206 154 179 206 154 179 206 154 179 206 154 179 206 154 179 206 154 179 206 154 179 206 154 179 206 154 179 206 154 179 206 154 179 206 154 179 206 154 179 206 154 179 206 154 179 206 154 179 206 154 179 206 154 179 206 154 179 206 154 179 206 154 179 206 154 179 206 154 179 206 154 179 206 154 179 206 154 179 206 154 179 206 154 179 206 154 179 206 154 179 206 154 179 206 154 179 206 154 179 206 154 179 206 154 179 206 154 179 206 154 179 206 154 179 206 154 179 206 154 179 206 154 179 206 154 179 206 154 179 206 154 179 206 154 179 206 154 179 206 154 179 206 154 179 206 154 179 206 154 179 206 154 179 206 154 179 206 154 179 206 154 179 206 154 179 206 154 179 206 154 179 206 154 179 206 154 179 206 154 179 206 154 179 206 154 179 206 154 179 206 154 179 206 154 179 206 154 179 206 154 179 206 154 179 206 154 179 206 154 179 206 154 179 206 154 179 206 154 179 206 154 179 206 154 179 206 154 179 206 154 179 206 154 179 206 154 179 206 154 179 206 154 179 206 154 179 206 154 179 206 154 179 206 154 179 206 154 179 206 154 179 206 154 179 206 154 179 206 154 179 206 154 179 206 154 179 206 154 179 206 154 179 206 154 179 206 154 179 206 154 179 206 154 179 206 154 179 206 154 179 206 154 179 206 154 179 206 154 179 206 154 179 206 154 179 206 154 179 206 154 179 206 154 179 206 154 179 206 154 179 206 154 179 206 154 179 206 154 179 206 154 179 206 154 179 206 154 179 205 154 179 205 154 179 205 154 179 205 154 179 205 154 179 205 154 179 205 154 179 205 154 179 205 154 179 205 154 179 205 154 179 205 154 179 205 154 179 205 154 179 205 154 179 205 154 179 205 154 179 205 154 179 205 154 179 205 154 179 205 154 179 205 154 179 205 154 179 205 154 179 205 154 179 205 154 179 205 154 179 205 154 179 205 154 179 205 154 179 205 154 179 205 154 179 205 154 179 205 154 179 205 154 179 205 154 179 205 154 179 205 154 179 205 154 179 205 154 179 205 153 179 205 153 179 205 153 179 205 153 179 205 153 179 205 153 179 205 153 179 205 153 179 205 153 179 205 153 179 205 153 179 205 153 179 205 153 179 205 153 179 205 153 179 205 153 179 205 153 179 205 153 179 205 153 178 205 153 178 205 153 178 205 153 178 205 153 178 205 153 178 205 153 178 205 153 178 205 153 178 205 153 178 205 153 178 205 153 178 205 153 178 205 153 178 205 153 178 205 153 178 205 153 178 205 153 178 205 153 178 205 153 178 205 153 178 205 153 178 205 153 178 205 153 178 205 153 178 205 153 178 205 153 178 205 153 178 205 153 178 205 153 178 205 153 178 205 153 178 205 153 178 205 153 178 205 153 178 205 153 178 205 153 178 205 153 178 205 153 178 205 153 178 205 153 178 205 153 178 205 153 178 205 153 178 205 153 178 205 153 178 205 153 178 205 153 178 205 153 178 205 153 178 205 153 178 205 153 178 205 153 178 205 153 178 205 153 178 205 153 178 205 153 178 205 153 178 205 153 178 205 153 178 205 153 178 205 153 178 205 153 178 205 153 178 205 153 178 205 153 178 205 153 178 205 153 178 205 153 178 205 153 178 205 153 178 205 153 178 205 153 178 205 153 178 205 153 178 205 153 178 205 153 178 205 153 178 205 153 178 205 153 178 205 153 178 205 153 178 205 153 178 205 153 178 205 153 178 205 153 178 205 153 178 205 153 178 205 153 178 205 153 178 205 153 178 205 153 178 205 153 178 205 153 178 205 153 178 205 153 178 205 153 178 205 153 178 205 153 178 205 153 178 205 153 178 205 153 178 205 153 178 205 153 178 205 153 178 205 153 178 205 153 178 205 153 178 205 153 178 205 153 178 205 153 178 205 153 178 205 153 178 205 153 178 205 153 178 205 153 178 205 153 178 205 153 178 205 153 178 205 153 178 205 153 178 205 153 178 205 153 178 205 153 178 205 153 178 205 153 178 205 153 178 205 153 178 205 153 178 205 153 178 205 153 178 205 153 178 205 153 178 205 153 178 205 153 178 205 153 178 205 153 178 205 153 178 205 153 178 205 153 178 205 153 178 205 153 178 205 153 178 205 153 178 205 153 178 205 153 178 205 153 178 205 153 178 205 153 178 205 
153 178 205 153 178 205 153 178 205 153 178 205 153 178 205 153 178 205 153 178 205 153 178 205 153 178 205 153 178 205 153 178 205 153 178 205 153 178 205 153 178 205 153 178 205 153 178 205 153 178 205 153 178 205 153 178 205 153 178 205 153 178 205 153 178 205 153 178 205 153 178 205 153 178 205 153 178 205 153 178 205 153 178 205 153 178 205 153 178 205 153 178 205 153 178 205 153 178 205 153 178 205 153 178 205 153 178 205 153 178 205 153 178 205 153 178 205 153 178 205 153 178 205 153 178 205 153 178 205 153 178 205 153 178 205 153 178 205 153 178 205 153 178 205 153 178 205 153 178 205 153 178 205 153 178 205 153 178 205 153 178 205 153 178 205 153 178 205 153 178 205 153 178 205 153 178 205 153 178 205 153 178 205 153 178 205 153 178 205 153 178 205 153 178 205 153 178 205 153 178 205 153 178 205 153 178 205 153 178 205 153 178 205 153 178 205 153 178 205 153 178 205 153 178 205 153 178 205 153 178 205 153 178 205 153 178 205 153 178 205 153 178 205 153 178 205 153 178 205 153 178 205 153 178 205 153 178 205 153 178 205 153 178 205 153 178 205 153 178 205 153 178 205 153 178 205 153 178 205 153 178 205 153 178 205 153 178 205 153 178 205 153 178 205 153 178 205 153 178 205 153 178 205 153 178 205 153 178 205 153 178 205 153 178 205 153 178 205 153 178 205 153 178 205 153 178 205 153 178 205 153 178 205 153 178 205 153 178 205 153 178 205 153 178 205 153 178 205 153 178 205 153 178 205 153 178 205 153 178 205 153 178 205 153 178 205 153 178 205 153 178 205 153 178 205 153 178 205 153 178 205 153 178 205 153 178 205 153 178 205 153 178 205 153 178 205 153 178 205 153 178 205 153 178 205 153 178 205 153 178 205 153 178 205 153 178 205 153 178 205 153 178 205 153 178 205 153 178 205 153 178 205 153 178 205 153 178 205 153 178 205 153 178 205 153 178 205 153 178 205 153 178 205 153 178 205 153 178 205 153 178 205 153 178 205 153 178 205 153 178 205 153 178 205 153 178 205 153 179 205 153 179 205 153 179 205 153 179 205 153 179 205 153 179 205 153 179 205 153 179 205 153 179 205 153 179 205 153 179 205 153 179 205 153 179 205 153 179 205 153 179 205 153 179 205 153 179 205 153 179 205 154 179 205 154 179 205 154 179 205 154 179 205 154 179 205 154 179 205 154 179 205 154 179 205 154 179 205 154 179 205 154 179 205 154 179 205 154 179 205 154 179 205 154 179 205 154 179 205 154 179 205 154 179 205 154 179 205 154 179 205 154 179 205 154 179 205 154 179 205 154 179 205 154 179 205 154 179 205 154 179 205 154 179 205 154 179 205 154 179 205 154 179 205 154 179 205 154 179 205 154 179 205 154 179 205 154 179 205 154 179 205 154 179 205 154 179 205 154 179 205 154 179 205 154 179 205 154 179 205 154 179 205 154 179 206 154 179 206 154 179 206 154 179 206 154 179 206 154 179 206 154 179 206 154 179 206 154 179 206 154 179 206 154 179 206 154 179 206 154 179 206 154 179 206 154 179 206 154 179 206 154 179 206 154 179 206 154 179 206 154 179 206 154 179 206 154 179 206 154 179 206 154 179 206 154 179 206 154 179 206 154 179 206 154 179 206 154 179 206 154 179 206 154 179 206 154 179 206 154 179 206 154 179 206 154 179 206 154 179 206 154 179 206 154 179 206 154 179 206 154 179 206 154 179 206 154 179 206 154 179 206 154 179 206 154 179 206 154 179 206 154 179 206 154 179 206 154 179 206 154 179 206 154 179 206 154 179 206 154 179 206 154 179 206 154 179 206 154 179 206 154 179 206 154 179 206 154 179 206 154 179 206 154 179 206 154 179 206 154 179 206 154 179 206 154 179 206 154 179 206 154 179 206 154 179 206 154 179 206 154 179 206 154 179 206 154 179 206 154 179 206 154 179 206 154 179 206 154 179 206 154 179 206 154 179 206 154 179 206 154 179 206 154 179 206 154 179 206 154 179 206 154 179 206 154 179 206 154 179 206 154 179 206 154 179 206 154 179 206 154 179 206 154 179 206 154 179 206 154 179 206 154 179 206 154 179 206 154 179 206 154 179 206 154 179 206 154 179 206 154 179 206 154 179 206 154 179 206 154 179 206 154 179 206 154 179 206 154 179 206 154 179 206 154 179 206 154 179 206 154 179 206 154 179 206 154 179 206 154 179 206 154 179 206 154 179 206 154 179 206 154 179 206 154 179 206 154 179 206 154 179 206 154 179 206 154 179 206 154 179 206 154 179 206 154 179 206 154 179 206 154 179 206 154 179 206 154 179 206 154 179 206 154 179 206 154 179 206 154 179 206 154 179 206 154 179 206 154 179 206 154 179 206 154 179 206 154 179 206 154 179 206 154 179 206 154 179 206 154 179 206 154 179 206 154 179 206 154 179 206 154 179 206 154 179 206 154 179 206 154 179 206 154 179 206 154 179 206 154 179 206 154 179 206 154 179 206 154 179 206 154 179 206 154 179 206 154 179 206 154 179 206 154 179 206 154 179 206 154 179 206 154 179 206 154 179 206 154 179 206 154 179 206 154 179 206 154 179 206 154 179 206 154 179 206 154 179 206 154 179 206 154 179 206 154 179 206 154 179 206 154 179 206 154 179 206 154 179 206 154 179 206 154 179 206 154 179 206 154 179 206 154 179 206 154 179 206 154 179 206 154 179 206 154 179 206 154 179 206 154 179 206 154 179 206 154 179 206 154 179 206 154 179 206 154 179 206 154 179 206 154 179 206 154 179 206 154 179 206 154 179 206 154 179 206 154 179 206 154 179 206 154 179 206 154 179 206 154 179 206 154 179 206 154 179 206 154 179 206 154 179 206 154 179 206 154 179 206 154 179 206 154 179 206 154 179 206 154 179 206 154 179 206 154 179 206 154 179 206 154 179 206 154 179 206 154 179 206 154 179 206 154 179 206 154 179 206 154 179 206 154 179 206 154 179 206 154 179 206 154 179 206 154 179 206 154 179 206 154 179 206 154 179 206 154 179 206 154 179 206 154 179 206 154 179 206 154 179 206 154 179 206 154 179 206 154 179 206 154 179 206 154 179 206 154 179 206 154 179 206 154 179 206 154 179 206 154 179 206 154 179 206 154 179 206 154 179 206 154 179 206 154 179 206 154 179 206 154 179 206 154 179 206 154 179 206 154 179 206 154 179 206 154 179 206 154 179 206 154 179 206 154 179 206 154 179 206 154 179 206 154 179 206 154 179 206 154 179 206 154 179 206 154 179 206 154 179 206 154 179 206 154 179 206 154 179 206 154 179 206 154 179 206 154 179 206 154 179 206 154 179 206 154 179 206 154 179 206 154 179 206 154 179 206 154 179 206 154 179 206 154 179 206 154 179 206 154 179 206 154 179 206 154 179 206 154 179 206 154 179 206 154 179 206 154 179 206 154 179 206 154 179 206 154 179 206 154 179 206 154 179 206 154 179 206 154 179 206 154 179 206 154 179 206 154 179 206 154 179 206 154 179 206 154 179 206 154 179 206 154 179 206 154 179 206 154 179 206 154 179 206 154 179 206 154 179 206 154 179 206 154 179 206 154 179 206 154 179 206 154 179 206 154 179 206 154 179 206 154 179 206 154 179 206 154 179 206 154 179 206 154 179 206 154 179 206 154 179 206 154 179 206 154 179 206 154 179 206 154 179 206 154 179 206 154 179 206 154 179 206 154 179 206 154 179 206 154 179 206 154 179 206 154 179 206 154 179 206 154 179 206 154 179 206 154 179 206 154 179 206 154 179 206 154 179 206 154 179 206 154 179 206 154 179 206 154 179 206 154 179 206 154 179 206 154 179 206 154 179 206 154 179 206 154 179 206 154 179 205 154 179 205 154 179 205 154 179 205 154 179 205 154 179 205 154 179 205 154 179 205 154 179 205 154 179 205 154 179 205 154 179 205 154 179 205 154 179 205 154 179 205 154 179 205 154 179 205 154 179 205 154 179 205 154 179 205 154 179 205 154 179 205 154 179 205 154 179 205 154 179 205 154 179 205 154 179 205 154 179 205 154 179 205 154 179 205 154 179 205 154 179 205 154 179 205 154 179 205 154 179 205 154 179 205 154 179 205 154 179 205 154 179 205 154 179 205 154 179 205 154 179 205 154 179 205 154 179 205 153 179 205 153 179 205 153 179 205 153 179 205 153 179 205 153 179 205 153 179 205 153 179 205 153 179 205 153 179 205 153 179 205 153 179 205 153 179 205 153 179 205 153 179 205 153 179 205 153 179 205 153 179 205 153 178 205 153 178 205 153 178 205 153 178 205 153 178 205 153 178 205 153 178 205 153 178 205 153 178 205 153 178 205 153 178 205 153 178 205 153 178 205 153 178 205 153 178 205 153 178 205 153 178 205 153 178 205 153 178 205 153 178 205 153 178 205 153 178 205 153 178 205 153 178 205 153 178 205 153 178 205 153 178 205 153 178 205 153 178 205 153 178 205 153 178 205 153 178 205 153 178 205 153 178 205 153 178 205 153 178 205 153 178 205 153 178 205 153 178 205 153 178 205 153 178 205 153 178 205 153 178 205 153 178 205 153 178 205 153 178 205 153 178 205 153 178 205 153 178 205 153 178 205 153 178 205 153 178 205 153 178 205 153 178 205 153 178 205 153 178 205 153 178 205 153 178 205 153 178 205 153 178 205 153 178 205 153 178 205 153 178 205 153 178 205 153 178 205 153 178 205 153 178 205 153 178 205 153 178 205 153 178 205 153 178 205 153 178 205 153 178 205 153 178 205 153 178 205 153 178 205 153 178 205 153 178 205 153 178 205 153 178 205 153 178 205 153 178 205 153 178 205 153 178 205 153 178 205 153 178 205 153 178 205 153 178 205 153 178 205 153 178 205 153 178 205 153 178 205 153 178 205 153 178 205 153 178 205 153 178 205 153 178 205 153 178 205 153 178 205 153 178 205 153 178 205 153 178 205 153 178 205 153 178 205 153 178 205 153 178 205 153 178 205 153 178 205 153 178 205 153 178 205 153 178 205 153 178 205 153 178 205 153 178 205 153 178 205 153 178 205 153 178 205 153 178 205 153 178 205 153 178 205 153 178 205 153 178 205 153 178 205 153 178 205 153 178 205 153 178 205 153 178 205 153 178 205 153 178 205 153 178 205 153 178 205 153 178 205 153 178 205 153 178 205 153 178 205 153 178 205 153 178 205 153 178 205 153 178 205 153 178 205 153 178 205 153 178 205 153 178 205 153 178 205 153 178 205 153 178 205 153 178 205 153 178 205 153 178 205 153 178 205 153 178 205 153 178 205 153 178 205 153 178 205 153 178 205 153 178 205 153 178 205 153 178 205 153 178 205 
153 178 204 153 178 204 153 178 204 153 178 204 153 178 204 153 178 205 153 178 205 153 178 205 153 178 205 153 178 205 153 178 205 153 178 205 153 178 205 153 178 205 153 178 205 153 178 205 153 178 205 153 178 205 153 178 205 153 178 205 153 178 205 153 178 205 153 178 205 153 178 205 153 178 205 153 178 205 153 178 205 153 178 205 153 178 205 153 178 205 153 178 205 153 178 205 153 178 205 153 178 205 153 178 205 153 178 205 153 178 205 153 178 205 153 178 205 153 178 205 153 178 205 153 178 205 153 178 205 153 178 205 153 178 205 153 178 205 153 178 205 153 178 205 153 178 205 153 178 205 153 178 205 153 178 205 153 178 205 153 178 205 153 178 205 153 178 205 153 178 205 153 178 205 153 178 205 153 178 205 153 178 205 153 178 205 153 178 205 153 178 205 153 178 205 153 178 205 153 178 205 153 178 205 153 178 205 153 178 205 153 178 205 153 178 205 153 178 205 153 178 205 153 178 205 153 178 205 153 178 205 153 178 205 153 178 205 153 178 205 153 178 205 153 178 205 153 178 205 153 178 205 153 178 205 153 178 205 153 178 205 153 178 205 153 178 205 153 178 205 153 178 205 153 178 205 153 178 205 153 178 205 153 178 205 153 178 205 153 178 205 153 178 205 153 178 205 153 178 205 153 178 205 153 178 205 153 178 205 153 178 205 153 178 205 153 178 205 153 178 205 153 178 205 153 178 205 153 178 205 153 178 205 153 178 205 153 178 205 153 178 205 153 178 205 153 178 205 153 178 205 153 178 205 153 178 205 153 178 205 153 178 205 153 178 205 153 178 205 153 178 205 153 178 205 153 178 205 153 178 205 153 178 205 153 178 205 153 178 205 153 178 205 153 178 205 153 178 205 153 178 205 153 178 205 153 178 205 153 178 205 153 178 205 153 178 205 153 178 205 153 178 205 153 178 205 153 178 205 153 178 205 153 178 205 153 178 205 153 178 205 153 178 205 153 178 205 153 178 205 153 178 205 153 178 205 153 178 205 153 178 205 153 178 205 153 178 205 153 178 205 153 178 205 153 178 205 153 178 205 153 178 205 153 178 205 153 178 205 153 178 205 153 178 205 153 178 205 153 178 205 153 178 205 153 178 205 153 179 205 153 178 205 153 179 205 153 179 205 153 179 205 153 179 205 153 179 205 153 179 205 153 179 205 153 179 205 153 179 205 153 179 205 153 179 205 153 179 205 153 179 205 153 179 205 153 179 205 153 179 205 154 179 205 153 179 205 154 179 205 154 179 205 154 179 205 154 179 205 154 179 205 154 179 205 154 179 205 154 179 205 154 179 205 154 179 205 154 179 205 154 179 205 154 179 205 154 179 205 154 179 205 154 179 205 154 179 205 154 179 205 154 179 205 154 179 205 154 179 205 154 179 205 154 179 205 154 179 205 154 179 205 154 179 205 154 179 205 154 179 205 154 179 205 154 179 205 154 179 205 154 179 205 154 179 205 154 179 205 154 179 205 154 179 205 154 179 205 154 179 205 154 179 205 154 179 205 154 179 205 154 179 205 154 179 205 154 179 205 154 179 205 154 179 205 154 179 205 154 179 206 154 179 205 154 179 206 154 179 206 154 179 206 154 179 206 154 179 206 154 179 206 154 179 206 154 179 206 154 179 206 154 179 206 154 179 206 154 179 206 154 179 206 154 179 206 154 179 206 154 179 206 154 179 206 154 179 206 154 179 206 154 179 206 154 179 206 154 179 206 154 179 206 154 179 206 154 179 206 154 179 206 154 179 206 154 179 206 154 179 206 154 179 206 154 179 206 154 179 206 154 179 206 154 179 206 154 179 206 154 179 206 154 179 206 154 179 206 154 179 206 154 179 206 154 179 206 154 179 206 154 179 206 154 179 206 154 179 206 154 179 206 154 179 206 154 179 206 154 179 206 154 179 206 154 179 206 154 179 206 154 179 206 154 179 206 154 179 206 154 179 206 154 179 206 154 179 206 154 179 206 154 179 206 154 179 206 154 179 206 154 179 206 154 179 206 154 179 206 154 179 206 154 179 206 154 179 206 154 179 206 154 179 206 154 179 206 154 179 206 154 179 206 154 179 206 154 179 206 154 179 206 154 179 206 154 179 206 154 179 206 154 179 206 154 179 206 154 179 206 154 179 206 154 179 206 154 179 206 154 179 206 154 179 206 154 179 206 154 179 206 154 179 206 154 179 206 154 179 206 154 179 206 154 179 206 154 179 206 154 179 206 154 179 206 154 179 206 154 179 206 154 179 206 154 179 206 154 179 206 154 179 206 154 179 206 154 179 206 154 179 206 154 179 206 154 179 206 154 179 206 154 179 206 154 179 206 154 179 206 154 179 206 154 179 206 154 179 206 154 179 206 154 179 206 154 179 206 154 179 206 154 179 206 154 179 206 154 179 206 154 179 206 154 179 206 154 179 206 154 179 206 154 179 206 154 179 206 154 179 206 154 179 206 154 179 206 154 179 206 154 179 206 154 179 206 154 179 206 154 179 206 154 179 206 154 179 206 154 179 206 154 179 206 154 179 206 154 179 206 154 179 206 154 179 206 154 179 206 154 179 206 154 179 206 154 179 206 154 179 206 154 179 206 154 179 206 154 179 206 154 179 206 154 179 206 154 179 206 154 179 206 154 179 206 154 179 206 154 179 206 154 179 206 154 179 206 154 179 206 154 179 206 154 179 206 154 179 206 154 179 206 154 179 206 154 179 206 154 179 206 154 179 206 154 179 206 154 179 206 154 179 206 154 179 206 154 179 206 154 179 206 154 179 206 154 179 206 154 179 206 154 179 206 154 179 206 154 179 206 154 179 206 154 179 206 154 179 206 154 179 206 154 179 206 154 179 206 154 179 206 154 179 206 154 179 206 154 179 206 154 179 206 154 179 206 154 179 206 154 179 206 154 179 206 154 179 206 154 179 206 154 179 206 154 179 206 154 179 206 154 179 206 154 179 206 154 179 206 154 179 206 154 179 206 154 179 206 154 179 206 154 179 206 154 179 206 154 179 206 154 179 206 154 179 206 154 179 206 154 179 206 154 179 206 154 179 206 154 179 206 154 179 206 154 179 206 154 179 206 154 179 206 154 179 206 154 179 206 154 179 206 154 179 206 154 179 206 154 179 206 154 179 206 154 179 206 154 179 206 154 179 206 154 179 206 154 179 206 154 179 206 154 179 206 154 179 206 154 179 206 154 179 206 154 179 206 154 179 206 154 179 206 154 179 206 154 179 206 154 179 206 154 179 206 154 179 206 154 179 206 154 179 206 154 179 206 154 179 206 154 179 206 154 179 206 154 179 206 154 179 206 154 179 206 154 179 206 154 179 206 154 179 206 154 179 206 154 179 206 154 179 206 154 179 206 154 179 206 154 179 206 154 179 206 154 179 206 154 179 206 154 179 206 154 179 206 154 179 206 154 179 206 154 179 206 154 179 206 154 179 206 154 179 206 154 179 206 154 179 206 154 179 206 154 179 206 154 179 206 154 179 206 154 179 206 154 179 206 154 179 206 154 179 206 154 179 206 154 179 206 154 179 206 154 179 206 154 179 206 154 179 206 154 179 206 154 179 206 154 179 206 154 179 206 154 179 206 154 179 206 154 179 206 154 179 206 154 179 206 154 179 206 154 179 206 154 179 206 154 179 206 154 179 206 154 179 206 154 179 206 154 179 206 154 179 206 154 179 206 154 179 206 154 179 206 154 179 206 154 179 206 154 179 206 154 179 206 154 179 206 154 179 206 154 179 206 154 179 206 154 179 206 154 179 206 154 179 206 154 179 206 154 179 206 154 179 205 154 179 205 154 179 205 154 179 205 154 179 205 154 179 205 154 179 205 154 179 205 154 179 205 154 179 205 154 179 205 154 179 205 154 179 205 154 179 205 154 179 205 154 179 205 154 179 205 154 179 205 154 179 205 154 179 205 154 179 205 154 179 205 154 179 205 154 179 205 154 179 205 154 179 205 154 179 205 154 179 205 154 179 205 154 179 205 154 179 205 154 179 205 154 179 205 154 179 205 154 179 205 154 179 205 154 179 205 154 179 205 154 179 205 154 179 205 154 179 205 154 179 205 154 179 205 154 179 205 153 179 205 154 179 205 153 179 205 154 179 205 153 179 205 153 179 205 153 179 205 153 179 205 153 179 205 153 179 205 153 179 205 153 179 205 153 179 205 153 179 205 153 179 205 153 179 205 153 179 205 153 179 205 153 179 205 153 179 205 153 178 205 153 179 205 153 178 205 153 178 205 153 178 205 153 178 205 153 178 205 153 178 205 153 178 205 153 178 205 153 178 205 153 178 205 153 178 205 153 178 205 153 178 205 153 178 205 153 178 205 153 178 205 153 178 205 153 178 205 153 178 205 153 178 205 153 178 205 153 178 205 153 178 205 153 178 205 153 178 205 153 178 205 153 178 205 153 178 205 153 178 205 153 178 205 153 178 205 153 178 205 153 178 205 153 178 205 153 178 205 153 178 205 153 178 205 153 178 205 153 178 205 153 178 205 153 178 205 153 178 205 153 178 205 153 178 205 153 178 205 153 178 205 153 178 205 153 178 205 153 178 205 153 178 205 153 178 205 153 178 205 153 178 205 153 178 205 153 178 205 153 178 205 153 178 205 153 178 205 153 178 205 153 178 205 153 178 205 153 178 205 153 178 205 153 178 205 153 178 205 153 178 205 153 178 205 153 178 205 153 178 205 153 178 205 153 178 205 153 178 205 153 178 205 153 178 205 153 178 205 153 178 205 153 178 205 153 178 205 153 178 205 153 178 205 153 178 205 153 178 205 153 178 205 153 178 205 153 178 205 153 178 205 153 178 205 153 178 205 153 178 205 153 178 205 153 178 205 153 178 205 153 178 205 153 178 205 153 178 205 153 178 205 153 178 205 153 178 205 153 178 205 153 178 205 153 178 205 153 178 205 153 178 205 153 178 205 153 178 205 153 178 205 153 178 205 153 178 205 153 178 205 153 178 205 153 178 205 153 178 205 153 178 205 153 178 205 153 178 205 153 178 205 153 178 205 153 178 205 153 178 205 153 178 205 153 178 205 153 178 205 153 178 205 153 178 205 153 178 205 153 178 205 153 178 205 153 178 205 153 178 205 153 178 205 153 178 205 153 178 205 153 178 205 153 178 205 153 178 205 153 178 205 153 178 205 153 178 205 153 178 205 153 178 205 153 178 205 153 178 205 153 178 205 153 178 205 153 178 205 153 178 205 153 178 205 153 178 205 153 178 205 153 178 205 153 178 205 153 178 205 153 178 205 153 178 205 153 178 205 153 178 205 153 178 205 153 178 205 153 178 205 153 178 205 153 178 205 153 178 205 153 178 205 153 178 204 153 178 204 153 178 204 153 178 204 153 178 204 153 178 204 
153 178 204 153 178 204 153 178 204 153 178 204 153 178 204 153 178 204 153 178 204 153 178 204 153 178 204 153 178 204 153 178 204 153 178 204 153 178 204 153 178 205 153 178 205 153 178 205 153 178 205 153 178 205 153 178 205 153 178 205 153 178 205 153 178 205 153 178 205 153 178 205 153 178 205 153 178 205 153 178 205 153 178 205 153 178 205 153 178 205 153 178 205 153 178 205 153 178 205 153 178 205 153 178 205 153 178 205 153 178 205 153 178 205 153 178 205 153 178 205 153 178 205 153 178 205 153 178 205 153 178 205 153 178 205 153 178 205 153 178 205 153 178 205 153 178 205 153 178 205 153 178 205 153 178 205 153 178 205 153 178 205 153 178 205 153 178 205 153 178 205 153 178 205 153 178 205 153 178 205 153 178 205 153 178 205 153 178 205 153 178 205 153 178 205 153 178 205 153 178 205 153 178 205 153 178 205 153 178 205 153 178 205 153 178 205 153 178 205 153 178 205 153 178 205 153 178 205 153 178 205 153 178 205 153 178 205 153 178 205 153 178 205 153 178 205 153 178 205 153 178 205 153 178 205 153 178 205 153 178 205 153 178 205 153 178 205 153 178 205 153 178 205 153 178 205 153 178 205 153 178 205 153 178 205 153 178 205 153 178 205 153 178 205 153 178 205 153 178 205 153 178 205 153 178 205 153 178 205 153 178 205 153 178 205 153 178 205 153 178 205 153 178 205 153 178 205 153 178 205 153 178 205 153 178 205 153 178 205 153 178 205 153 178 205 153 178 205 153 178 205 153 178 205 153 178 205 153 178 205 153 178 205 153 178 205 153 178 205 153 178 205 153 178 205 153 178 205 153 178 205 153 178 205 153 178 205 153 178 205 153 178 205 153 178 205 153 178 205 153 178 205 153 178 205 153 178 205 153 178 205 153 178 205 153 178 205 153 178 205 153 178 205 153 178 205 153 178 205 153 178 205 153 178 205 153 178 205 153 178 205 153 178 205 153 178 205 153 178 205 153 178 205 153 178 205 153 178 205 153 178 205 153 178 205 153 178 205 153 178 205 153 178 205 153 178 205 153 178 205 153 178 205 153 178 205 153 178 205 153 178 205 153 178 205 153 178 205 153 178 205 153 178 205 153 178 205 153 178 205 153 178 205 153 178 205 153 178 205 153 178 205 153 178 205 153 178 205 153 178 205 153 178 205 153 178 205 153 178 205 153 178 205 153 179 205 153 179 205 153 179 205 153 179 205 153 179 205 153 179 205 153 179 205 153 179 205 153 179 205 153 179 205 153 179 205 153 179 205 153 179 205 153 179 205 153 179 205 153 179 205 153 179 205 153 179 205 153 179 205 153 179 205 154 179 205 153 179 205 154 179 205 154 179 205 154 179 205 154 179 205 154 179 205 154 179 205 154 179 205 154 179 205 154 179 205 154 179 205 154 179 205 154 179 205 154 179 205 154 179 205 154 179 205 154 179 205 154 179 205 154 179 205 154 179 205 154 179 205 154 179 205 154 179 205 154 179 205 154 179 205 154 179 205 154 179 205 154 179 205 154 179 205 154 179 205 154 179 205 154 179 205 154 179 205 154 179 205 154 179 205 154 179 205 154 179 205 154 179 205 154 179 205 154 179 205 154 179 205 154 179 205 154 179 205 154 179 205 154 179 205 154 179 205 154 179 205 154 179 205 154 179 206 154 179 205 154 179 206 154 179 206 154 179 206 154 179 206 154 179 206 154 179 206 154 179 206 154 179 206 154 179 206 154 179 206 154 179 206 154 179 206 154 179 206 154 179 206 154 179 206 154 179 206 154 179 206 154 179 206 154 179 206 154 179 206 154 179 206 154 179 206 154 179 206 154 179 206 154 179 206 154 179 206 154 179 206 154 179 206 154 179 206 154 179 206 154 179 206 154 179 206 154 179 206 154 179 206 154 179 206 154 179 206 154 179 206 154 179 206 154 179 206 154 179 206 154 179 206 154 179 206 154 179 206 154 179 206 154 179 206 154 179 206 154 179 206 154 179 206 154 179 206 154 179 206 154 179 206 154 179 206 154 179 206 154 179 206 154 179 206 154 179 206 154 179 206 154 179 206 154 179 206 154 179 206 154 179 206 154 179 206 154 179 206 154 179 206 154 179 206 154 179 206 154 179 206 154 179 206 154 179 206 154 179 206 154 179 206 154 179 206 154 179 206 154 179 206 154 179 206 154 179 206 154 179 206 154 179 206 154 179 206 154 179 206 154 179 206 154 179 206 154 179 206 154 179 206 154 179 206 154 179 206 154 179 206 154 179 206 154 179 206 154 179 206 154 179 206 154 179 206 154 179 206 154 179 206 154 179 206 154 179 206 154 179 206 154 179 206 154 179 206 154 179 206 154 179 206 154 179 206 154 179 206 154 179 206 154 179 206 154 179 206 154 179 206 154 179 206 154 179 206 154 179 206 154 179 206 154 179 206 154 179 206 154 179 206 154 179 206 154 179 206 154 179 206 154 179 206 154 179 206 154 179 206 154 179 206 154 179 206 154 179 206 154 179 206 154 179 206 154 179 206 154 179 206 154 179 206 154 179 206 154 179 206 154 179 206 154 179 206 154 179 206 154 179 206 154 179 206 154 179 206 154 179 206 154 179 206 154 179 206 154 179 206 154 179 206 154 179 206 154 179 206 154 179 206 154 179 206 154 179 206 154 179 206 154 179 206 154 179 206 154 179 206 154 179 206 154 179 206 154 179 206 154 179 206 154 179 206 154 179 206 154 179 206 154 179 206 154 179 206 154 179 206 154 179 206 154 179 206 154 179 206 154 179 206 154 179 206 154 179 206 154 179 206 154 179 206 154 179 206 154 179 206 154 179 206 154 179 206 154 179 206 154 179 206 154 179 206 154 179 206 154 179 206 154 179 206 154 179 206 154 179 206 154 179 206 154 179 206 154 179 206 154 179 206 154 179 206 154 179 206 154 179 206 154 179 206 154 179 206 154 179 206 154 179 206 154 179 206 154 179 206 154 179 206 154 179 206 154 179 206 154 179 206 154 179 206 154 179 206 154 179 206 154 179 206 154 179 206 154 179 206 154 179 206 154 179 206 154 179 206 154 179 206 154 179 206 154 179 206 154 179 206 154 179 206 154 179 206 154 179 206 154 179 206 154 179 206 154 179 206 154 179 206 154 179 206 154 179 206 154 179 206 154 179 206 154 179 206 154 179 206 154 179 206 154 179 206 154 179 206 154 179 206 154 179 206 154 179 206 154 179 206 154 179 206 154 179 206 154 179 206 154 179 206 154 179 206 154 179 206 154 179 206 154 179 206 154 179 206 154 179 206 154 179 206 154 179 206 154 179 206 154 179 206 154 179 206 154 179 206 154 179 206 154 179 206 154 179 206 154 179 206 154 179 206 154 179 206 154 179 206 154 179 206 154 179 206 154 179 206 154 179 206 154 179 206 154 179 206 154 179 206 154 179 206 154 179 206 154 179 206 154 179 206 154 179 206 154 179 206 154 179 206 154 179 206 154 179 206 154 179 206 154 179 206 154 179 206 154 179 206 154 179 206 154 179 206 154 179 206 154 179 206 154 179 206 154 179 206 154 179 206 154 179 206 154 179 206 154 179 206 154 179 206 154 179 206 154 179 206 154 179 206 154 179 206 154 179 206 154 179 206 154 179 206 154 179 206 154 179 206 154 179 206 154 179 206 154 179 206 154 179 206 154 179 206 154 179 205 154 179 205 154 179 205 154 179 205 154 179 205 154 179 205 154 179 205 154 179 205 154 179 205 154 179 205 154 179 205 154 179 205 154 179 205 154 179 205 154 179 205 154 179 205 154 179 205 154 179 205 154 179 205 154 179 205 154 179 205 154 179 205 154 179 205 154 179 205 154 179 205 154 179 205 154 179 205 154 179 205 154 179 205 154 179 205 154 179 205 154 179 205 154 179 205 154 179 205 154 179 205 154 179 205 154 179 205 154 179 205 154 179 205 154 179 205 154 179 205 154 179 205 154 179 205 154 179 205 154 179 205 154 179 205 154 179 205 154 179 205 154 179 205 153 179 205 153 179 205 153 179 205 153 179 205 153 179 205 153 179 205 153 179 205 153 179 205 153 179 205 153 179 205 153 179 205 153 179 205 153 179 205 153 179 205 153 179 205 153 179 205 153 179 205 153 179 205 153 179 205 153 179 205 153 179 205 153 178 205 153 178 205 153 178 205 153 178 205 153 178 205 153 178 205 153 178 205 153 178 205 153 178 205 153 178 205 153 178 205 153 178 205 153 178 205 153 178 205 153 178 205 153 178 205 153 178 205 153 178 205 153 178 205 153 178 205 153 178 205 153 178 205 153 178 205 153 178 205 153 178 205 153 178 205 153 178 205 153 178 205 153 178 205 153 178 205 153 178 205 153 178 205 153 178 205 153 178 205 153 178 205 153 178 205 153 178 205 153 178 205 153 178 205 153 178 205 153 178 205 153 178 205 153 178 205 153 178 205 153 178 205 153 178 205 153 178 205 153 178 205 153 178 205 153 178 205 153 178 205 153 178 205 153 178 205 153 178 205 153 178 205 153 178 205 153 178 205 153 178 205 153 178 205 153 178 205 153 178 205 153 178 205 153 178 205 153 178 205 153 178 205 153 178 205 153 178 205 153 178 205 153 178 205 153 178 205 153 178 205 153 178 205 153 178 205 153 178 205 153 178 205 153 178 205 153 178 205 153 178 205 153 178 205 153 178 205 153 178 205 153 178 205 153 178 205 153 178 205 153 178 205 153 178 205 153 178 205 153 178 205 153 178 205 153 178 205 153 178 205 153 178 205 153 178 205 153 178 205 153 178 205 153 178 205 153 178 205 153 178 205 153 178 205 153 178 205 153 178 205 153 178 205 153 178 205 153 178 205 153 178 205 153 178 205 153 178 205 153 178 205 153 178 205 153 178 205 153 178 205 153 178 205 153 178 205 153 178 205 153 178 205 153 178 205 153 178 205 153 178 205 153 178 205 153 178 205 153 178 205 153 178 205 153 178 205 153 178 205 153 178 205 153 178 205 153 178 205 153 178 205 153 178 205 153 178 205 153 178 205 153 178 205 153 178 205 153 178 205 153 178 205 153 178 205 153 178 205 153 178 205 153 178 205 153 178 205 153 178 205 153 178 205 153 178 205 153 178 205 153 178 205 153 178 205 153 178 205 153 178 205 153 178 205 153 178 205 153 178 205 153 178 205 153 178 205 153 178 205 153 178 205 153 178 205 153 178 205 153 178 205 153 178 205 153 178 205 153 178 205 153 178 205 153 178 205 153 178 205 153 178 205 153 178 205 153 178 204 153 178 204 153 178 204 153 178 204 153 178 204 153 178 204 153 178 204 153 178 204 153 178 204 153 178 204 153 178 204 153 178 204 153 178 204 153 178 204 
153 178 204 153 178 204 153 178 204 153 178 204 153 178 204 153 178 204 153 178 204 153 178 204 153 178 204 153 178 204 153 178 204 153 178 204 153 178 204 153 178 204 153 178 204 153 178 204 153 178 204 153 178 204 153 178 204 153 178 204 153 178 205 153 178 205 153 178 205 153 178 205 153 178 205 153 178 205 153 178 205 153 178 205 153 178 205 153 178 205 153 178 205 153 178 205 153 178 205 153 178 205 153 178 205 153 178 205 153 178 205 153 178 205 153 178 205 153 178 205 153 178 205 153 178 205 153 178 205 153 178 205 153 178 205 153 178 205 153 178 205 153 178 205 153 178 205 153 178 205 153 178 205 153 178 205 153 178 205 153 178 205 153 178 205 153 178 205 153 178 205 153 178 205 153 178 205 153 178 205 153 178 205 153 178 205 153 178 205 153 178 205 153 178 205 153 178 205 153 178 205 153 178 205 153 178 205 153 178 205 153 178 205 153 178 205 153 178 205 153 178 205 153 178 205 153 178 205 153 178 205 153 178 205 153 178 205 153 178 205 153 178 205 153 178 205 153 178 205 153 178 205 153 178 205 153 178 205 153 178 205 153 178 205 153 178 205 153 178 205 153 178 205 153 178 205 153 178 205 153 178 205 153 178 205 153 178 205 153 178 205 153 178 205 153 178 205 153 178 205 153 178 205 153 178 205 153 178 205 153 178 205 153 178 205 153 178 205 153 178 205 153 178 205 153 178 205 153 178 205 153 178 205 153 178 205 153 178 205 153 178 205 153 178 205 153 178 205 153 178 205 153 178 205 153 178 205 153 178 205 153 178 205 153 178 205 153 178 205 153 178 205 153 178 205 153 178 205 153 178 205 153 178 205 153 178 205 153 178 205 153 178 205 153 178 205 153 178 205 153 178 205 153 178 205 153 178 205 153 178 205 153 178 205 153 178 205 153 178 205 153 178 205 153 178 205 153 178 205 153 178 205 153 178 205 153 178 205 153 178 205 153 178 205 153 178 205 153 178 205 153 178 205 153 178 205 153 178 205 153 178 205 153 178 205 153 178 205 153 178 205 153 178 205 153 178 205 153 178 205 153 178 205 153 178 205 153 178 205 153 178 205 153 178 205 153 178 205 153 178 205 153 178 205 153 178 205 153 178 205 153 178 205 153 178 205 153 178 205 153 178 205 153 178 205 153 178 205 153 178 205 153 178 205 153 178 205 153 178 205 153 178 205 153 178 205 153 178 205 153 178 205 153 178 205 153 178 205 153 178 205 153 178 205 153 178 205 153 178 205 153 178 205 153 178 205 153 179 205 153 179 205 153 179 205 153 179 205 153 179 205 153 179 205 153 179 205 153 179 205 153 179 205 153 179 205 153 179 205 153 179 205 153 179 205 153 179 205 153 179 205 153 179 205 153 179 205 153 179 205 153 179 205 153 179 205 153 179 205 153 179 205 154 179 205 154 179 205 154 179 205 154 179 205 154 179 205 154 179 205 154 179 205 154 179 205 154 179 205 154 179 205 154 179 205 154 179 205 154 179 205 154 179 205 154 179 205 154 179 205 154 179 205 154 179 205 154 179 205 154 179 205 154 179 205 154 179 205 154 179 205 154 179 205 154 179 205 154 179 205 154 179 205 154 179 205 154 179 205 154 179 205 154 179 205 154 179 205 154 179 205 154 179 205 154 179 205 154 179 205 154 179 205 154 179 205 154 179 205 154 179 205 154 179 205 154 179 205 154 179 205 154 179 205 154 179 205 154 179 205 154 179 205 154 179 205 154 179 205 154 179 205 154 179 205 154 179 206 154 179 205 154 179 206 154 179 205 154 179 206 154 179 206 154 179 206 154 179 206 154 179 206 154 179 206 154 179 206 154 179 206 154 179 206 154 179 206 154 179 206 154 179 206 154 179 206 154 179 206 154 179 206 154 179 206 154 179 206 154 179 206 154 179 206 154 179 206 154 179 206 154 179 206 154 179 206 154 179 206 154 179 206 154 179 206 154 179 206 154 179 206 154 179 206 154 179 206 154 179 206 154 179 206 154 179 206 154 179 206 154 179 206 154 179 206 154 179 206 154 179 206 154 179 206 154 179 206 154 179 206 154 179 206 154 179 206 154 179 206 154 179 206 154 179 206 154 179 206 154 179 206 154 179 206 154 179 206 154 179 206 154 179 206 154 179 206 154 179 206 154 179 206 154 179 206 154 179 206 154 179 206 154 179 206 154 179 206 154 179 206 154 179 206 154 179 206 154 179 206 154 179 206 154 179 206 154 179 206 154 179 206 154 179 206 154 179 206 154 179 206 154 179 206 154 179 206 154 179 206 154 179 206 154 179 206 154 179 206 154 179 206 154 179 206 154 179 206 154 179 206 154 179 206 154 179 206 154 179 206 154 179 206 154 179 206 154 179 206 154 179 206 154 179 206 154 179 206 154 179 206 154 179 206 154 179 206 154 179 206 154 179 206 154 179 206 154 179 206 154 179 206 154 179 206 154 179 206 154 179 206 154 179 206 154 179 206 154 179 206 154 179 206 154 179 206 154 179 206 154 179 206 154 179 206 154 179 206 154 179 206 154 179 206 154 179 206 154 179 206 154 179 206 154 179 206 154 179 206 154 179 206 154 179 206 154 179 206 154 179 206 154 179 206 154 179 206 154 179 206 154 179 206 154 179 206 154 179 206 154 179 206 154 179 206 154 179 206 154 179 206 154 179 206 154 179 206 154 179 206 154 179 206 154 179 206 154 179 206 154 179 206 154 179 206 154 179 206 154 179 206 154 179 206 154 179 206 154 179 206 154 179 206 154 179 206 154 179 206 154 179 206 154 179 206 154 179 206 154 179 206 154 179 206 154 179 206 154 179 206 154 179 206 154 179 206 154 179 206 154 179 206 154 179 206 154 179 206 154 179 206 154 179 206 154 179 206 154 179 206 154 179 206 154 179 206 154 179 206 154 179 206 154 179 206 154 179 206 154 179 206 154 179 206 154 179 206 154 179 206 154 179 206 154 179 206 154 179 206 154 179 206 154 179 206 154 179 206 154 179 206 154 179 206 154 179 206 154 179 206 154 179 206 154 179 206 154 179 206 154 179 206 154 179 206 154 179 206 154 179 206 154 179 206 154 179 206 154 179 206 154 179 206 154 179 206 154 179 206 154 179 206 154 179 206 154 179 206 154 179 206 154 179 206 154 179 206 154 179 206 154 179 206 154 179 206 154 179 206 154 179 206 154 179 206 154 179 206 154 179 206 154 179 206 154 179 206 154 179 206 154 179 206 154 179 206 154 179 206 154 179 206 154 179 206 154 179 206 154 179 206 154 179 206 154 179 206 154 179 206 154 179 206 154 179 206 154 179 206 154 179 206 154 179 206 154 179 206 154 179 206 154 179 206 154 179 206 154 179 206 154 179 206 154 179 206 154 179 206 154 179 206 154 179 206 154 179 206 154 179 206 154 179 206 154 179 206 154 179 206 154 179 206 154 179 206 154 179 206 154 179 206 154 179 206 154 179 206 154 179 206 154 179 206 154 179 206 154 179 206 154 179 206 154 179 206 154 179 206 154 179 206 154 179 206 154 179 206 154 179 206 154 179 206 154 179 206 154 179 206 154 179 205 154 179 205 154 179 205 154 179 205 154 179 205 154 179 205 154 179 205 154 179 205 154 179 205 154 179 205 154 179 205 154 179 205 154 179 205 154 179 205 154 179 205 154 179 205 154 179 205 154 179 205 154 179 205 154 179 205 154 179 205 154 179 205 154 179 205 154 179 205 154 179 205 154 179 205 154 179 205 154 179 205 154 179 205 154 179 205 154 179 205 154 179 205 154 179 205 154 179 205 154 179 205 154 179 205 154 179 205 154 179 205 154 179 205 154 179 205 154 179 205 154 179 205 154 179 205 154 179 205 154 179 205 154 179 205 154 179 205 154 179 205 154 179 205 154 179 205 154 179 205 154 179 205 154 179 205 153 179 205 153 179 205 153 179 205 153 179 205 153 179 205 153 179 205 153 179 205 153 179 205 153 179 205 153 179 205 153 179 205 153 179 205 153 179 205 153 179 205 153 179 205 153 179 205 153 179 205 153 179 205 153 179 205 153 179 205 153 179 205 153 178 205 153 178 205 153 178 205 153 178 205 153 178 205 153 178 205 153 178 205 153 178 205 153 178 205 153 178 205 153 178 205 153 178 205 153 178 205 153 178 205 153 178 205 153 178 205 153 178 205 153 178 205 153 178 205 153 178 205 153 178 205 153 178 205 153 178 205 153 178 205 153 178 205 153 178 205 153 178 205 153 178 205 153 178 205 153 178 205 153 178 205 153 178 205 153 178 205 153 178 205 153 178 205 153 178 205 153 178 205 153 178 205 153 178 205 153 178 205 153 178 205 153 178 205 153 178 205 153 178 205 153 178 205 153 178 205 153 178 205 153 178 205 153 178 205 153 178 205 153 178 205 153 178 205 153 178 205 153 178 205 153 178 205 153 178 205 153 178 205 153 178 205 153 178 205 153 178 205 153 178 205 153 178 205 153 178 205 153 178 205 153 178 205 153 178 205 153 178 205 153 178 205 153 178 205 153 178 205 153 178 205 153 178 205 153 178 205 153 178 205 153 178 205 153 178 205 153 178 205 153 178 205 153 178 205 153 178 205 153 178 205 153 178 205 153 178 205 153 178 205 153 178 205 153 178 205 153 178 205 153 178 205 153 178 205 153 178 205 153 178 205 153 178 205 153 178 205 153 178 205 153 178 205 153 178 205 153 178 205 153 178 205 153 178 205 153 178 205 153 178 205 153 178 205 153 178 205 153 178 205 153 178 205 153 178 205 153 178 205 153 178 205 153 178 205 153 178 205 153 178 205 153 178 205 153 178 205 153 178 205 153 178 205 153 178 205 153 178 205 153 178 205 153 178 205 153 178 205 153 178 205 153 178 205 153 178 205 153 178 205 153 178 205 153 178 205 153 178 205 153 178 205 153 178 205 153 178 205 153 178 205 153 178 205 153 178 205 153 178 205 153 178 205 153 178 205 153 178 205 153 178 205 153 178 205 153 178 205 153 178 205 153 178 205 153 178 205 153 178 205 153 178 205 153 178 205 153 178 205 153 178 205 153 178 205 153 178 205 153 178 205 153 178 205 153 178 205 153 178 205 153 178 205 153 178 205 153 178 205 153 178 205 153 178 205 153 178 205 153 178 205 153 178 205 153 178 205 153 178 205 153 178 205 153 178 205 153 178 205 153 178 205 153 178 205 153 178 205 153 178 205 153 178 205 153 178 205 153 178 204 153 178 204 153 178 204 153 178 204 153 178 204 153 178 204 153 178 204 153 178 204 153 178 204 153 178 204 153 178 204 153 178 204 153 178 204 153 178 204 153 178 204 153 178 204 153 178 204 153 178 204 153 178 204 153 178 204 
153 178 204 153 178 204 153 178 204 153 178 204 153 178 204 153 178 204 153 178 204 153 178 204 153 178 204 153 178 204 153 178 204 153 178 204 153 178 204 153 178 204 153 178 204 153 178 204 153 178 204 153 178 204 153 178 204 153 178 204 153 178 204 153 178 204 153 178 204 153 178 204 153 178 204 153 178 204 153 178 204 153 178 204 153 178 204 153 178 205 153 178 205 153 178 205 153 178 205 153 178 205 153 178 205 153 178 205 153 178 205 153 178 205 153 178 205 153 178 205 153 178 205 153 178 205 153 178 205 153 178 205 153 178 205 153 178 205 153 178 205 153 178 205 153 178 205 153 178 205 153 178 205 153 178 205 153 178 205 153 178 205 153 178 205 153 178 205 153 178 205 153 178 205 153 178 205 153 178 205 153 178 205 153 178 205 153 178 205 153 178 205 153 178 205 153 178 205 153 178 205 153 178 205 153 178 205 153 178 205 153 178 205 153 178 205 153 178 205 153 178 205 153 178 205 153 178 205 153 178 205 153 178 205 153 178 205 153 178 205 153 178 205 153 178 205 153 178 205 153 178 205 153 178 205 153 178 205 153 178 205 153 178 205 153 178 205 153 178 205 153 178 205 153 178 205 153 178 205 153 178 205 153 178 205 153 178 205 153 178 205 153 178 205 153 178 205 153 178 205 153 178 205 153 178 205 153 178 205 153 178 205 153 178 205 153 178 205 153 178 205 153 178 205 153 178 205 153 178 205 153 178 205 153 178 205 153 178 205 153 178 205 153 178 205 153 178 205 153 178 205 153 178 205 153 178 205 153 178 205 153 178 205 153 178 205 153 178 205 153 178 205 153 178 205 153 178 205 153 178 205 153 178 205 153 178 205 153 178 205 153 178 205 153 178 205 153 178 205 153 178 205 153 178 205 153 178 205 153 178 205 153 178 205 153 178 205 153 178 205 153 178 205 153 178 205 153 178 205 153 178 205 153 178 205 153 178 205 153 178 205 153 178 205 153 178 205 153 178 205 153 178 205 153 178 205 153 178 205 153 178 205 153 178 205 153 178 205 153 178 205 153 178 205 153 178 205 153 178 205 153 178 205 153 178 205 153 178 205 153 178 205 153 178 205 153 178 205 153 178 205 153 178 205 153 178 205 153 178 205 153 178 205 153 178 205 153 178 205 153 178 205 153 178 205 153 178 205 153 178 205 153 178 205 153 178 205 153 178 205 153 178 205 153 178 205 153 178 205 153 178 205 153 178 205 153 178 205 153 178 205 153 178 205 153 178 205 153 178 205 153 178 205 153 178 205 153 178 205 153 178 205 153 178 205 153 178 205 153 178 205 153 178 205 153 178 205 153 178 205 153 178 205 153 178 205 153 178 205 153 179 205 153 178 205 153 179 205 153 179 205 153 179 205 153 179 205 153 179 205 153 179 205 153 179 205 153 179 205 153 179 205 153 179 205 153 179 205 153 179 205 153 179 205 153 179 205 153 179 205 153 179 205 153 179 205 153 179 205 153 179 205 153 179 205 154 179 205 154 179 205 154 179 205 154 179 205 154 179 205 154 179 205 154 179 205 154 179 205 154 179 205 154 179 205 154 179 205 154 179 205 154 179 205 154 179 205 154 179 205 154 179 205 154 179 205 154 179 205 154 179 205 154 179 205 154 179 205 154 179 205 154 179 205 154 179 205 154 179 205 154 179 205 154 179 205 154 179 205 154 179 205 154 179 205 154 179 205 154 179 205 154 179 205 154 179 205 154 179 205 154 179 205 154 179 205 154 179 205 154 179 205 154 179 205 154 179 205 154 179 205 154 179 205 154 179 205 154 179 205 154 179 205 154 179 205 154 179 205 154 179 205 154 179 205 154 179 205 154 179 205 154 179 205 154 179 205 154 179 205 154 179 205 154 179 205 154 179 205 154 179 205 154 179 206 154 179 206 154 179 205 154 179 206 154 179 206 154 179 206 154 179 206 154 179 206 154 179 206 154 179 206 154 179 206 154 179 206 154 179 206 154 179 206 154 179 206 154 179 206 154 179 206 154 179 206 154 179 206 154 179 206 154 179 206 154 179 206 154 179 206 154 179 206 154 179 206 154 179 206 154 179 206 154 179 206 154 179 206 154 179 206 154 179 206 154 179 206 154 179 206 154 179 206 154 179 206 154 179 206 154 179 206 154 179 206 154 179 206 154 179 206 154 179 206 154 179 206 154 179 206 154 179 206 154 179 206 154 179 206 154 179 206 154 179 206 154 179 206 154 179 206 154 179 206 154 179 206 154 179 206 154 179 206 154 179 206 154 179 206 154 179 206 154 179 206 154 179 206 154 179 206 154 179 206 154 179 206 154 179 206 154 179 206 154 179 206 154 179 206 154 179 206 154 179 206 154 179 206 154 179 206 154 179 206 154 179 206 154 179 206 154 179 206 154 179 206 154 179 206 154 179 206 154 179 206 154 179 206 154 179 206 154 179 206 154 179 206 154 179 206 154 179 206 154 179 206 154 179 206 154 179 206 154 179 206 154 179 206 154 179 206 154 179 206 154 179 206 154 179 206 154 179 206 154 179 206 154 179 206 154 179 206 154 179 206 154 179 206 154 179 206 154 179 206 154 179 206 154 179 206 154 179 206 154 179 206 154 179 206 154 179 206 154 179 206 154 179 206 154 179 206 154 179 206 154 179 206 154 179 206 154 179 206 154 179 206 154 179 206 154 179 206 154 179 206 154 179 206 154 179 206 154 179 206 154 179 206 154 179 206 154 179 206 154 179 206 154 179 206 154 179 206 154 179 206 154 179 206 154 179 206 154 179 206 154 179 206 154 179 206 154 179 206 154 179 206 154 179 206 154 179 206 154 179 206 154 179 206 154 179 206 154 179 206 154 179 206 154 179 206 154 179 206 154 179 206 154 179 206 154 179 206 154 179 206 154 179 206 154 179 206 154 179 206 154 179 206 154 179 206 154 179 206 154 179 206 154 179 206 154 179 206 154 179 206 154 179 206 154 179 206 154 179 206 154 179 206 154 179 206 154 179 206 154 179 206 154 179 206 154 179 206 154 179 206 154 179 206 154 179 206 154 179 206 154 179 206 154 179 206 154 179 206 154 179 206 154 179 206 154 179 206 154 179 206 154 179 206 154 179 206 154 179 206 154 179 206 154 179 206 154 179 206 154 179 206 154 179 206 154 179 206 154 179 206 154 179 206 154 179 206 154 179 206 154 179 206 154 179 206 154 179 206 154 179 206 154 179 206 154 179 206 154 179 206 154 179 206 154 179 206 154 179 206 154 179 206 154 179 206 154 179 206 154 179 206 154 179 206 154 179 206 154 179 206 154 179 206 154 179 206 154 179 206 154 179 206 154 179 206 154 179 206 154 179 206 154 179 206 154 179 206 154 179 206 154 179 206 154 179 206 154 179 206 154 179 206 154 179 206 154 179 206 154 179 206 154 179 206 154 179 206 154 179 206 154 179 206 154 179 206 154 179 205 154 179 205 154 179 205 154 179 205 154 179 205 154 179 205 154 179 205 154 179 205 154 179 205 154 179 205 154 179 205 154 179 205 154 179 205 154 179 205 154 179 205 154 179 205 154 179 205 154 179 205 154 179 205 154 179 205 154 179 205 154 179 205 154 179 205 154 179 205 154 179 205 154 179 205 154 179 205 154 179 205 154 179 205 154 179 205 154 179 205 154 179 205 154 179 205 154 179 205 154 179 205 154 179 205 154 179 205 154 179 205 154 179 205 154 179 205 154 179 205 154 179 205 154 179 205 154 179 205 154 179 205 154 179 205 154 179 205 154 179 205 154 179 205 154 179 205 154 179 205 154 179 205 154 179 205 154 179 205 154 179 205 154 179 205 154 179 205 154 179 205 154 179 205 153 179 205 153 179 205 153 179 205 153 179 205 153 179 205 153 179 205 153 179 205 153 179 205 153 179 205 153 179 205 153 179 205 153 179 205 153 179 205 153 179 205 153 179 205 153 179 205 153 179 205 153 179 205 153 179 205 153 179 205 153 179 205 153 179 205 153 178 205 153 178 205 153 178 205 153 178 205 153 178 205 153 178 205 153 178 205 153 178 205 153 178 205 153 178 205 153 178 205 153 178 205 153 178 205 153 178 205 153 178 205 153 178 205 153 178 205 153 178 205 153 178 205 153 178 205 153 178 205 153 178 205 153 178 205 153 178 205 153 178 205 153 178 205 153 178 205 153 178 205 153 178 205 153 178 205 153 178 205 153 178 205 153 178 205 153 178 205 153 178 205 153 178 205 153 178 205 153 178 205 153 178 205 153 178 205 153 178 205 153 178 205 153 178 205 153 178 205 153 178 205 153 178 205 153 178 205 153 178 205 153 178 205 153 178 205 153 178 205 153 178 205 153 178 205 153 178 205 153 178 205 153 178 205 153 178 205 153 178 205 153 178 205 153 178 205 153 178 205 153 178 205 153 178 205 153 178 205 153 178 205 153 178 205 153 178 205 153 178 205 153 178 205 153 178 205 153 178 205 153 178 205 153 178 205 153 178 205 153 178 205 153 178 205 153 178 205 153 178 205 153 178 205 153 178 205 153 178 205 153 178 205 153 178 205 153 178 205 153 178 205 153 178 205 153 178 205 153 178 205 153 178 205 153 178 205 153 178 205 153 178 205 153 178 205 153 178 205 153 178 205 153 178 205 153 178 205 153 178 205 153 178 205 153 178 205 153 178 205 153 178 205 153 178 205 153 178 205 153 178 205 153 178 205 153 178 205 153 178 205 153 178 205 153 178 205 153 178 205 153 178 205 153 178 205 153 178 205 153 178 205 153 178 205 153 178 205 153 178 205 153 178 205 153 178 205 153 178 205 153 178 205 153 178 205 153 178 205 153 178 205 153 178 205 153 178 205 153 178 205 153 178 205 153 178 205 153 178 205 153 178 205 153 178 205 153 178 205 153 178 205 153 178 205 153 178 205 153 178 205 153 178 205 153 178 205 153 178 205 153 178 205 153 178 205 153 178 205 153 178 205 153 178 205 153 178 205 153 178 205 153 178 205 153 178 205 153 178 205 153 178 205 153 178 205 153 178 205 153 178 205 153 178 205 153 178 205 153 178 205 153 178 205 153 178 205 153 178 205 153 178 205 153 178 205 153 178 205 153 178 205 153 178 205 153 178 205 153 178 205 153 178 205 153 178 205 153 178 205 153 178 205 153 178 205 153 178 205 153 178 205 153 178 205 153 178 205 153 178 204 153 178 204 153 178 204 153 178 204 153 178 204 153 178 204 153 178 204 153 178 204 153 178 204 153 178 204 153 178 204 153 178 204 153 178 204 153 178 204 153 178 204 153 178 204 153 178 204 153 178 204 153 178 204 153 178 204 153 178 204 153 178 204 153 178 204 153 178 204 153 178 204 153 178 204 153 178 204 153 178 204 
153 178 204 153 178 204 153 178 204 153 178 204 153 178 204 153 178 204 153 178 204 153 178 204 153 178 204 153 178 204 153 178 204 153 178 204 153 178 204 153 178 204 153 178 204 153 178 204 153 178 204 153 178 204 153 178 204 153 178 204 153 178 204 153 178 204 153 178 204 153 178 204 153 178 204 153 178 204 153 178 204 153 178 204 153 178 204 153 178 204 153 178 204 153 178 204 153 178 204 153 178 204 153 178 204 153 178 204 153 178 205 153 178 205 153 178 205 153 178 205 153 178 205 153 178 205 153 178 205 153 178 205 153 178 205 153 178 205 153 178 205 153 178 205 153 178 205 153 178 205 153 178 205 153 178 205 153 178 205 153 178 205 153 178 205 153 178 205 153 178 205 153 178 205 153 178 205 153 178 205 153 178 205 153 178 205 153 178 205 153 178 205 153 178 205 153 178 205 153 178 205 153 178 205 153 178 205 153 178 205 153 178 205 153 178 205 153 178 205 153 178 205 153 178 205 153 178 205 153 178 205 153 178 205 153 178 205 153 178 205 153 178 205 153 178 205 153 178 205 153 178 205 153 178 205 153 178 205 153 178 205 153 178 205 153 178 205 153 178 205 153 178 205 153 178 205 153 178 205 153 178 205 153 178 205 153 178 205 153 178 205 153 178 205 153 178 205 153 178 205 153 178 205 153 178 205 153 178 205 153 178 205 153 178 205 153 178 205 153 178 205 153 178 205 153 178 205 153 178 205 153 178 205 153 178 205 153 178 205 153 178 205 153 178 205 153 178 205 153 178 205 153 178 205 153 178 205 153 178 205 153 178 205 153 178 205 153 178 205 153 178 205 153 178 205 153 178 205 153 178 205 153 178 205 153 178 205 153 178 205 153 178 205 153 178 205 153 178 205 153 178 205 153 178 205 153 178 205 153 178 205 153 178 205 153 178 205 153 178 205 153 178 205 153 178 205 153 178 205 153 178 205 153 178 205 153 178 205 153 178 205 153 178 205 153 178 205 153 178 205 153 178 205 153 178 205 153 178 205 153 178 205 153 178 205 153 178 205 153 178 205 153 178 205 153 178 205 153 178 205 153 178 205 153 178 205 153 178 205 153 178 205 153 178 205 153 178 205 153 178 205 153 178 205 153 178 205 153 178 205 153 178 205 153 178 205 153 178 205 153 178 205 153 178 205 153 178 205 153 178 205 153 178 205 153 178 205 153 178 205 153 178 205 153 178 205 153 178 205 153 178 205 153 178 205 153 178 205 153 178 205 153 178 205 153 178 205 153 178 205 153 178 205 153 178 205 153 178 205 153 178 205 153 178 205 153 178 205 153 178 205 153 178 205 153 178 205 153 178 205 153 178 205 153 178 205 153 178 205 153 178 205 153 178 205 153 178 205 153 178 205 153 178 205 153 178 205 153 178 205 153 178 205 153 178 205 153 178 205 153 178 205 153 178 205 153 178 205 153 179 205 153 179 205 153 179 205 153 179 205 153 179 205 153 179 205 153 179 205 153 179 205 153 179 205 153 179 205 153 179 205 153 179 205 153 179 205 153 179 205 153 179 205 153 179 205 153 179 205 153 179 205 153 179 205 153 179 205 153 179 205 153 179 205 153 179 205 153 179 205 153 179 205 154 179 205 154 179 205 154 179 205 154 179 205 154 179 205 154 179 205 154 179 205 154 179 205 154 179 205 154 179 205 154 179 205 154 179 205 154 179 205 154 179 205 154 179 205 154 179 205 154 179 205 154 179 205 154 179 205 154 179 205 154 179 205 154 179 205 154 179 205 154 179 205 154 179 205 154 179 205 154 179 205 154 179 205 154 179 205 154 179 205 154 179 205 154 179 205 154 179 205 154 179 205 154 179 205 154 179 205 154 179 205 154 179 205 154 179 205 154 179 205 154 179 205 154 179 205 154 179 205 154 179 205 154 179 205 154 179 205 154 179 205 154 179 205 154 179 205 154 179 205 154 179 205 154 179 205 154 179 205 154 179 205 154 179 205 154 179 205 154 179 205 154 179 205 154 179 205 154 179 205 154 179 205 154 179 205 154 179 205 154 179 205 154 179 205 154 179 206 154 179 205 154 179 206 154 179 206 154 179 206 154 179 206 154 179 206 154 179 206 154 179 206 154 179 206 154 179 206 154 179 206 154 179 206 154 179 206 154 179 206 154 179 206 154 179 206 154 179 206 154 179 206 154 179 206 154 179 206 154 179 206 154 179 206 154 179 206 154 179 206 154 179 206 154 179 206 154 179 206 154 179 206 154 179 206 154 179 206 154 179 206 154 179 206 154 179 206 154 179 206 154 179 206 154 179 206 154 179 206 154 179 206 154 179 206 154 179 206 154 179 206 154 179 206 154 179 206 154 179 206 154 179 206 154 179 206 154 179 206 154 179 206 154 179 206 154 179 206 154 179 206 154 179 206 154 179 206 154 179 206 154 179 206 154 179 206 154 179 206 154 179 206 154 179 206 154 179 206 154 179 206 154 179 206 154 179 206 154 179 206 154 179 206 154 179 206 154 179 206 154 179 206 154 179 206 154 179 206 154 179 206 154 179 206 154 179 206 154 179 206 154 179 206 154 179 206 154 179 206 154 179 206 154 179 206 154 179 206 154 179 206 154 179 206 154 179 206 154 179 206 154 179 206 154 179 206 154 179 206 154 179 206 154 179 206 154 179 206 154 179 206 154 179 206 154 179 206 154 179 206 154 179 206 154 179 206 154 179 206 154 179 206 154 179 206 154 179 206 154 179 206 154 179 206 154 179 206 154 179 206 154 179 206 154 179 206 154 179 206 154 179 206 154 179 206 154 179 206 154 179 206 154 179 206 154 179 206 154 179 206 154 179 206 154 179 206 154 179 206 154 179 206 154 179 206 154 179 206 154 179 206 154 179 206 154 179 206 154 179 206 154 179 206 154 179 206 154 179 206 154 179 206 154 179 206 154 179 206 154 179 206 154 179 206 154 179 206 154 179 206 154 179 206 154 179 206 154 179 206 154 179 206 154 179 206 154 179 206 154 179 206 154 179 206 154 179 206 154 179 206 154 179 206 154 179 206 154 179 206 154 179 206 154 179 206 154 179 206 154 179 206 154 179 206 154 179 206 154 179 206 154 179 206 154 179 206 154 179 206 154 179 206 154 179 206 154 179 206 154 179 206 154 179 206 154 179 206 154 179 206 154 179 206 154 179 206 154 179 206 154 179 206 154 179 206 154 179 206 154 179 206 154 179 206 154 179 206 154 179 206 154 179 206 154 179 206 154 179 206 154 179 206 154 179 206 154 179 206 154 179 206 154 179 206 154 179 206 154 179 206 154 179 206 154 179 206 154 179 205 154 179 205 154 179 205 154 179 205 154 179 205 154 179 205 154 179 205 154 179 205 154 179 205 154 179 205 154 179 205 154 179 205 154 179 205 154 179 205 154 179 205 154 179 205 154 179 205 154 179 205 154 179 205 154 179 205 154 179 205 154 179 205 154 179 205 154 179 205 154 179 205 154 179 205 154 179 205 154 179 205 154 179 205 154 179 205 154 179 205 154 179 205 154 179 205 154 179 205 154 179 205 154 179 205 154 179 205 154 179 205 154 179 205 154 179 205 154 179 205 154 179 205 154 179 205 154 179 205 154 179 205 154 179 205 154 179 205 154 179 205 154 179 205 154 179 205 154 179 205 154 179 205 154 179 205 154 179 205 154 179 205 154 179 205 154 179 205 154 179 205 154 179 205 154 179 205 154 179 205 154 179 205 154 179 205 154 179 205 154 179 205 154 179 205 153 179 205 153 179 205 153 179 205 153 179 205 153 179 205 153 179 205 153 179 205 153 179 205 153 179 205 153 179 205 153 179 205 153 179 205 153 179 205 153 179 205 153 179 205 153 179 205 153 179 205 153 179 205 153 179 205 153 179 205 153 179 205 153 179 205 153 178 205 153 178 205 153 178 205 153 178 205 153 178 205 153 178 205 153 178 205 153 178 205 153 178 205 153 178 205 153 178 205 153 178 205 153 178 205 153 178 205 153 178 205 153 178 205 153 178 205 153 178 205 153 178 205 153 178 205 153 178 205 153 178 205 153 178 205 153 178 205 153 178 205 153 178 205 153 178 205 153 178 205 153 178 205 153 178 205 153 178 205 153 178 205 153 178 205 153 178 205 153 178 205 153 178 205 153 178 205 153 178 205 153 178 205 153 178 205 153 178 205 153 178 205 153 178 205 153 178 205 153 178 205 153 178 205 153 178 205 153 178 205 153 178 205 153 178 205 153 178 205 153 178 205 153 178 205 153 178 205 153 178 205 153 178 205 153 178 205 153 178 205 153 178 205 153 178 205 153 178 205 153 178 205 153 178 205 153 178 205 153 178 205 153 178 205 153 178 205 153 178 205 153 178 205 153 178 205 153 178 205 153 178 205 153 178 205 153 178 205 153 178 205 153 178 205 153 178 205 153 178 205 153 178 205 153 178 205 153 178 205 153 178 205 153 178 205 153 178 205 153 178 205 153 178 205 153 178 205 153 178 205 153 178 205 153 178 205 153 178 205 153 178 205 153 178 205 153 178 205 153 178 205 153 178 205 153 178 205 153 178 205 153 178 205 153 178 205 153 178 205 153 178 205 153 178 205 153 178 205 153 178 205 153 178 205 153 178 205 153 178 205 153 178 205 153 178 205 153 178 205 153 178 205 153 178 205 153 178 205 153 178 205 153 178 205 153 178 205 153 178 205 153 178 205 153 178 205 153 178 205 153 178 205 153 178 205 153 178 205 153 178 205 153 178 205 153 178 205 153 178 205 153 178 205 153 178 205 153 178 205 153 178 205 153 178 205 153 178 205 153 178 205 153 178 205 153 178 205 153 178 205 153 178 205 153 178 205 153 178 205 153 178 205 153 178 205 153 178 205 153 178 205 153 178 205 153 178 205 153 178 205 153 178 205 153 178 205 153 178 205 153 178 205 153 178 205 153 178 205 153 178 205 153 178 205 153 178 205 153 178 205 153 178 205 153 178 205 153 178 205 153 178 205 153 178 205 153 178 205 153 178 205 153 178 205 153 178 205 153 178 205 153 178 205 153 178 205 153 178 205 153 178 205 153 178 205 153 178 205 153 178 205 153 178 205 153 178 205 153 178 205 153 178 205 153 178 205 153 178 205 153 178 205 153 178 205 153 178 204 153 178 204 153 178 204 153 178 204 153 178 204 153 178 204 153 178 204 153 178 204 153 178 204 153 178 204 153 178 204 153 178 204 153 178 204 153 178 204 153 178 204 153 178 204 153 178 204 153 178 204 153 178 204 153 178 204 153 178 204 153 178 204 153 178 204 153 178 204 153 178 204 153 178 204 153 178 204 153 178 204 153 178 204 153 178 204 153 178 204 153 178 204 153 178 204 153 178 204 153 178 204 153 178 204 
153 178 204 153 178 204 153 178 204 153 178 204 153 178 204 153 178 204 153 178 204 153 178 204 153 178 204 153 178 204 153 178 204 153 178 204 153 178 204 153 178 204 153 178 204 153 178 204 153 178 204 153 178 204 153 178 204 153 178 204 153 178 204 153 178 204 153 178 204 153 178 204 153 178 204 153 178 204 153 178 204 153 178 204 153 178 204 153 178 204 153 178 204 153 178 204 153 178 204 153 178 204 153 178 204 153 178 204 153 178 204 153 178 204 153 178 204 153 178 204 153 178 204 153 178 204 153 178 204 153 178 204 153 178 204 153 178 205 153 178 205 153 178 205 153 178 205 153 178 205 153 178 205 153 178 205 153 178 205 153 178 205 153 178 205 153 178 205 153 178 205 153 178 205 153 178 205 153 178 205 153 178 205 153 178 205 153 178 205 153 178 205 153 178 205 153 178 205 153 178 205 153 178 205 153 178 205 153 178 205 153 178 205 153 178 205 153 178 205 153 178 205 153 178 205 153 178 205 153 178 205 153 178 205 153 178 205 153 178 205 153 178 205 153 178 205 153 178 205 153 178 205 153 178 205 153 178 205 153 178 205 153 178 205 153 178 205 153 178 205 153 178 205 153 178 205 153 178 205 153 178 205 153 178 205 153 178 205 153 178 205 153 178 205 153 178 205 153 178 205 153 178 205 153 178 205 153 178 205 153 178 205 153 178 205 153 178 205 153 178 205 153 178 205 153 178 205 153 178 205 153 178 205 153 178 205 153 178 205 153 178 205 153 178 205 153 178 205 153 178 205 153 178 205 153 178 205 153 178 205 153 178 205 153 178 205 153 178 205 153 178 205 153 178 205 153 178 205 153 178 205 153 178 205 153 178 205 153 178 205 153 178 205 153 178 205 153 178 205 153 178 205 153 178 205 153 178 205 153 178 205 153 178 205 153 178 205 153 178 205 153 178 205 153 178 205 153 178 205 153 178 205 153 178 205 153 178 205 153 178 205 153 178 205 153 178 205 153 178 205 153 178 205 153 178 205 153 178 205 153 178 205 153 178 205 153 178 205 153 178 205 153 178 205 153 178 205 153 178 205 153 178 205 153 178 205 153 178 205 153 178 205 153 178 205 153 178 205 153 178 205 153 178 205 153 178 205 153 178 205 153 178 205 153 178 205 153 178 205 153 178 205 153 178 205 153 178 205 153 178 205 153 178 205 153 178 205 153 178 205 153 178 205 153 178 205 153 178 205 153 178 205 153 178 205 153 178 205 153 178 205 153 178 205 153 178 205 153 178 205 153 178 205 153 178 205 153 178 205 153 178 205 153 178 205 153 178 205 153 178 205 153 178 205 153 178 205 153 178 205 153 178 205 153 178 205 153 178 205 153 178 205 153 178 205 153 178 205 153 178 205 153 178 205 153 178 205 153 178 205 153 178 205 153 178 205 153 178 205 153 178 205 153 178 205 153 178 205 153 178 205 153 178 205 153 178 205 153 178 205 153 178 205 153 178 205 153 178 205 153 178 205 153 178 205 153 178 205 153 178 205 153 178 205 153 178 205 153 178 205 153 178 205 153 179 205 153 179 205 153 179 205 153 179 205 153 179 205 153 179 205 153 179 205 153 179 205 153 179 205 153 179 205 153 179 205 153 179 205 153 179 205 153 179 205 153 179 205 153 179 205 153 179 205 153 179 205 153 179 205 153 179 205 153 179 205 153 179 205 153 179 205 153 179 205 153 179 205 153 179 205 154 179 205 154 179 205 153 179 205 154 179 205 154 179 205 154 179 205 154 179 205 154 179 205 154 179 205 154 179 205 154 179 205 154 179 205 154 179 205 154 179 205 154 179 205 154 179 205 154 179 205 154 179 205 154 179 205 154 179 205 154 179 205 154 179 205 154 179 205 154 179 205 154 179 205 154 179 205 154 179 205 154 179 205 154 179 205 154 179 205 154 179 205 154 179 205 154 179 205 154 179 205 154 179 205 154 179 205 154 179 205 154 179 205 154 179 205 154 179 205 154 179 205 154 179 205 154 179 205 154 179 205 154 179 205 154 179 205 154 179 205 154 179 205 154 179 205 154 179 205 154 179 205 154 179 205 154 179 205 154 179 205 154 179 205 154 179 205 154 179 205 154 179 205 154 179 205 154 179 205 154 179 205 154 179 205 154 179 205 154 179 205 154 179 205 154 179 205 154 179 205 154 179 205 154 179 205 154 179 205 154 179 205 154 179 205 154 179 205 154 179 205 154 179 205 154 179 205 154 179 205 154 179 205 154 179 206 154 179 205 154 179 205 154 179 206 154 179 205 154 179 206 154 179 206 154 179 206 154 179 206 154 179 206 154 179 206 154 179 206 154 179 206 154 179 206 154 179 206 154 179 206 154 179 206 154 179 206 154 179 206 154 179 206 154 179 206 154 179 206 154 179 206 154 179 206 154 179 206 154 179 206 154 179 206 154 179 206 154 179 206 154 179 206 154 179 206 154 179 206 154 179 206 154 179 206 154 179 206 154 179 206 154 179 206 154 179 206 154 179 206 154 179 206 154 179 206 154 179 206 154 179 206 154 179 206 154 179 206 154 179 206 154 179 206 154 179 206 154 179 206 154 179 206 154 179 206 154 179 206 154 179 206 154 179 206 154 179 206 154 179 206 154 179 206 154 179 206 154 179 206 154 179 206 154 179 206 154 179 206 154 179 206 154 179 206 154 179 206 154 179 206 154 179 206 154 179 206 154 179 206 154 179 206 154 179 206 154 179 206 154 179 206 154 179 206 154 179 206 154 179 206 154 179 206 154 179 206 154 179 206 154 179 206 154 179 206 154 179 206 154 179 206 154 179 206 154 179 206 154 179 206 154 179 206 154 179 206 154 179 206 154 179 206 154 179 206 154 179 206 154 179 206 154 179 206 154 179 206 154 179 206 154 179 206 154 179 206 154 179 206 154 179 206 154 179 206 154 179 206 154 179 206 154 179 206 154 179 206 154 179 206 154 179 206 154 179 206 154 179 206 154 179 206 154 179 206 154 179 206 154 179 206 154 179 206 154 179 206 154 179 206 154 179 206 154 179 206 154 179 206 154 179 206 154 179 206 154 179 205 154 179 206 154 179 206 154 179 206 154 179 206 154 179 206 154 179 205 154 179 205 154 179 205 154 179 206 154 179 205 154 179 205 154 179 205 154 179 205 154 179 205 154 179 205 154 179 205 154 179 205 154 179 205 154 179 205 154 179 205 154 179 205 154 179 205 154 179 205 154 179 205 154 179 205 154 179 205 154 179 205 154 179 205 154 179 205 154 179 205 154 179 205 154 179 205 154 179 205 154 179 205 154 179 205 154 179 205 154 179 205 154 179 205 154 179 205 154 179 205 154 179 205 154 179 205 154 179 205 154 179 205 154 179 205 154 179 205 154 179 205 154 179 205 154 179 205 154 179 205 154 179 205 154 179 205 154 179 205 154 179 205 154 179 205 154 179 205 154 179 205 154 179 205 154 179 205 154 179 205 154 179 205 154 179 205 154 179 205 154 179 205 154 179 205 154 179 205 154 179 205 154 179 205 154 179 205 154 179 205 154 179 205 154 179 205 154 179 205 154 179 205 154 179 205 154 179 205 154 179 205 154 179 205 154 179 205 154 179 205 154 179 205 154 179 205 154 179 205 154 179 205 154 179 205 154 179 205 154 179 205 153 179 205 154 179 205 153 179 205 153 179 205 153 179 205 153 179 205 153 179 205 153 179 205 153 179 205 153 179 205 153 179 205 153 179 205 153 179 205 153 179 205 153 179 205 153 179 205 153 179 205 153 179 205 153 179 205 153 179 205 153 179 205 153 179 205 153 179 205 153 179 205 153 179 205 153 178 205 153 179 205 153 178 205 153 178 205 153 178 205 153 178 205 153 178 205 153 178 205 153 178 205 153 178 205 153 178 205 153 178 205 153 178 205 153 178 205 153 178 205 153 178 205 153 178 205 153 178 205 153 178 205 153 178 205 153 178 205 153 178 205 153 178 205 153 178 205 153 178 205 153 178 205 153 178 205 153 178 205 153 178 205 153 178 205 153 178 205 153 178 205 153 178 205 153 178 205 153 178 205 153 178 205 153 178 205 153 178 205 153 178 205 153 178 205 153 178 205 153 178 205 153 178 205 153 178 205 153 178 205 153 178 205 153 178 205 153 178 205 153 178 205 153 178 205 153 178 205 153 178 205 153 178 205 153 178 205 153 178 205 153 178 205 153 178 205 153 178 205 153 178 205 153 178 205 153 178 205 153 178 205 153 178 205 153 178 205 153 178 205 153 178 205 153 178 205 153 178 205 153 178 205 153 178 205 153 178 205 153 178 205 153 178 205 153 178 205 153 178 205 153 178 205 153 178 205 153 178 205 153 178 205 153 178 205 153 178 205 153 178 205 153 178 205 153 178 205 153 178 205 153 178 205 153 178 205 153 178 205 153 178 205 153 178 205 153 178 205 153 178 205 153 178 205 153 178 205 153 178 205 153 178 205 153 178 205 153 178 205 153 178 205 153 178 205 153 178 205 153 178 205 153 178 205 153 178 205 153 178 205 153 178 205 153 178 205 153 178 205 153 178 205 153 178 205 153 178 205 153 178 205 153 178 205 153 178 205 153 178 205 153 178 205 153 178 205 153 178 205 153 178 205 153 178 205 153 178 205 153 178 205 153 178 205 153 178 205 153 178 205 153 178 205 153 178 205 153 178 205 153 178 205 153 178 205 153 178 205 153 178 205 153 178 205 153 178 205 153 178 205 153 178 205 153 178 205 153 178 205 153 178 205 153 178 205 153 178 205 153 178 205 153 178 205 153 178 205 153 178 205 153 178 205 153 178 205 153 178 205 153 178 205 153 178 205 153 178 205 153 178 205 153 178 205 153 178 205 153 178 205 153 178 205 153 178 205 153 178 205 153 178 205 153 178 205 153 178 205 153 178 205 153 178 205 153 178 205 153 178 205 153 178 205 153 178 205 153 178 205 153 178 205 153 178 205 153 178 205 153 178 205 153 178 205 153 178 205 153 178 205 153 178 205 153 178 205 153 178 205 153 178 205 153 178 205 153 178 205 153 178 205 153 178 205 153 178 205 153 178 205 153 178 204 153 178 204 153 178 204 153 178 204 153 178 204 153 178 204 153 178 204 153 178 204 153 178 204 153 178 204 153 178 204 153 178 204 153 178 204 153 178 204 153 178 204 153 178 204 153 178 204 153 178 204 153 178 204 153 178 204 153 178 204 153 178 204 153 178 204 153 178 204 153 178 204 153 178 204 153 178 204 153 178 204 153 178 204 153 178 204 153 178 204 153 178 204 153 178 204 153 178 204 153 178 204 153 178 204 153 178 204 153 178 204 153 178 204 153 178 204 153 178 204 153 178 204 153 178 204 153 178 204 153 178 204 153 178 204 
153 178 204 153 178 204 153 178 204 153 178 204 153 178 204 153 178 204 153 178 204 153 178 204 153 178 204 153 178 204 153 178 204 153 178 204 153 178 204 153 178 204 153 178 204 153 178 204 153 178 204 153 178 204 153 178 204 153 178 204 153 178 204 153 178 204 153 178 204 153 178 204 153 178 204 153 178 204 153 178 204 153 178 204 153 178 204 153 178 204 153 178 204 153 178 204 153 178 204 153 178 204 153 178 204 153 178 204 153 178 204 153 178 204 153 178 204 153 178 204 153 178 204 153 178 204 153 178 204 153 178 204 153 178 204 153 178 204 153 178 204 153 178 204 153 178 204 153 178 204 153 178 204 153 178 204 153 178 205 153 178 205 153 178 205 153 178 205 153 178 205 153 178 205 153 178 205 153 178 205 153 178 205 153 178 205 153 178 205 153 178 205 153 178 205 153 178 205 153 178 205 153 178 205 153 178 205 153 178 205 153 178 205 153 178 205 153 178 205 153 178 205 153 178 205 153 178 205 153 178 205 153 178 205 153 178 205 153 178 205 153 178 205 153 178 205 153 178 205 153 178 205 153 178 205 153 178 205 153 178 205 153 178 205 153 178 205 153 178 205 153 178 205 153 178 205 153 178 205 153 178 205 153 178 205 153 178 205 153 178 205 153 178 205 153 178 205 153 178 205 153 178 205 153 178 205 153 178 205 153 178 205 153 178 205 153 178 205 153 178 205 153 178 205 153 178 205 153 178 205 153 178 205 153 178 205 153 178 205 153 178 205 153 178 205 153 178 205 153 178 205 153 178 205 153 178 205 153 178 205 153 178 205 153 178 205 153 178 205 153 178 205 153 178 205 153 178 205 153 178 205 153 178 205 153 178 205 153 178 205 153 178 205 153 178 205 153 178 205 153 178 205 153 178 205 153 178 205 153 178 205 153 178 205 153 178 205 153 178 205 153 178 205 153 178 205 153 178 205 153 178 205 153 178 205 153 178 205 153 178 205 153 178 205 153 178 205 153 178 205 153 178 205 153 178 205 153 178 205 153 178 205 153 178 205 153 178 205 153 178 205 153 178 205 153 178 205 153 178 205 153 178 205 153 178 205 153 178 205 153 178 205 153 178 205 153 178 205 153 178 205 153 178 205 153 178 205 153 178 205 153 178 205 153 178 205 153 178 205 153 178 205 153 178 205 153 178 205 153 178 205 153 178 205 153 178 205 153 178 205 153 178 205 153 178 205 153 178 205 153 178 205 153 178 205 153 178 205 153 178 205 153 178 205 153 178 205 153 178 205 153 178 205 153 178 205 153 178 205 153 178 205 153 178 205 153 178 205 153 178 205 153 178 205 153 178 205 153 178 205 153 178 205 153 178 205 153 178 205 153 178 205 153 178 205 153 178 205 153 178 205 153 178 205 153 178 205 153 178 205 153 178 205 153 178 205 153 178 205 153 178 205 153 178 205 153 178 205 153 178 205 153 178 205 153 178 205 153 178 205 153 178 205 153 178 205 153 178 205 153 178 205 153 178 205 153 178 205 153 178 205 153 178 205 153 178 205 153 178 205 153 178 205 153 178 205 153 178 205 153 178 205 153 178 205 153 178 205 153 178 205 153 178 205 153 178 205 153 178 205 153 178 205 153 178 205 153 178 205 153 179 205 153 178 205 153 179 205 153 179 205 153 179 205 153 179 205 153 179 205 153 179 205 153 179 205 153 179 205 153 179 205 153 179 205 153 179 205 153 179 205 153 179 205 153 179 205 153 179 205 153 179 205 153 179 205 153 179 205 153 179 205 153 179 205 153 179 205 153 179 205 153 179 205 153 179 205 153 179 205 153 179 205 153 179 205 154 179 205 153 179 205 154 179 205 153 179 205 154 179 205 154 179 205 154 179 205 154 179 205 154 179 205 154 179 205 154 179 205 154 179 205 154 179 205 154 179 205 154 179 205 154 179 205 154 179 205 154 179 205 154 179 205 154 179 205 154 179 205 154 179 205 154 179 205 154 179 205 154 179 205 154 179 205 154 179 205 154 179 205 154 179 205 154 179 205 154 179 205 154 179 205 154 179 205 154 179 205 154 179 205 154 179 205 154 179 205 154 179 205 154 179 205 154 179 205 154 179 205 154 179 205 154 179 205 154 179 205 154 179 205 154 179 205 154 179 205 154 179 205 154 179 205 154 179 205 154 179 205 154 179 205 154 179 205 154 179 205 154 179 205 154 179 205 154 179 205 154 179 205 154 179 205 154 179 205 154 179 205 154 179 205 154 179 205 154 179 205 154 179 205 154 179 205 154 179 205 154 179 205 154 179 205 154 179 205 154 179 205 154 179 205 154 179 205 154 179 205 154 179 205 154 179 205 154 179 205 154 179 205 154 179 205 154 179 205 154 179 205 154 179 205 154 179 205 154 179 205 154 179 205 154 179 205 154 179 205 154 179 205 154 179 205 154 179 205 154 179 205 154 179 205 154 179 205 154 179 205 154 179 205 154 179 205 154 179 205 154 179 205 154 179 205 154 179 205 154 179 205 154 179 205 154 179 205 154 179 205 154 179 205 154 179 205 154 179 205 154 179 205 154 179 205 154 179 205 154 179 205 154 179 205 154 179 205 154 179 205 154 179 205 154 179 205 154 179 205 154 179 205 154 179 205 154 179 205 154 179 205 154 179 205 154 179 205 154 179 205 154 179 205 154 179 205 154 179 205 154 179 205 154 179 205 154 179 205 154 179 205 154 179 205 154 179 205 154 179 205 154 179 205 154 179 205 154 179 205 154 179 205 154 179 205 154 179 205 154 179 205 154 179 205 154 179 205 154 179 205 154 179 205 154 179 205 154 179 205 154 179 205 154 179 205 154 179 205 154 179 205 154 179 205 154 179 205 154 179 205 154 179 205 154 179 205 154 179 205 154 179 205 154 179 205 154 179 205 154 179 205 154 179 205 154 179 205 154 179 205 154 179 205 154 179 205 154 179 205 154 179 205 154 179 205 154 179 205 154 179 205 154 179 205 154 179 205 154 179 205 154 179 205 154 179 205 154 179 205 154 179 205 154 179 205 154 179 205 154 179 205 154 179 205 154 179 205 154 179 205 154 179 205 154 179 205 154 179 205 154 179 205 154 179 205 154 179 205 154 179 205 154 179 205 154 179 205 154 179 205 154 179 205 154 179 205 154 179 205 154 179 205 154 179 205 154 179 205 154 179 205 154 179 205 154 179 205 154 179 205 154 179 205 154 179 205 154 179 205 154 179 205 154 179 205 154 179 205 154 179 205 154 179 205 154 179 205 154 179 205 154 179 205 154 179 205 154 179 205 154 179 205 154 179 205 154 179 205 154 179 205 154 179 205 154 179 205 154 179 205 154 179 205 154 179 205 154 179 205 154 179 205 154 179 205 154 179 205 154 179 205 154 179 205 154 179 205 154 179 205 154 179 205 154 179 205 154 179 205 154 179 205 154 179 205 154 179 205 154 179 205 154 179 205 154 179 205 154 179 205 154 179 205 154 179 205 154 179 205 154 179 205 154 179 205 154 179 205 154 179 205 154 179 205 154 179 205 153 179 205 153 179 205 153 179 205 153 179 205 153 179 205 153 179 205 153 179 205 153 179 205 153 179 205 153 179 205 153 179 205 153 179 205 153 179 205 153 179 205 153 179 205 153 179 205 153 179 205 153 179 205 153 179 205 153 179 205 153 179 205 153 179 205 153 179 205 153 179 205 153 179 205 153 179 205 153 179 205 153 179 205 153 179 205 153 179 205 153 178 205 153 178 205 153 178 205 153 178 205 153 178 205 153 178 205 153 178 205 153 178 205 153 178 205 153 178 205 153 178 205 153 178 205 153 178 205 153 178 205 153 178 205 153 178 205 153 178 205 153 178 205 153 178 205 153 178 205 153 178 205 153 178 205 153 178 205 153 178 205 153 178 205 153 178 205 153 178 205 153 178 205 153 178 205 153 178 205 153 178 205 153 178 205 153 178 205 153 178 205 153 178 205 153 178 205 153 178 205 153 178 205 153 178 205 153 178 205 153 178 205 153 178 205 153 178 205 153 178 205 153 178 205 153 178 205 153 178 205 153 178 205 153 178 205 153 178 205 153 178 205 153 178 205 153 178 205 153 178 205 153 178 205 153 178 205 153 178 205 153 178 205 153 178 205 153 178 205 153 178 205 153 178 205 153 178 205 153 178 205 153 178 205 153 178 205 153 178 205 153 178 205 153 178 205 153 178 205 153 178 205 153 178 205 153 178 205 153 178 205 153 178 205 153 178 205 153 178 205 153 178 205 153 178 205 153 178 205 153 178 205 153 178 205 153 178 205 153 178 205 153 178 205 153 178 205 153 178 205 153 178 205 153 178 205 153 178 205 153 178 205 153 178 205 153 178 205 153 178 205 153 178 205 153 178 205 153 178 205 153 178 205 153 178 205 153 178 205 153 178 205 153 178 205 153 178 205 153 178 205 153 178 205 153 178 205 153 178 205 153 178 205 153 178 205 153 178 205 153 178 205 153 178 205 153 178 205 153 178 205 153 178 205 153 178 205 153 178 205 153 178 205 153 178 205 153 178 205 153 178 205 153 178 205 153 178 205 153 178 205 153 178 205 153 178 205 153 178 205 153 178 205 153 178 205 153 178 205 153 178 205 153 178 205 153 178 205 153 178 205 153 178 205 153 178 205 153 178 205 153 178 205 153 178 205 153 178 205 153 178 205 153 178 205 153 178 205 153 178 205 153 178 205 153 178 205 153 178 205 153 178 205 153 178 205 153 178 205 153 178 205 153 178 205 153 178 205 153 178 205 153 178 205 153 178 205 153 178 205 153 178 205 153 178 205 153 178 205 153 178 205 153 178 205 153 178 205 153 178 205 153 178 205 153 178 205 153 178 205 153 178 205 153 178 205 153 178 205 153 178 205 153 178 205 153 178 205 153 178 205 153 178 205 153 178 205 153 178 205 153 178 205 153 178 205 153 178 205 153 178 205 153 178 205 153 178 205 153 178 205 153 178 205 153 178 205 153 178 205 153 178 205 153 178 205 153 178 205 153 178 205 153 178 205 153 178 205 153 178 204 153 178 204 153 178 204 153 178 204 153 178 204 153 178 204 153 178 204 153 178 204 153 178 204 153 178 204 153 178 204 153 178 204 153 178 204 153 178 204 153 178 204 153 178 204 153 178 204 153 178 204 153 178 204 153 178 204 153 178 204 153 178 204 153 178 204 153 178 204 153 178 204 153 178 204 153 178 204 153 178 204 153 178 204 153 178 204 153 178 204 153 178 204 153 178 204 153 178 204 153 178 204 153 178 204 153 178 204 153 178 204 153 178 204 153 178 204 153 178 204 153 178 204 153 178 204 153 178 204 153 178 204 153 178 204 153 178 204 153 178 204 153 178 204 153 178 204 153 178 204 153 178 204 
153 177 204 153 177 204 153 177 204 153 177 204 153 178 204 153 178 204 153 178 204 153 178 204 153 178 204 153 178 204 153 178 204 153 178 204 153 178 204 153 178 204 153 178 204 153 178 204 153 178 204 153 178 204 153 178 204 153 178 204 153 178 204 153 178 204 153 178 204 153 178 204 153 178 204 153 178 204 153 178 204 153 178 204 153 178 204 153 178 204 153 178 204 153 178 204 153 178 204 153 178 204 153 178 204 153 178 204 153 178 204 153 178 204 153 178 204 153 178 204 153 178 204 153 178 204 153 178 204 153 178 204 153 178 204 153 178 204 153 178 204 153 178 204 153 178 204 153 178 204 153 178 204 153 178 204 153 178 204 153 178 204 153 178 204 153 178 204 153 178 204 153 178 204 153 178 204 153 178 204 153 178 205 153 178 205 153 178 205 153 178 205 153 178 205 153 178 205 153 178 205 153 178 205 153 178 205 153 178 205 153 178 205 153 178 205 153 178 205 153 178 205 153 178 205 153 178 205 153 178 205 153 178 205 153 178 205 153 178 205 153 178 205 153 178 205 153 178 205 153 178 205 153 178 205 153 178 205 153 178 205 153 178 205 153 178 205 153 178 205 153 178 205 153 178 205 153 178 205 153 178 205 153 178 205 153 178 205 153 178 205 153 178 205 153 178 205 153 178 205 153 178 205 153 178 205 153 178 205 153 178 205 153 178 205 153 178 205 153 178 205 153 178 205 153 178 205 153 178 205 153 178 205 153 178 205 153 178 205 153 178 205 153 178 205 153 178 205 153 178 205 153 178 205 153 178 205 153 178 205 153 178 205 153 178 205 153 178 205 153 178 205 153 178 205 153 178 205 153 178 205 153 178 205 153 178 205 153 178 205 153 178 205 153 178 205 153 178 205 153 178 205 153 178 205 153 178 205 153 178 205 153 178 205 153 178 205 153 178 205 153 178 205 153 178 205 153 178 205 153 178 205 153 178 205 153 178 205 153 178 205 153 178 205 153 178 205 153 178 205 153 178 205 153 178 205 153 178 205 153 178 205 153 178 205 153 178 205 153 178 205 153 178 205 153 178 205 153 178 205 153 178 205 153 178 205 153 178 205 153 178 205 153 178 205 153 178 205 153 178 205 153 178 205 153 178 205 153 178 205 153 178 205 153 178 205 153 178 205 153 178 205 153 178 205 153 178 205 153 178 205 153 178 205 153 178 205 153 178 205 153 178 205 153 178 205 153 178 205 153 178 205 153 178 205 153 178 205 153 178 205 153 178 205 153 178 205 153 178 205 153 178 205 153 178 205 153 178 205 153 178 205 153 178 205 153 178 205 153 178 205 153 178 205 153 178 205 153 178 205 153 178 205 153 178 205 153 178 205 153 178 205 153 178 205 153 178 205 153 178 205 153 178 205 153 178 205 153 178 205 153 178 205 153 178 205 153 178 205 153 178 205 153 178 205 153 178 205 153 178 205 153 178 205 153 178 205 153 178 205 153 178 205 153 178 205 153 178 205 153 178 205 153 178 205 153 178 205 153 178 205 153 178 205 153 178 205 153 178 205 153 178 205 153 178 205 153 178 205 153 178 205 153 178 205 153 178 205 153 178 205 153 178 205 153 178 205 153 178 205 153 178 205 153 178 205 153 178 205 153 178 205 153 178 205 153 178 205 153 178 205 153 178 205 153 178 205 153 178 205 153 178 205 153 178 205 153 178 205 153 178 205 153 178 205 153 178 205 153 178 205 153 178 205 153 178 205 153 178 205 153 178 205 153 179 205 153 178 205 153 179 205 153 179 205 153 179 205 153 179 205 153 179 205 153 179 205 153 179 205 153 179 205 153 179 205 153 179 205 153 179 205 153 179 205 153 179 205 153 179 205 153 179 205 153 179 205 153 179 205 153 179 205 153 179 205 153 179 205 153 179 205 153 179 205 153 179 205 153 179 205 153 179 205 153 179 205 153 179 205 153 179 205 153 179 205 153 179 205 153 179 205 154 179 205 154 179 205 154 179 205 154 179 205 154 179 205 154 179 205 154 179 205 154 179 205 154 179 205 154 179 205 154 179 205 154 179 205 154 179 205 154 179 205 154 179 205 154 179 205 154 179 205 154 179 205 154 179 205 154 179 205 154 179 205 154 179 205 154 179 205 154 179 205 154 179 205 154 179 205 154 179 205 154 179 205 154 179 205 154 179 205 154 179 205 154 179 205 154 179 205 154 179 205 154 179 205 154 179 205 154 179 205 154 179 205 154 179 205 154 179 205 154 179 205 154 179 205 154 179 205 154 179 205 154 179 205 154 179 205 154 179 205 154 179 205 154 179 205 154 179 205 154 179 205 154 179 205 154 179 205 154 179 205 154 179 205 154 179 205 154 179 205 154 179 205 154 179 205 154 179 205 154 179 205 154 179 205 154 179 205 154 179 205 154 179 205 154 179 205 154 179 205 154 179 205 154 179 205 154 179 205 154 179 205 154 179 205 154 179 205 154 179 205 154 179 205 154 179 205 154 179 205 154 179 205 154 179 205 154 179 205 154 179 205 154 179 205 154 179 205 154 179 205 154 179 205 154 179 205 154 179 205 154 179 205 154 179 205 154 179 205 154 179 205 154 179 205 154 179 205 154 179 205 154 179 205 154 179 205 154 179 205 154 179 205 154 179 205 154 179 205 154 179 205 154 179 205 154 179 205 154 179 205 154 179 205 154 179 205 154 179 205 154 179 205 154 179 205 154 179 205 154 179 205 154 179 205 154 179 205 154 179 205 154 179 205 154 179 205 154 179 205 154 179 205 154 179 205 154 179 205 154 179 205 154 179 205 154 179 205 154 179 205 154 179 205 154 179 205 154 179 205 154 179 205 154 179 205 154 179 205 154 179 205 154 179 205 154 179 205 154 179 205 154 179 205 154 179 205 154 179 205 154 179 205 154 179 205 154 179 205 154 179 205 154 179 205 154 179 205 154 179 205 154 179 205 154 179 205 154 179 205 154 179 205 154 179 205 154 179 205 154 179 205 154 179 205 154 179 205 154 179 205 154 179 205 154 179 205 154 179 205 154 179 205 154 179 205 154 179 205 154 179 205 154 179 205 154 179 205 154 179 205 154 179 205 154 179 205 154 179 205 154 179 205 154 179 205 154 179 205 154 179 205 154 179 205 154 179 205 154 179 205 154 179 205 154 179 205 154 179 205 154 179 205 154 179 205 154 179 205 154 179 205 154 179 205 154 179 205 154 179 205 154 179 205 154 179 205 154 179 205 154 179 205 154 179 205 154 179 205 154 179 205 154 179 205 154 179 205 154 179 205 154 179 205 154 179 205 154 179 205 154 179 205 154 179 205 154 179 205 154 179 205 154 179 205 154 179 205 154 179 205 154 179 205 154 179 205 154 179 205 154 179 205 154 179 205 154 179 205 154 179 205 154 179 205 153 179 205 153 179 205 153 179 205 153 179 205 153 179 205 153 179 205 153 179 205 153 179 205 153 179 205 153 179 205 153 179 205 153 179 205 153 179 205 153 179 205 153 179 205 153 179 205 153 179 205 153 179 205 153 179 205 153 179 205 153 179 205 153 179 205 153 179 205 153 179 205 153 179 205 153 179 205 153 179 205 153 179 205 153 179 205 153 179 205 153 179 205 153 179 205 153 179 205 153 179 205 153 178 205 153 178 205 153 178 205 153 178 205 153 178 205 153 178 205 153 178 205 153 178 205 153 178 205 153 178 205 153 178 205 153 178 205 153 178 205 153 178 205 153 178 205 153 178 205 153 178 205 153 178 205 153 178 205 153 178 205 153 178 205 153 178 205 153 178 205 153 178 205 153 178 205 153 178 205 153 178 205 153 178 205 153 178 205 153 178 205 153 178 205 153 178 205 153 178 205 153 178 205 153 178 205 153 178 205 153 178 205 153 178 205 153 178 205 153 178 205 153 178 205 153 178 205 153 178 205 153 178 205 153 178 205 153 178 205 153 178 205 153 178 205 153 178 205 153 178 205 153 178 205 153 178 205 153 178 205 153 178 205 153 178 205 153 178 205 153 178 205 153 178 205 153 178 205 153 178 205 153 178 205 153 178 205 153 178 205 153 178 205 153 178 205 153 178 205 153 178 205 153 178 205 153 178 205 153 178 205 153 178 205 153 178 205 153 178 205 153 178 205 153 178 205 153 178 205 153 178 205 153 178 205 153 178 205 153 178 205 153 178 205 153 178 205 153 178 205 153 178 205 153 178 205 153 178 205 153 178 205 153 178 205 153 178 205 153 178 205 153 178 205 153 178 205 153 178 205 153 178 205 153 178 205 153 178 205 153 178 205 153 178 205 153 178 205 153 178 205 153 178 205 153 178 205 153 178 205 153 178 205 153 178 205 153 178 205 153 178 205 153 178 205 153 178 205 153 178 205 153 178 205 153 178 205 153 178 205 153 178 205 153 178 205 153 178 205 153 178 205 153 178 205 153 178 205 153 178 205 153 178 205 153 178 205 153 178 205 153 178 205 153 178 205 153 178 205 153 178 205 153 178 205 153 178 205 153 178 205 153 178 205 153 178 205 153 178 205 153 178 205 153 178 205 153 178 205 153 178 205 153 178 205 153 178 205 153 178 205 153 178 205 153 178 205 153 178 205 153 178 205 153 178 205 153 178 205 153 178 205 153 178 205 153 178 205 153 178 205 153 178 205 153 178 205 153 178 205 153 178 205 153 178 205 153 178 205 153 178 205 153 178 205 153 178 205 153 178 205 153 178 205 153 178 205 153 178 205 153 178 205 153 178 205 153 178 205 153 178 205 153 178 205 153 178 205 153 178 205 153 178 205 153 178 205 153 178 205 153 178 205 153 178 205 153 178 205 153 178 205 153 178 205 153 178 205 153 178 205 153 178 205 153 178 205 153 178 205 153 178 205 153 178 205 153 178 205 153 178 205 153 178 205 153 178 205 153 178 205 153 178 205 153 178 205 153 178 205 153 178 205 153 178 205 153 178 205 153 178 205 153 178 205 153 178 205 153 178 205 153 178 205 153 178 204 153 178 204 153 178 204 153 178 204 153 178 204 153 178 204 153 178 204 153 178 204 153 178 204 153 178 204 153 178 204 153 178 204 153 178 204 153 178 204 153 178 204 153 178 204 153 178 204 153 178 204 153 178 204 153 178 204 153 178 204 153 178 204 153 178 204 153 178 204 153 178 204 153 178 204 153 178 204 153 178 204 153 178 204 153 178 204 153 178 204 153 178 204 153 178 204 153 178 204 153 178 204 153 178 204 153 178 204 153 178 204 153 178 204 153 178 204 153 178 204 153 178 204 153 178 204 153 178 204 153 178 204 153 178 204 153 178 204 153 178 204 153 178 204 153 178 204 153 178 204 153 178 204 153 178 204 153 177 204 153 177 204 153 177 204 153 177 204 153 177 204 153 177 204 
153 177 204 153 177 204 153 177 204 153 177 204 153 177 204 153 177 204 153 177 204 153 177 204 153 177 204 153 177 204 153 177 204 153 177 204 153 177 204 153 178 204 153 178 204 153 178 204 153 178 204 153 178 204 153 178 204 153 178 204 153 178 204 153 178 204 153 178 204 153 178 204 153 178 204 153 178 204 153 178 204 153 178 204 153 178 204 153 178 204 153 178 204 153 178 204 153 178 204 153 178 204 153 178 204 153 178 204 153 178 204 153 178 204 153 178 204 153 178 204 153 178 204 153 178 204 153 178 204 153 178 204 153 178 204 153 178 204 153 178 204 153 178 204 153 178 204 153 178 204 153 178 204 153 178 204 153 178 204 153 178 204 153 178 204 153 178 204 153 178 204 153 178 204 153 178 204 153 178 204 153 178 204 153 178 204 153 178 204 153 178 204 153 178 204 153 178 204 153 178 204 153 178 204 153 178 205 153 178 205 153 178 205 153 178 205 153 178 205 153 178 205 153 178 205 153 178 205 153 178 205 153 178 205 153 178 205 153 178 205 153 178 205 153 178 205 153 178 205 153 178 205 153 178 205 153 178 205 153 178 205 153 178 205 153 178 205 153 178 205 153 178 205 153 178 205 153 178 205 153 178 205 153 178 205 153 178 205 153 178 205 153 178 205 153 178 205 153 178 205 153 178 205 153 178 205 153 178 205 153 178 205 153 178 205 153 178 205 153 178 205 153 178 205 153 178 205 153 178 205 153 178 205 153 178 205 153 178 205 153 178 205 153 178 205 153 178 205 153 178 205 153 178 205 153 178 205 153 178 205 153 178 205 153 178 205 153 178 205 153 178 205 153 178 205 153 178 205 153 178 205 153 178 205 153 178 205 153 178 205 153 178 205 153 178 205 153 178 205 153 178 205 153 178 205 153 178 205 153 178 205 153 178 205 153 178 205 153 178 205 153 178 205 153 178 205 153 178 205 153 178 205 153 178 205 153 178 205 153 178 205 153 178 205 153 178 205 153 178 205 153 178 205 153 178 205 153 178 205 153 178 205 153 178 205 153 178 205 153 178 205 153 178 205 153 178 205 153 178 205 153 178 205 153 178 205 153 178 205 153 178 205 153 178 205 153 178 205 153 178 205 153 178 205 153 178 205 153 178 205 153 178 205 153 178 205 153 178 205 153 178 205 153 178 205 153 178 205 153 178 205 153 178 205 153 178 205 153 178 205 153 178 205 153 178 205 153 178 205 153 178 205 153 178 205 153 178 205 153 178 205 153 178 205 153 178 205 153 178 205 153 178 205 153 178 205 153 178 205 153 178 205 153 178 205 153 178 205 153 178 205 153 178 205 153 178 205 153 178 205 153 178 205 153 178 205 153 178 205 153 178 205 153 178 205 153 178 205 153 178 205 153 178 205 153 178 205 153 178 205 153 178 205 153 178 205 153 178 205 153 178 205 153 178 205 153 178 205 153 178 205 153 178 205 153 178 205 153 178 205 153 178 205 153 178 205 153 178 205 153 178 205 153 178 205 153 178 205 153 178 205 153 178 205 153 178 205 153 178 205 153 178 205 153 178 205 153 178 205 153 178 205 153 178 205 153 178 205 153 178 205 153 178 205 153 178 205 153 178 205 153 178 205 153 178 205 153 178 205 153 178 205 153 178 205 153 178 205 153 178 205 153 178 205 153 178 205 153 178 205 153 178 205 153 178 205 153 178 205 153 178 205 153 178 205 153 178 205 153 178 205 153 178 205 153 178 205 153 178 205 153 178 205 153 178 205 153 178 205 153 178 205 153 178 205 153 178 205 153 178 205 153 178 205 153 178 205 153 178 205 153 178 205 153 178 205 153 178 205 153 178 205 153 178 205 153 178 205 153 178 205 153 178 205 153 179 205 153 179 205 153 179 205 153 178 205 153 178 205 153 179 205 153 179 205 153 179 205 153 179 205 153 179 205 153 179 205 153 179 205 153 179 205 153 179 205 153 179 205 153 179 205 153 179 205 153 179 205 153 179 205 153 179 205 153 179 205 153 179 205 153 179 205 153 179 205 153 179 205 153 179 205 153 179 205 153 179 205 153 179 205 153 179 205 153 179 205 153 179 205 153 179 205 153 179 205 153 179 205 153 179 205 153 179 205 153 179 205 153 179 205 153 179 205 153 179 205 154 179 205 154 179 205 154 179 205 154 179 205 154 179 205 154 179 205 154 179 205 154 179 205 154 179 205 154 179 205 154 179 205 154 179 205 154 179 205 154 179 205 154 179 205 154 179 205 154 179 205 154 179 205 154 179 205 154 179 205 154 179 205 154 179 205 154 179 205 154 179 205 154 179 205 154 179 205 154 179 205 154 179 205 154 179 205 154 179 205 154 179 205 154 179 205 154 179 205 154 179 205 154 179 205 154 179 205 154 179 205 154 179 205 154 179 205 154 179 205 154 179 205 154 179 205 154 179 205 154 179 205 154 179 205 154 179 205 154 179 205 154 179 205 154 179 205 154 179 205 154 179 205 154 179 205 154 179 205 154 179 205 154 179 205 154 179 205 154 179 205 154 179 205 154 179 205 154 179 205 154 179 205 154 179 205 154 179 205 154 179 205 154 179 205 154 179 205 154 179 205 154 179 205 154 179 205 154 179 205 154 179 205 154 179 205 154 179 205 154 179 205 154 179 205 154 179 205 154 179 205 154 179 205 154 179 205 154 179 205 154 179 205 154 179 205 154 179 205 154 179 205 154 179 205 154 179 205 154 179 205 154 179 205 154 179 205 154 179 205 154 179 205 154 179 205 154 179 205 154 179 205 154 179 205 154 179 205 154 179 205 154 179 205 154 179 205 154 179 205 154 179 205 154 179 205 154 179 205 154 179 205 154 179 205 154 179 205 154 179 205 154 179 205 154 179 205 154 179 205 154 179 205 154 179 205 154 179 205 154 179 205 154 179 205 154 179 205 154 179 205 154 179 205 154 179 205 154 179 205 154 179 205 154 179 205 154 179 205 154 179 205 154 179 205 154 179 205 154 179 205 154 179 205 154 179 205 154 179 205 154 179 205 154 179 205 154 179 205 154 179 205 154 179 205 154 179 205 154 179 205 154 179 205 154 179 205 154 179 205 154 179 205 154 179 205 154 179 205 154 179 205 154 179 205 154 179 205 154 179 205 154 179 205 154 179 205 154 179 205 154 179 205 154 179 205 154 179 205 154 179 205 154 179 205 154 179 205 154 179 205 154 179 205 154 179 205 154 179 205 153 179 205 154 179 205 154 179 205 154 179 205 154 179 205 153 179 205 153 179 205 153 179 205 153 179 205 153 179 205 153 179 205 153 179 205 153 179 205 153 179 205 153 179 205 153 179 205 153 179 205 153 179 205 153 179 205 153 179 205 153 179 205 153 179 205 153 179 205 153 179 205 153 179 205 153 179 205 153 179 205 153 179 205 153 179 205 153 179 205 153 179 205 153 179 205 153 179 205 153 179 205 153 179 205 153 179 205 153 179 205 153 179 205 153 179 205 153 178 205 153 178 205 153 179 205 153 179 205 153 178 205 153 178 205 153 178 205 153 178 205 153 178 205 153 178 205 153 178 205 153 178 205 153 178 205 153 178 205 153 178 205 153 178 205 153 178 205 153 178 205 153 178 205 153 178 205 153 178 205 153 178 205 153 178 205 153 178 205 153 178 205 153 178 205 153 178 205 153 178 205 153 178 205 153 178 205 153 178 205 153 178 205 153 178 205 153 178 205 153 178 205 153 178 205 153 178 205 153 178 205 153 178 205 153 178 205 153 178 205 153 178 205 153 178 205 153 178 205 153 178 205 153 178 205 153 178 205 153 178 205 153 178 205 153 178 205 153 178 205 153 178 205 153 178 205 153 178 205 153 178 205 153 178 205 153 178 205 153 178 205 153 178 205 153 178 205 153 178 205 153 178 205 153 178 205 153 178 205 153 178 205 153 178 205 153 178 205 153 178 205 153 178 205 153 178 205 153 178 205 153 178 205 153 178 205 153 178 205 153 178 205 153 178 205 153 178 205 153 178 205 153 178 205 153 178 205 153 178 205 153 178 205 153 178 205 153 178 205 153 178 205 153 178 205 153 178 205 153 178 205 153 178 205 153 178 205 153 178 205 153 178 205 153 178 205 153 178 205 153 178 205 153 178 205 153 178 205 153 178 205 153 178 205 153 178 205 153 178 205 153 178 205 153 178 205 153 178 205 153 178 205 153 178 205 153 178 205 153 178 205 153 178 205 153 178 205 153 178 205 153 178 205 153 178 205 153 178 205 153 178 205 153 178 205 153 178 205 153 178 205 153 178 205 153 178 205 153 178 205 153 178 205 153 178 205 153 178 205 153 178 205 153 178 205 153 178 205 153 178 205 153 178 205 153 178 205 153 178 205 153 178 205 153 178 205 153 178 205 153 178 205 153 178 205 153 178 205 153 178 205 153 178 205 153 178 205 153 178 205 153 178 205 153 178 205 153 178 205 153 178 205 153 178 205 153 178 205 153 178 205 153 178 205 153 178 205 153 178 205 153 178 205 153 178 205 153 178 205 153 178 205 153 178 205 153 178 205 153 178 205 153 178 205 153 178 205 153 178 205 153 178 205 153 178 205 153 178 205 153 178 205 153 178 205 153 178 205 153 178 205 153 178 205 153 178 205 153 178 205 153 178 205 153 178 205 153 178 205 153 178 205 153 178 205 153 178 205 153 178 205 153 178 205 153 178 205 153 178 205 153 178 205 153 178 205 153 178 205 153 178 205 153 178 205 153 178 205 153 178 205 153 178 205 153 178 205 153 178 205 153 178 205 153 178 205 153 178 205 153 178 205 153 178 205 153 178 205 153 178 205 153 178 205 153 178 205 153 178 205 153 178 205 153 178 205 153 178 205 153 178 205 153 178 205 153 178 205 153 178 205 153 178 205 153 178 205 153 178 205 153 178 205 153 178 205 153 178 205 153 178 204 153 178 204 153 178 204 153 178 204 153 178 204 153 178 204 153 178 204 153 178 204 153 178 204 153 178 204 153 178 204 153 178 204 153 178 204 153 178 204 153 178 204 153 178 204 153 178 204 153 178 204 153 178 204 153 178 204 153 178 204 153 178 204 153 178 204 153 178 204 153 178 204 153 178 204 153 178 204 153 178 204 153 178 204 153 178 204 153 178 204 153 178 204 153 178 204 153 178 204 153 178 204 153 178 204 153 178 204 153 178 204 153 178 204 153 178 204 153 178 204 153 178 204 153 178 204 153 178 204 153 178 204 153 178 204 153 178 204 153 178 204 153 178 204 153 178 204 153 178 204 153 178 204 153 178 204 153 178 204 153 178 204 153 178 204 153 178 204 153 177 204 153 177 204 153 177 204 153 177 204 153 177 204 153 177 204 153 177 204 153 177 204 153 177 204 153 177 204 153 177 204 
153 177 204 153 177 204 153 177 204 153 177 204 153 177 204 153 177 204 153 177 204 153 177 204 153 177 204 153 177 204 153 177 204 153 177 204 153 177 204 153 177 204 153 177 204 153 177 204 153 177 204 153 177 204 153 177 204 153 177 204 153 178 204 153 178 204 153 178 204 153 178 204 153 178 204 153 178 204 153 178 204 153 178 204 153 178 204 153 178 204 153 178 204 153 178 204 153 178 204 153 178 204 153 178 204 153 178 204 153 178 204 153 178 204 153 178 204 153 178 204 153 178 204 153 178 204 153 178 204 153 178 204 153 178 204 153 178 204 153 178 204 153 178 204 153 178 204 153 178 204 153 178 204 153 178 204 153 178 204 153 178 204 153 178 204 153 178 204 153 178 204 153 178 204 153 178 204 153 178 204 153 178 204 153 178 204 153 178 204 153 178 204 153 178 204 153 178 204 153 178 204 153 178 204 153 178 204 153 178 204 153 178 204 153 178 204 153 178 204 153 178 204 153 178 204 153 178 204 153 178 204 153 178 204 153 178 205 153 178 205 153 178 205 153 178 205 153 178 205 153 178 205 153 178 205 153 178 205 153 178 205 153 178 205 153 178 205 153 178 205 153 178 205 153 178 205 153 178 205 153 178 205 153 178 205 153 178 205 153 178 205 153 178 205 153 178 205 153 178 205 153 178 205 153 178 205 153 178 205 153 178 205 153 178 205 153 178 205 153 178 205 153 178 205 153 178 205 153 178 205 153 178 205 153 178 205 153 178 205 153 178 205 153 178 205 153 178 205 153 178 205 153 178 205 153 178 205 153 178 205 153 178 205 153 178 205 153 178 205 153 178 205 153 178 205 153 178 205 153 178 205 153 178 205 153 178 205 153 178 205 153 178 205 153 178 205 153 178 205 153 178 205 153 178 205 153 178 205 153 178 205 153 178 205 153 178 205 153 178 205 153 178 205 153 178 205 153 178 205 153 178 205 153 178 205 153 178 205 153 178 205 153 178 205 153 178 205 153 178 205 153 178 205 153 178 205 153 178 205 153 178 205 153 178 205 153 178 205 153 178 205 153 178 205 153 178 205 153 178 205 153 178 205 153 178 205 153 178 205 153 178 205 153 178 205 153 178 205 153 178 205 153 178 205 153 178 205 153 178 205 153 178 205 153 178 205 153 178 205 153 178 205 153 178 205 153 178 205 153 178 205 153 178 205 153 178 205 153 178 205 153 178 205 153 178 205 153 178 205 153 178 205 153 178 205 153 178 205 153 178 205 153 178 205 153 178 205 153 178 205 153 178 205 153 178 205 153 178 205 153 178 205 153 178 205 153 178 205 153 178 205 153 178 205 153 178 205 153 178 205 153 178 205 153 178 205 153 178 205 153 178 205 153 178 205 153 178 205 153 178 205 153 178 205 153 178 205 153 178 205 153 178 205 153 178 205 153 178 205 153 178 205 153 178 205 153 178 205 153 178 205 153 178 205 153 178 205 153 178 205 153 178 205 153 178 205 153 178 205 153 178 205 153 178 205 153 178 205 153 178 205 153 178 205 153 178 205 153 178 205 153 178 205 153 178 205 153 178 205 153 178 205 153 178 205 153 178 205 153 178 205 153 178 205 153 178 205 153 178 205 153 178 205 153 178 205 153 178 205 153 178 205 153 178 205 153 178 205 153 178 205 153 178 205 153 178 205 153 178 205 153 178 205 153 178 205 153 178 205 153 178 205 153 178 205 153 178 205 153 178 205 153 178 205 153 178 205 153 178 205 153 178 205 153 178 205 153 178 205 153 178 205 153 178 205 153 178 205 153 178 205 153 178 205 153 178 205 153 178 205 153 178 205 153 178 205 153 178 205 153 178 205 153 178 205 153 178 205 153 178 205 153 178 205 153 178 205 153 178 205 153 178 205 153 178 205 153 178 205 153 178 205 153 178 205 153 178 205 153 178 205 153 178 205 153 178 205 153 178 205 153 178 205 153 178 205 153 178 205 153 178 205 153 178 205 153 178 205 153 178 205 153 178 205 153 178 205 153 178 205 153 178 205 153 178 205 153 179 205 153 179 205 153 179 205 153 179 205 153 179 205 153 179 205 153 179 205 153 179 205 153 179 205 153 179 205 153 179 205 153 179 205 153 179 205 153 179 205 153 179 205 153 179 205 153 179 205 153 179 205 153 179 205 153 179 205 153 179 205 153 179 205 153 179 205 153 179 205 153 179 205 153 179 205 153 179 205 153 179 205 153 179 205 153 179 205 153 179 205 153 179 205 153 179 205 153 179 205 153 179 205 153 179 205 153 179 205 153 179 205 153 179 205 153 179 205 153 179 205 153 179 205 153 179 205 153 179 205 153 179 205 153 179 205 153 179 205 154 179 205 153 179 205 153 179 205 153 179 205 154 179 205 153 179 205 153 179 205 153 179 205 154 179 205 154 179 205 154 179 205 154 179 205 154 179 205 154 179 205 154 179 205 154 179 205 154 179 205 154 179 205 154 179 205 154 179 205 154 179 205 154 179 205 154 179 205 154 179 205 154 179 205 154 179 205 154 179 205 154 179 205 154 179 205 154 179 205 154 179 205 154 179 205 154 179 205 154 179 205 154 179 205 154 179 205 154 179 205 154 179 205 154 179 205 154 179 205 154 179 205 154 179 205 154 179 205 154 179 205 154 179 205 154 179 205 154 179 205 154 179 205 154 179 205 154 179 205 154 179 205 154 179 205 154 179 205 154 179 205 154 179 205 154 179 205 154 179 205 154 179 205 154 179 205 154 179 205 154 179 205 154 179 205 154 179 205 154 179 205 154 179 205 154 179 205 154 179 205 154 179 205 154 179 205 154 179 205 154 179 205 154 179 205 154 179 205 154 179 205 154 179 205 154 179 205 154 179 205 154 179 205 154 179 205 154 179 205 154 179 205 154 179 205 154 179 205 154 179 205 154 179 205 154 179 205 154 179 205 154 179 205 154 179 205 154 179 205 154 179 205 154 179 205 154 179 205 153 179 205 154 179 205 153 179 205 153 179 205 153 179 205 153 179 205 153 179 205 153 179 205 153 179 205 153 179 205 153 179 205 153 179 205 153 179 205 153 179 205 153 179 205 153 179 205 153 179 205 153 179 205 153 179 205 153 179 205 153 179 205 153 179 205 153 179 205 153 179 205 153 179 205 153 179 205 153 179 205 153 179 205 153 179 205 153 179 205 153 179 205 153 179 205 153 179 205 153 179 205 153 179 205 153 179 205 153 179 205 153 179 205 153 179 205 153 179 205 153 179 205 153 179 205 153 179 205 153 179 205 153 179 205 153 179 205 153 179 205 153 179 205 153 179 205 153 179 205 153 179 205 153 179 205 153 179 205 153 179 205 153 179 205 153 178 205 153 178 205 153 178 205 153 178 205 153 178 205 153 178 205 153 178 205 153 178 205 153 178 205 153 178 205 153 178 205 153 178 205 153 178 205 153 178 205 153 178 205 153 178 205 153 178 205 153 178 205 153 178 205 153 178 205 153 178 205 153 178 205 153 178 205 153 178 205 153 178 205 153 178 205 153 178 205 153 178 205 153 178 205 153 178 205 153 178 205 153 178 205 153 178 205 153 178 205 153 178 205 153 178 205 153 178 205 153 178 205 153 178 205 153 178 205 153 178 205 153 178 205 153 178 205 153 178 205 153 178 205 153 178 205 153 178 205 153 178 205 153 178 205 153 178 205 153 178 205 153 178 205 153 178 205 153 178 205 153 178 205 153 178 205 153 178 205 153 178 205 153 178 205 153 178 205 153 178 205 153 178 205 153 178 205 153 178 205 153 178 205 153 178 205 153 178 205 153 178 205 153 178 205 153 178 205 153 178 205 153 178 205 153 178 205 153 178 205 153 178 205 153 178 205 153 178 205 153 178 205 153 178 205 153 178 205 153 178 205 153 178 205 153 178 205 153 178 205 153 178 205 153 178 205 153 178 205 153 178 205 153 178 205 153 178 205 153 178 205 153 178 205 153 178 205 153 178 205 153 178 205 153 178 205 153 178 205 153 178 205 153 178 205 153 178 205 153 178 205 153 178 205 153 178 205 153 178 205 153 178 205 153 178 205 153 178 205 153 178 205 153 178 205 153 178 205 153 178 205 153 178 205 153 178 205 153 178 205 153 178 205 153 178 205 153 178 205 153 178 205 153 178 205 153 178 205 153 178 205 153 178 205 153 178 205 153 178 205 153 178 205 153 178 205 153 178 205 153 178 205 153 178 205 153 178 205 153 178 205 153 178 205 153 178 205 153 178 205 153 178 205 153 178 205 153 178 205 153 178 205 153 178 205 153 178 205 153 178 205 153 178 205 153 178 205 153 178 205 153 178 205 153 178 205 153 178 205 153 178 205 153 178 205 153 178 205 153 178 205 153 178 205 153 178 205 153 178 205 153 178 205 153 178 205 153 178 205 153 178 205 153 178 205 153 178 205 153 178 205 153 178 205 153 178 205 153 178 205 153 178 205 153 178 205 153 178 205 153 178 205 153 178 205 153 178 205 153 178 205 153 178 205 153 178 205 153 178 205 153 178 205 153 178 205 153 178 205 153 178 205 153 178 205 153 178 205 153 178 205 153 178 205 153 178 205 153 178 205 153 178 205 153 178 205 153 178 205 153 178 205 153 178 205 153 178 205 153 178 205 153 178 205 153 178 205 153 178 205 153 178 205 153 178 205 153 178 205 153 178 205 153 178 205 153 178 205 153 178 205 153 178 205 153 178 205 153 178 205 153 178 205 153 178 205 153 178 205 153 178 205 153 178 205 153 178 205 153 178 205 153 178 205 153 178 205 153 178 205 153 178 205 153 178 205 153 178 205 153 178 205 153 178 205 153 178 205 153 178 205 153 178 205 153 178 205 153 178 205 153 178 205 153 178 204 153 178 205 153 178 204 153 178 204 153 178 204 153 178 204 153 178 204 153 178 204 153 178 204 153 178 204 153 178 204 153 178 204 153 178 204 153 178 204 153 178 204 153 178 204 153 178 204 153 178 204 153 178 204 153 178 204 153 178 204 153 178 204 153 178 204 153 178 204 153 178 204 153 178 204 153 178 204 153 178 204 153 178 204 153 178 204 153 178 204 153 178 204 153 178 204 153 178 204 153 178 204 153 178 204 153 178 204 153 178 204 153 178 204 153 178 204 153 178 204 153 178 204 153 178 204 153 178 204 153 178 204 153 178 204 153 178 204 153 178 204 153 178 204 153 178 204 153 178 204 153 178 204 153 178 204 153 178 204 153 178 204 153 178 204 153 178 204 153 178 204 153 177 204 153 177 204 153 177 204 153 177 204 153 177 204 153 177 204 153 177 204 153 177 204 153 177 204 153 177 204 153 177 204 153 177 204 153 177 204 153 177 204 153 177 204 153 177 204 153 177 204 153 177 204 153 177 204 153 177 204 
153 177 204 153 177 204 153 177 204 153 177 204 153 177 204 153 177 204 153 177 204 153 177 204 153 177 204 153 177 204 153 177 204 153 177 204 153 177 204 153 177 204 153 177 204 153 177 204 153 177 204 153 177 204 153 177 204 153 177 204 153 177 204 153 177 204 153 177 204 153 177 204 153 177 204 153 177 204 153 177 204 153 177 204 153 177 204 153 178 204 153 178 204 153 178 204 153 178 204 153 178 204 153 178 204 153 178 204 153 178 204 153 178 204 153 178 204 153 178 204 153 178 204 153 178 204 153 178 204 153 178 204 153 178 204 153 178 204 153 178 204 153 178 204 153 178 204 153 178 204 153 178 204 153 178 204 153 178 204 153 178 204 153 178 204 153 178 204 153 178 204 153 178 204 153 178 204 153 178 204 153 178 204 153 178 204 153 178 204 153 178 204 153 178 204 153 178 204 153 178 204 153 178 204 153 178 204 153 178 204 153 178 204 153 178 204 153 178 204 153 178 204 153 178 204 153 178 204 153 178 204 153 178 204 153 178 204 153 178 204 153 178 204 153 178 204 153 178 204 153 178 204 153 178 205 153 178 205 153 178 205 153 178 205 153 178 205 153 178 205 153 178 205 153 178 205 153 178 205 153 178 205 153 178 205 153 178 205 153 178 205 153 178 205 153 178 205 153 178 205 153 178 205 153 178 205 153 178 205 153 178 205 153 178 205 153 178 205 153 178 205 153 178 205 153 178 205 153 178 205 153 178 205 153 178 205 153 178 205 153 178 205 153 178 205 153 178 205 153 178 205 153 178 205 153 178 205 153 178 205 153 178 205 153 178 205 153 178 205 153 178 205 153 178 205 153 178 205 153 178 205 153 178 205 153 178 205 153 178 205 153 178 205 153 178 205 153 178 205 153 178 205 153 178 205 153 178 205 153 178 205 153 178 205 153 178 205 153 178 205 153 178 205 153 178 205 153 178 205 153 178 205 153 178 205 153 178 205 153 178 205 153 178 205 153 178 205 153 178 205 153 178 205 153 178 205 153 178 205 153 178 205 153 178 205 153 178 205 153 178 205 153 178 205 153 178 205 153 178 205 153 178 205 153 178 205 153 178 205 153 178 205 153 178 205 153 178 205 153 178 205 153 178 205 153 178 205 153 178 205 153 178 205 153 178 205 153 178 205 153 178 205 153 178 205 153 178 205 153 178 205 153 178 205 153 178 205 153 178 205 153 178 205 153 178 205 153 178 205 153 178 205 153 178 205 153 178 205 153 178 205 153 178 205 153 178 205 153 178 205 153 178 205 153 178 205 153 178 205 153 178 205 153 178 205 153 178 205 153 178 205 153 178 205 153 178 205 153 178 205 153 178 205 153 178 205 153 178 205 153 178 205 153 178 205 153 178 205 153 178 205 153 178 205 153 178 205 153 178 205 153 178 205 153 178 205 153 178 205 153 178 205 153 178 205 153 178 205 153 178 205 153 178 205 153 178 205 153 178 205 153 178 205 153 178 205 153 178 205 153 178 205 153 178 205 153 178 205 153 178 205 153 178 205 153 178 205 153 178 205 153 178 205 153 178 205 153 178 205 153 178 205 153 178 205 153 178 205 153 178 205 153 178 205 153 178 205 153 178 205 153 178 205 153 178 205 153 178 205 153 178 205 153 178 205 153 178 205 153 178 205 153 178 205 153 178 205 153 178 205 153 178 205 153 178 205 153 178 205 153 178 205 153 178 205 153 178 205 153 178 205 153 178 205 153 178 205 153 178 205 153 178 205 153 178 205 153 178 205 153 178 205 153 178 205 153 178 205 153 178 205 153 178 205 153 178 205 153 178 205 153 178 205 153 178 205 153 178 205 153 178 205 153 178 205 153 178 205 153 178 205 153 178 205 153 178 205 153 178 205 153 178 205 153 178 205 153 178 205 153 178 205 153 178 205 153 178 205 153 178 205 153 178 205 153 178 205 153 178 205 153 178 205 153 178 205 153 178 205 153 178 205 153 178 205 153 178 205 153 178 205 153 178 205 153 178 205 153 178 205 153 178 205 153 178 205 153 178 205 153 178 205 153 178 205 153 178 205 153 178 205 153 178 205 153 178 205 153 178 205 153 178 205 153 178 205 153 178 205 153 178 205 153 178 205 153 178 205 153 178 205 153 178 205 153 178 205 153 178 205 153 178 205 153 178 205 153 178 205 153 178 205 153 178 205 153 178 205 153 178 205 153 178 205 153 179 205 153 179 205 153 178 205 153 179 205 153 179 205 153 179 205 153 179 205 153 179 205 153 179 205 153 179 205 153 179 205 153 179 205 153 179 205 153 179 205 153 179 205 153 179 205 153 179 205 153 179 205 153 179 205 153 179 205 153 179 205 153 179 205 153 179 205 153 179 205 153 179 205 153 179 205 153 179 205 153 179 205 153 179 205 153 179 205 153 179 205 153 179 205 153 179 205 153 179 205 153 179 205 153 179 205 153 179 205 153 179 205 153 179 205 153 179 205 153 179 205 153 179 205 153 179 205 153 179 205 153 179 205 153 179 205 153 179 205 153 179 205 153 179 205 153 179 205 153 179 205 153 179 205 153 179 205 153 179 205 153 179 205 153 179 205 153 179 205 153 179 205 153 179 205 153 179 205 153 179 205 153 179 205 153 179 205 153 179 205 153 179 205 153 179 205 153 179 205 153 179 205 153 179 205 153 179 205 153 179 205 153 179 205 153 179 205 153 179 205 153 179 205 153 179 205 153 179 205 153 179 205 153 179 205 153 179 205 153 179 205 153 179 205 153 179 205 153 179 205 153 179 205 153 179 205 153 179 205 153 179 205 153 179 205 153 179 205 153 179 205 153 179 205 153 179 205 153 179 205 153 179 205 153 179 205 153 179 205 153 179 205 153 179 205 153 179 205 153 179 205 153 179 205 153 179 205 153 179 205 153 179 205 153 179 205 153 179 205 153 179 205 153 179 205 153 179 205 153 179 205 153 179 205 153 179 205 153 179 205 153 179 205 153 179 205 153 179 205 153 179 205 153 179 205 153 179 205 153 179 205 153 179 205 153 179 205 153 179 205 153 179 205 153 179 205 153 179 205 153 179 205 153 179 205 153 179 205 153 179 205 153 179 205 153 179 205 153 179 205 153 179 205 153 179 205 153 179 205 153 179 205 153 179 205 153 179 205 153 178 205 153 178 205 153 179 205 153 179 205 153 178 205 153 178 205 153 178 205 153 178 205 153 178 205 153 178 205 153 178 205 153 178 205 153 178 205 153 178 205 153 178 205 153 178 205 153 178 205 153 178 205 153 178 205 153 178 205 153 178 205 153 178 205 153 178 205 153 178 205 153 178 205 153 178 205 153 178 205 153 178 205 153 178 205 153 178 205 153 178 205 153 178 205 153 178 205 153 178 205 153 178 205 153 178 205 153 178 205 153 178 205 153 178 205 153 178 205 153 178 205 153 178 205 153 178 205 153 178 205 153 178 205 153 178 205 153 178 205 153 178 205 153 178 205 153 178 205 153 178 205 153 178 205 153 178 205 153 178 205 153 178 205 153 178 205 153 178 205 153 178 205 153 178 205 153 178 205 153 178 205 153 178 205 153 178 205 153 178 205 153 178 205 153 178 205 153 178 205 153 178 205 153 178 205 153 178 205 153 178 205 153 178 205 153 178 205 153 178 205 153 178 205 153 178 205 153 178 205 153 178 205 153 178 205 153 178 205 153 178 205 153 178 205 153 178 205 153 178 205 153 178 205 153 178 205 153 178 205 153 178 205 153 178 205 153 178 205 153 178 205 153 178 205 153 178 205 153 178 205 153 178 205 153 178 205 153 178 205 153 178 205 153 178 205 153 178 205 153 178 205 153 178 205 153 178 205 153 178 205 153 178 205 153 178 205 153 178 205 153 178 205 153 178 205 153 178 205 153 178 205 153 178 205 153 178 205 153 178 205 153 178 205 153 178 205 153 178 205 153 178 205 153 178 205 153 178 205 153 178 205 153 178 205 153 178 205 153 178 205 153 178 205 153 178 205 153 178 205 153 178 205 153 178 205 153 178 205 153 178 205 153 178 205 153 178 205 153 178 205 153 178 205 153 178 205 153 178 205 153 178 205 153 178 205 153 178 205 153 178 205 153 178 205 153 178 205 153 178 205 153 178 205 153 178 205 153 178 205 153 178 205 153 178 205 153 178 205 153 178 205 153 178 205 153 178 205 153 178 205 153 178 205 153 178 205 153 178 205 153 178 205 153 178 205 153 178 205 153 178 205 153 178 205 153 178 205 153 178 205 153 178 205 153 178 205 153 178 205 153 178 205 153 178 205 153 178 205 153 178 205 153 178 205 153 178 205 153 178 205 153 178 205 153 178 205 153 178 205 153 178 205 153 178 205 153 178 205 153 178 205 153 178 205 153 178 205 153 178 205 153 178 205 153 178 205 153 178 205 153 178 205 153 178 205 153 178 205 153 178 205 153 178 205 153 178 205 153 178 205 153 178 205 153 178 205 153 178 205 153 178 205 153 178 205 153 178 205 153 178 205 153 178 205 153 178 205 153 178 205 153 178 205 153 178 205 153 178 205 153 178 205 153 178 205 153 178 205 153 178 205 153 178 205 153 178 205 153 178 205 153 178 205 153 178 205 153 178 205 153 178 205 153 178 205 153 178 205 153 178 205 153 178 205 153 178 205 153 178 205 153 178 205 153 178 205 153 178 205 153 178 205 153 178 205 153 178 205 153 178 205 153 178 205 153 178 205 153 178 205 153 178 205 153 178 205 153 178 205 153 178 205 153 178 205 153 178 205 153 178 205 153 178 205 153 178 205 153 178 205 153 178 205 153 178 205 153 178 204 153 178 204 153 178 204 153 178 204 153 178 204 153 178 204 153 178 204 153 178 204 153 178 204 153 178 204 153 178 204 153 178 204 153 178 204 153 178 204 153 178 204 153 178 204 153 178 204 153 178 204 153 178 204 153 178 204 153 178 204 153 178 204 153 178 204 153 178 204 153 178 204 153 178 204 153 178 204 153 178 204 153 178 204 153 178 204 153 178 204 153 178 204 153 178 204 153 178 204 153 178 204 153 178 204 153 178 204 153 178 204 153 178 204 153 178 204 153 178 204 153 178 204 153 178 204 153 178 204 153 178 204 153 178 204 153 178 204 153 178 204 153 178 204 153 178 204 153 178 204 153 178 204 153 178 204 153 178 204 153 178 204 153 178 204 153 178 204 153 178 204 153 178 204 153 177 204 153 177 204 153 177 204 153 177 204 153 177 204 153 177 204 153 177 204 153 177 204 153 177 204 153 177 204 153 177 204 153 177 204 153 177 204 153 177 204 153 177 204 153 177 204 153 177 204 153 177 204 153 177 204 153 177 204 153 177 204 153 177 204 153 177 204 153 177 204 153 177 204 153 177 204 153 177 204 
153 177 204 153 177 204 153 177 204 153 177 204 153 177 204 153 177 204 153 177 204 153 177 204 153 177 204 153 177 204 153 177 204 153 177 204 153 177 204 153 177 204 153 177 204 153 177 204 153 177 204 153 177 204 153 177 204 153 177 204 153 177 204 153 177 204 153 177 204 153 177 204 153 177 204 153 177 204 153 177 204 153 177 204 153 177 204 153 177 204 153 177 204 153 177 204 153 177 204 153 177 204 153 177 204 153 177 204 153 178 204 153 178 204 153 178 204 153 178 204 153 178 204 153 178 204 153 178 204 153 178 204 153 178 204 153 178 204 153 178 204 153 178 204 153 178 204 153 178 204 153 178 204 153 178 204 153 178 204 153 178 204 153 178 204 153 178 204 153 178 204 153 178 204 153 178 204 153 178 204 153 178 204 153 178 204 153 178 204 153 178 204 153 178 204 153 178 204 153 178 204 153 178 204 153 178 204 153 178 204 153 178 204 153 178 204 153 178 204 153 178 204 153 178 204 153 178 204 153 178 204 153 178 204 153 178 204 153 178 204 153 178 204 153 178 204 153 178 204 153 178 204 153 178 204 153 178 204 153 178 204 153 178 204 153 178 204 153 178 204 153 178 204 153 178 204 153 178 204 153 178 204 153 178 204 153 178 205 153 178 205 153 178 205 153 178 205 153 178 205 153 178 205 153 178 205 153 178 205 153 178 205 153 178 205 153 178 205 153 178 205 153 178 205 153 178 205 153 178 205 153 178 205 153 178 205 153 178 205 153 178 205 153 178 205 153 178 205 153 178 205 153 178 205 153 178 205 153 178 205 153 178 205 153 178 205 153 178 205 153 178 205 153 178 205 153 178 205 153 178 205 153 178 205 153 178 205 153 178 205 153 178 205 153 178 205 153 178 205 153 178 205 153 178 205 153 178 205 153 178 205 153 178 205 153 178 205 153 178 205 153 178 205 153 178 205 153 178 205 153 178 205 153 178 205 153 178 205 153 178 205 153 178 205 153 178 205 153 178 205 153 178 205 153 178 205 153 178 205 153 178 205 153 178 205 153 178 205 153 178 205 153 178 205 153 178 205 153 178 205 153 178 205 153 178 205 153 178 205 153 178 205 153 178 205 153 178 205 153 178 205 153 178 205 153 178 205 153 178 205 153 178 205 153 178 205 153 178 205 153 178 205 153 178 205 153 178 205 153 178 205 153 178 205 153 178 205 153 178 205 153 178 205 153 178 205 153 178 205 153 178 205 153 178 205 153 178 205 153 178 205 153 178 205 153 178 205 153 178 205 153 178 205 153 178 205 153 178 205 153 178 205 153 178 205 153 178 205 153 178 205 153 178 205 153 178 205 153 178 205 153 178 205 153 178 205 153 178 205 153 178 205 153 178 205 153 178 205 153 178 205 153 178 205 153 178 205 153 178 205 153 178 205 153 178 205 153 178 205 153 178 205 153 178 205 153 178 205 153 178 205 153 178 205 153 178 205 153 178 205 153 178 205 153 178 205 153 178 205 153 178 205 153 178 205 153 178 205 153 178 205 153 178 205 153 178 205 153 178 205 153 178 205 153 178 205 153 178 205 153 178 205 153 178 205 153 178 205 153 178 205 153 178 205 153 178 205 153 178 205 153 178 205 153 178 205 153 178 205 153 178 205 153 178 205 153 178 205 153 178 205 153 178 205 153 178 205 153 178 205 153 178 205 153 178 205 153 178 205 153 178 205 153 178 205 153 178 205 153 178 205 153 178 205 153 178 205 153 178 205 153 178 205 153 178 205 153 178 205 153 178 205 153 178 205 153 178 205 153 178 205 153 178 205 153 178 205 153 178 205 153 178 205 153 178 205 153 178 205 153 178 205 153 178 205 153 178 205 153 178 205 153 178 205 153 178 205 153 178 205 153 178 205 153 178 205 153 178 205 153 178 205 153 178 205 153 178 205 153 178 205 153 178 205 153 178 205 153 178 205 153 178 205 153 178 205 153 178 205 153 178 205 153 178 205 153 178 205 153 178 205 153 178 205 153 178 205 153 178 205 153 178 205 153 178 205 153 178 205 153 178 205 153 178 205 153 178 205 153 178 205 153 178 205 153 178 205 153 178 205 153 178 205 153 178 205 153 178 205 153 178 205 153 178 205 153 178 205 153 178 205 153 178 205 153 178 205 153 178 205 153 178 205 153 178 205 153 178 205 153 178 205 153 178 205 153 178 205 153 178 205 153 178 205 153 178 205 153 178 205 153 178 205 153 178 205 153 178 205 153 178 205 153 178 205 153 178 205 153 178 205 153 178 205 153 178 205 153 178 205 153 178 205 153 178 205 153 178 205 153 178 205 153 178 205 153 178 205 153 178 205 153 178 205 153 178 205 153 178 205 153 178 205 153 178 205 153 178 205 153 178 205 153 178 205 153 178 205 153 178 205 153 178 205 153 178 205 153 178 205 153 178 205 153 178 205 153 178 205 153 178 205 153 178 205 153 178 205 153 178 205 153 178 205 153 178 205 153 178 205 153 178 205 153 178 205 153 178 205 153 178 205 153 178 205 153 178 205 153 178 205 153 178 205 153 179 205 153 179 205 153 178 205 153 179 205 153 178 205 153 178 205 153 178 205 153 179 205 153 178 205 153 178 205 153 178 205 153 178 205 153 179 205 153 179 205 153 179 205 153 178 205 153 179 205 153 179 205 153 179 205 153 179 205 153 179 205 153 179 205 153 178 205 153 178 205 153 178 205 153 178 205 153 179 205 153 179 205 153 179 205 153 178 205 153 178 205 153 178 205 153 179 205 153 179 205 153 178 205 153 178 205 153 178 205 153 178 205 153 178 205 153 179 205 153 178 205 153 178 205 153 179 205 153 178 205 153 178 205 153 178 205 153 178 205 153 178 205 153 178 205 153 178 205 153 178 205 153 178 205 153 178 205 153 178 205 153 178 205 153 178 205 153 178 205 153 178 205 153 178 205 153 178 205 153 178 205 153 178 205 153 178 205 153 178 205 153 178 205 153 178 205 153 178 205 153 178 205 153 178 205 153 178 205 153 178 205 153 178 205 153 178 205 153 178 205 153 178 205 153 178 205 153 178 205 153 178 205 153 178 205 153 178 205 153 178 205 153 178 205 153 178 205 153 178 205 153 178 205 153 178 205 153 178 205 153 178 205 153 178 205 153 178 205 153 178 205 153 178 205 153 178 205 153 178 205 153 178 205 153 178 205 153 178 205 153 178 205 153 178 205 153 178 205 153 178 205 153 178 205 153 178 205 153 178 205 153 178 205 153 178 205 153 178 205 153 178 205 153 178 205 153 178 205 153 178 205 153 178 205 153 178 205 153 178 205 153 178 205 153 178 205 153 178 205 153 178 205 153 178 205 153 178 205 153 178 205 153 178 205 153 178 205 153 178 205 153 178 205 153 178 205 153 178 205 153 178 205 153 178 205 153 178 205 153 178 205 153 178 205 153 178 205 153 178 205 153 178 205 153 178 205 153 178 205 153 178 205 153 178 205 153 178 205 153 178 205 153 178 205 153 178 205 153 178 205 153 178 205 153 178 205 153 178 205 153 178 205 153 178 205 153 178 205 153 178 205 153 178 205 153 178 205 153 178 205 153 178 205 153 178 205 153 178 205 153 178 205 153 178 205 153 178 205 153 178 205 153 178 205 153 178 205 153 178 205 153 178 205 153 178 205 153 178 205 153 178 205 153 178 205 153 178 205 153 178 205 153 178 205 153 178 205 153 178 205 153 178 205 153 178 205 153 178 205 153 178 205 153 178 205 153 178 205 153 178 205 153 178 205 153 178 205 153 178 205 153 178 205 153 178 205 153 178 205 153 178 205 153 178 205 153 178 205 153 178 205 153 178 205 153 178 205 153 178 205 153 178 205 153 178 205 153 178 205 153 178 205 153 178 205 153 178 205 153 178 205 153 178 205 153 178 205 153 178 205 153 178 205 153 178 205 153 178 205 153 178 205 153 178 205 153 178 205 153 178 205 153 178 205 153 178 205 153 178 205 153 178 205 153 178 205 153 178 205 153 178 205 153 178 205 153 178 205 153 178 205 153 178 205 153 178 205 153 178 205 153 178 205 153 178 205 153 178 205 153 178 205 153 178 205 153 178 205 153 178 205 153 178 205 153 178 205 153 178 205 153 178 205 153 178 205 153 178 205 153 178 205 153 178 205 153 178 205 153 178 205 153 178 205 153 178 205 153 178 205 153 178 205 153 178 205 153 178 205 153 178 205 153 178 205 153 178 205 153 178 205 153 178 205 153 178 205 153 178 205 153 178 205 153 178 205 153 178 205 153 178 205 153 178 205 153 178 205 153 178 205 153 178 205 153 178 205 153 178 205 153 178 205 153 178 205 153 178 205 153 178 205 153 178 205 153 178 205 153 178 205 153 178 205 153 178 205 153 178 205 153 178 205 153 178 205 153 178 205 153 178 205 153 178 205 153 178 205 153 178 205 153 178 205 153 178 205 153 178 205 153 178 205 153 178 205 153 178 205 153 178 205 153 178 205 153 178 205 153 178 205 153 178 205 153 178 205 153 178 205 153 178 205 153 178 205 153 178 205 153 178 205 153 178 205 153 178 205 153 178 205 153 178 205 153 178 205 153 178 205 153 178 205 153 178 205 153 178 205 153 178 205 153 178 205 153 178 205 153 178 205 153 178 205 153 178 205 153 178 205 153 178 205 153 178 205 153 178 205 153 178 205 153 178 205 153 178 205 153 178 205 153 178 205 153 178 205 153 178 205 153 178 205 153 178 205 153 178 205 153 178 204 153 178 205 153 178 204 153 178 204 153 178 204 153 178 204 153 178 204 153 178 204 153 178 204 153 178 204 153 178 204 153 178 204 153 178 204 153 178 204 153 178 204 153 178 204 153 178 204 153 178 204 153 178 204 153 178 204 153 178 204 153 178 204 153 178 204 153 178 204 153 178 204 153 178 204 153 178 204 153 178 204 153 178 204 153 178 204 153 178 204 153 178 204 153 178 204 153 178 204 153 178 204 153 178 204 153 178 204 153 178 204 153 178 204 153 178 204 153 178 204 153 178 204 153 178 204 153 178 204 153 178 204 153 178 204 153 178 204 153 178 204 153 178 204 153 178 204 153 178 204 153 178 204 153 178 204 153 178 204 153 178 204 153 178 204 153 178 204 153 178 204 153 178 204 153 177 204 153 177 204 153 177 204 153 177 204 153 177 204 153 177 204 153 177 204 153 177 204 153 177 204 153 177 204 153 177 204 153 177 204 153 177 204 153 177 204 153 177 204 153 177 204 153 177 204 153 177 204 153 177 204 153 177 204 153 177 204 153 177 204 153 177 204 153 177 204 153 177 204 153 177 204 153 177 204 153 177 204 153 177 204 153 177 204 153 177 204 153 177 204 153 177 204 153 177 204 153 177 204 153 177 204 
153 177 204 153 177 204 153 177 204 153 177 204 153 177 204 153 177 204 153 177 204 153 177 204 153 177 204 153 177 204 153 177 204 153 177 204 153 177 204 153 177 204 153 177 204 153 177 204 153 177 204 153 177 204 153 177 204 153 177 204 153 177 204 153 177 204 153 177 204 153 177 204 153 177 204 153 177 204 153 177 204 153 177 204 153 177 204 153 177 204 153 177 204 153 177 204 153 177 204 153 177 204 153 177 204 153 177 204 153 177 204 153 177 204 153 177 204 153 177 204 153 177 204 153 177 204 153 177 204 153 177 204 153 177 204 153 178 204 153 178 204 153 178 204 153 178 204 153 178 204 153 178 204 153 178 204 153 178 204 153 178 204 153 178 204 153 178 204 153 178 204 153 178 204 153 178 204 153 178 204 153 178 204 153 178 204 153 178 204 153 178 204 153 178 204 153 178 204 153 178 204 153 178 204 153 178 204 153 178 204 153 178 204 153 178 204 153 178 204 153 178 204 153 178 204 153 178 204 153 178 204 153 178 204 153 178 204 153 178 204 153 178 204 153 178 204 153 178 204 153 178 204 153 178 204 153 178 204 153 178 204 153 178 204 153 178 204 153 178 204 153 178 204 153 178 204 153 178 204 153 178 204 153 178 204 153 178 204 153 178 204 153 178 204 153 178 204 153 178 204 153 178 204 153 178 204 153 178 204 153 178 204 153 178 205 153 178 205 153 178 205 153 178 205 153 178 205 153 178 205 153 178 205 153 178 205 153 178 205 153 178 205 153 178 205 153 178 205 153 178 205 153 178 205 153 178 205 153 178 205 153 178 205 153 178 205 153 178 205 153 178 205 153 178 205 153 178 205 153 178 205 153 178 205 153 178 205 153 178 205 153 178 205 153 178 205 153 178 205 153 178 205 153 178 205 153 178 205 153 178 205 153 178 205 153 178 205 153 178 205 153 178 205 153 178 205 153 178 205 153 178 205 153 178 205 153 178 205 153 178 205 153 178 205 153 178 205 153 178 205 153 178 205 153 178 205 153 178 205 153 178 205 153 178 205 153 178 205 153 178 205 153 178 205 153 178 205 153 178 205 153 178 205 153 178 205 153 178 205 153 178 205 153 178 205 153 178 205 153 178 205 153 178 205 153 178 205 153 178 205 153 178 205 153 178 205 153 178 205 153 178 205 153 178 205 153 178 205 153 178 205 153 178 205 153 178 205 153 178 205 153 178 205 153 178 205 153 178 205 153 178 205 153 178 205 153 178 205 153 178 205 153 178 205 153 178 205 153 178 205 153 178 205 153 178 205 153 178 205 153 178 205 153 178 205 153 178 205 153 178 205 153 178 205 153 178 205 153 178 205 153 178 205 153 178 205 153 178 205 153 178 205 153 178 205 153 178 205 153 178 205 153 178 205 153 178 205 153 178 205 153 178 205 153 178 205 153 178 205 153 178 205 153 178 205 153 178 205 153 178 205 153 178 205 153 178 205 153 178 205 153 178 205 153 178 205 153 178 205 153 178 205 153 178 205 153 178 205 153 178 205 153 178 205 153 178 205 153 178 205 153 178 205 153 178 205 153 178 205 153 178 205 153 178 205 153 178 205 153 178 205 153 178 205 153 178 205 153 178 205 153 178 205 153 178 205 153 178 205 153 178 205 153 178 205 153 178 205 153 178 205 153 178 205 153 178 205 153 178 205 153 178 205 153 178 205 153 178 205 153 178 205 153 178 205 153 178 205 153 178 205 153 178 205 153 178 205 153 178 205 153 178 205 153 178 205 153 178 205 153 178 205 153 178 205 153 178 205 153 178 205 153 178 205 153 178 205 153 178 205 153 178 205 153 178 205 153 178 205 153 178 205 153 178 205 153 178 205 153 178 205 153 178 205 153 178 205 153 178 205 153 178 205 153 178 205 153 178 205 153 178 205 153 178 205 153 178 205 153 178 205 153 178 205 153 178 205 153 178 205 153 178 205 153 178 205 153 178 205 153 178 205 153 178 205 153 178 205 153 178 205 153 178 205 153 178 205 153 178 205 153 178 205 153 178 205 153 178 205 153 178 205 153 178 205 153 178 205 153 178 205 153 178 205 153 178 205 153 178 205 153 178 205 153 178 205 153 178 205 153 178 205 153 178 205 153 178 205 153 178 205 153 178 205 153 178 205 153 178 205 153 178 205 153 178 205 153 178 205 153 178 205 153 178 205 153 178 205 153 178 205 153 178 205 153 178 205 153 178 205 153 178 205 153 178 205 153 178 205 153 178 205 153 178 205 153 178 205 153 178 205 153 178 205 153 178 205 153 178 205 153 178 205 153 178 205 153 178 205 153 178 205 153 178 205 153 178 205 153 178 205 153 178 205 153 178 205 153 178 205 153 178 205 153 178 205 153 178 205 153 178 205 153 178 205 153 178 205 153 178 205 153 178 205 153 178 205 153 178 205 153 178 205 153 178 205 153 178 205 153 178 205 153 178 205 153 178 205 153 178 205 153 178 205 153 178 205 153 178 205 153 178 205 153 178 205 153 178 205 153 178 205 153 178 205 153 178 205 153 178 205 153 178 205 153 178 205 153 178 205 153 178 205 153 178 205 153 178 205 153 178 205 153 178 205 153 178 205 153 178 205 153 178 205 153 178 205 153 178 205 153 178 205 153 178 205 153 178 205 153 178 205 153 178 205 153 178 205 153 178 205 153 178 205 153 178 205 153 178 205 153 178 205 153 178 205 153 178 205 153 178 205 153 178 205 153 178 205 153 178 205 153 178 205 153 178 205 153 178 205 153 178 205 153 178 205 153 178 205 153 178 205 153 178 205 153 178 205 153 178 205 153 178 205 153 178 205 153 178 205 153 178 205 153 178 205 153 178 205 153 178 205 153 178 205 153 178 205 153 178 205 153 178 205 153 178 205 153 178 205 153 178 205 153 178 205 153 178 205 153 178 205 153 178 205 153 178 205 153 178 205 153 178 205 153 178 205 153 178 205 153 178 205 153 178 205 153 178 205 153 178 205 153 178 205 153 178 205 153 178 205 153 178 205 153 178 205 153 178 205 153 178 205 153 178 205 153 178 205 153 178 205 153 178 205 153 178 205 153 178 205 153 178 205 153 178 205 153 178 205 153 178 205 153 178 205 153 178 205 153 178 205 153 178 205 153 178 205 153 178 205 153 178 205 153 178 205 153 178 205 153 178 205 153 178 205 153 178 205 153 178 205 153 178 205 153 178 205 153 178 205 153 178 205 153 178 205 153 178 205 153 178 205 153 178 205 153 178 205 153 178 205 153 178 205 153 178 205 153 178 205 153 178 205 153 178 205 153 178 205 153 178 205 153 178 205 153 178 205 153 178 205 153 178 205 153 178 205 153 178 205 153 178 205 153 178 205 153 178 205 153 178 205 153 178 205 153 178 205 153 178 205 153 178 205 153 178 205 153 178 205 153 178 205 153 178 205 153 178 205 153 178 205 153 178 205 153 178 205 153 178 205 153 178 205 153 178 205 153 178 205 153 178 205 153 178 205 153 178 205 153 178 205 153 178 205 153 178 205 153 178 205 153 178 205 153 178 205 153 178 205 153 178 205 153 178 205 153 178 205 153 178 205 153 178 205 153 178 205 153 178 205 153 178 205 153 178 205 153 178 205 153 178 205 153 178 205 153 178 205 153 178 205 153 178 205 153 178 205 153 178 205 153 178 205 153 178 205 153 178 205 153 178 205 153 178 205 153 178 205 153 178 205 153 178 205 153 178 205 153 178 205 153 178 205 153 178 205 153 178 205 153 178 205 153 178 205 153 178 205 153 178 205 153 178 205 153 178 205 153 178 205 153 178 205 153 178 205 153 178 205 153 178 205 153 178 205 153 178 205 153 178 205 153 178 205 153 178 205 153 178 205 153 178 205 153 178 205 153 178 205 153 178 205 153 178 205 153 178 205 153 178 205 153 178 205 153 178 205 153 178 205 153 178 205 153 178 205 153 178 205 153 178 205 153 178 205 153 178 205 153 178 205 153 178 205 153 178 205 153 178 205 153 178 205 153 178 205 153 178 205 153 178 205 153 178 205 153 178 205 153 178 205 153 178 205 153 178 205 153 178 205 153 178 205 153 178 205 153 178 205 153 178 205 153 178 205 153 178 205 153 178 205 153 178 205 153 178 205 153 178 205 153 178 205 153 178 205 153 178 205 153 178 205 153 178 205 153 178 205 153 178 205 153 178 205 153 178 205 153 178 205 153 178 205 153 178 205 153 178 205 153 178 205 153 178 205 153 178 205 153 178 205 153 178 205 153 178 205 153 178 205 153 178 205 153 178 205 153 178 205 153 178 205 153 178 205 153 178 205 153 178 205 153 178 205 153 178 205 153 178 205 153 178 205 153 178 205 153 178 205 153 178 205 153 178 205 153 178 205 153 178 205 153 178 205 153 178 205 153 178 205 153 178 205 153 178 205 153 178 205 153 178 205 153 178 205 153 178 205 153 178 205 153 178 205 153 178 205 153 178 205 153 178 205 153 178 205 153 178 205 153 178 205 153 178 205 153 178 205 153 178 205 153 178 205 153 178 205 153 178 205 153 178 205 153 178 205 153 178 205 153 178 205 153 178 205 153 178 205 153 178 205 153 178 205 153 178 205 153 178 205 153 178 205 153 178 205 153 178 205 153 178 205 153 178 205 153 178 205 153 178 205 153 178 205 153 178 205 153 178 205 153 178 205 153 178 205 153 178 204 153 178 204 153 178 204 153 178 204 153 178 204 153 178 204 153 178 204 153 178 204 153 178 204 153 178 204 153 178 204 153 178 204 153 178 204 153 178 204 153 178 204 153 178 204 153 178 204 153 178 204 153 178 204 153 178 204 153 178 204 153 178 204 153 178 204 153 178 204 153 178 204 153 178 204 153 178 204 153 178 204 153 178 204 153 178 204 153 178 204 153 178 204 153 178 204 153 178 204 153 178 204 153 178 204 153 178 204 153 178 204 153 178 204 153 178 204 153 178 204 153 178 204 153 178 204 153 178 204 153 178 204 153 178 204 153 178 204 153 178 204 153 178 204 153 178 204 153 178 204 153 178 204 153 178 204 153 178 204 153 178 204 153 178 204 153 178 204 153 178 204 153 178 204 153 177 204 153 178 204 153 177 204 153 177 204 153 177 204 153 177 204 153 177 204 153 177 204 153 177 204 153 177 204 153 177 204 153 177 204 153 177 204 153 177 204 153 177 204 153 177 204 153 177 204 153 177 204 153 177 204 153 177 204 153 177 204 153 177 204 153 177 204 153 177 204 153 177 204 153 177 204 153 177 204 153 177 204 153 177 204 153 177 204 153 177 204 153 177 204 153 177 204 153 177 204 153 177 204 153 177 204 153 177 204 153 177 204 153 177 204 153 177 204 153 177 204 153 177 204 153 177 204 153 177 204 153 177 204 
153 177 204 153 177 204 153 177 204 153 177 204 153 177 204 153 177 204 153 177 204 153 177 204 153 177 204 153 177 204 153 177 204 153 177 204 153 177 204 153 177 204 153 177 204 153 177 204 153 177 204 153 177 204 153 177 204 153 177 204 153 177 204 153 177 204 153 177 204 153 177 204 153 177 204 153 177 204 153 177 204 153 177 204 153 177 204 153 177 204 153 177 204 153 177 204 153 177 204 153 177 204 153 177 204 153 177 204 153 177 204 153 177 204 153 177 204 153 177 204 153 177 204 153 177 204 153 177 204 153 177 204 153 177 204 153 177 204 153 177 204 153 177 204 153 177 204 153 177 204 153 177 204 153 177 204 153 178 204 153 178 204 153 178 204 153 178 204 153 178 204 153 178 204 153 178 204 153 178 204 153 178 204 153 178 204 153 178 204 153 178 204 153 178 204 153 178 204 153 178 204 153 178 204 153 178 204 153 178 204 153 178 204 153 178 204 153 178 204 153 178 204 153 178 204 153 178 204 153 178 204 153 178 204 153 178 204 153 178 204 153 178 204 153 178 204 153 178 204 153 178 204 153 178 204 153 178 204 153 178 204 153 178 204 153 178 204 153 178 204 153 178 204 153 178 204 153 178 204 153 178 204 153 178 204 153 178 204 153 178 204 153 178 204 153 178 204 153 178 204 153 178 204 153 178 204 153 178 204 153 178 204 153 178 204 153 178 204 153 178 204 153 178 204 153 178 204 153 178 204 153 178 204 153 178 204 153 178 205 153 178 205 153 178 205 153 178 205 153 178 205 153 178 205 153 178 205 153 178 205 153 178 205 153 178 205 153 178 205 153 178 205 153 178 205 153 178 205 153 178 205 153 178 205 153 178 205 153 178 205 153 178 205 153 178 205 153 178 205 153 178 205 153 178 205 153 178 205 153 178 205 153 178 205 153 178 205 153 178 205 153 178 205 153 178 205 153 178 205 153 178 205 153 178 205 153 178 205 153 178 205 153 178 205 153 178 205 153 178 205 153 178 205 153 178 205 153 178 205 153 178 205 153 178 205 153 178 205 153 178 205 153 178 205 153 178 205 153 178 205 153 178 205 153 178 205 153 178 205 153 178 205 153 178 205 153 178 205 153 178 205 153 178 205 153 178 205 153 178 205 153 178 205 153 178 205 153 178 205 153 178 205 153 178 205 153 178 205 153 178 205 153 178 205 153 178 205 153 178 205 153 178 205 153 178 205 153 178 205 153 178 205 153 178 205 153 178 205 153 178 205 153 178 205 153 178 205 153 178 205 153 178 205 153 178 205 153 178 205 153 178 205 153 178 205 153 178 205 153 178 205 153 178 205 153 178 205 153 178 205 153 178 205 153 178 205 153 178 205 153 178 205 153 178 205 153 178 205 153 178 205 153 178 205 153 178 205 153 178 205 153 178 205 153 178 205 153 178 205 153 178 205 153 178 205 153 178 205 153 178 205 153 178 205 153 178 205 153 178 205 153 178 205 153 178 205 153 178 205 153 178 205 153 178 205 153 178 205 153 178 205 153 178 205 153 178 205 153 178 205 153 178 205 153 178 205 153 178 205 153 178 205 153 178 205 153 178 205 153 178 205 153 178 205 153 178 205 153 178 205 153 178 205 153 178 205 153 178 205 153 178 205 153 178 205 153 178 205 153 178 205 153 178 205 153 178 205 153 178 205 153 178 205 153 178 205 153 178 205 153 178 205 153 178 205 153 178 205 153 178 205 153 178 205 153 178 205 153 178 205 153 178 205 153 178 205 153 178 205 153 178 205 153 178 205 153 178 205 153 178 205 153 178 205 153 178 205 153 178 205 153 178 205 153 178 205 153 178 205 153 178 205 153 178 205 153 178 205 153 178 205 153 178 205 153 178 205 153 178 205 153 178 205 153 178 205 153 178 205 153 178 205 153 178 205 153 178 205 153 178 205 153 178 205 153 178 205 153 178 205 153 178 205 153 178 205 153 178 205 153 178 205 153 178 205 153 178 205 153 178 205 153 178 205 153 178 205 153 178 205 153 178 205 153 178 205 153 178 205 153 178 205 153 178 205 153 178 205 153 178 205 153 178 205 153 178 205 153 178 205 153 178 205 153 178 205 153 178 205 153 178 205 153 178 205 153 178 205 153 178 205 153 178 205 153 178 205 153 178 205 153 178 205 153 178 205 153 178 205 153 178 205 153 178 205 153 178 205 153 178 205 153 178 205 153 178 205 153 178 205 153 178 205 153 178 205 153 178 205 153 178 205 153 178 205 153 178 205 153 178 205 153 178 205 153 178 205 153 178 205 153 178 205 153 178 205 153 178 205 153 178 205 153 178 205 153 178 205 153 178 205 153 178 205 153 178 205 153 178 205 153 178 205 153 178 205 153 178 205 153 178 205 153 178 205 153 178 205 153 178 205 153 178 205 153 178 205 153 178 205 153 178 205 153 178 205 153 178 205 153 178 205 153 178 205 153 178 205 153 178 205 153 178 205 153 178 205 153 178 205 153 178 205 153 178 205 153 178 205 153 178 205 153 178 205 153 178 205 153 178 205 153 178 205 153 178 205 153 178 205 153 178 205 153 178 205 153 178 205 153 178 205 153 178 205 153 178 205 153 178 205 153 178 205 153 178 205 153 178 205 153 178 205 153 178 205 153 178 205 153 178 205 153 178 205 153 178 205 153 178 205 153 178 205 153 178 205 153 178 205 153 178 205 153 178 205 153 178 205 153 178 205 153 178 205 153 178 205 153 178 205 153 178 205 153 178 205 153 178 205 153 178 205 153 178 205 153 178 205 153 178 205 153 178 205 153 178 205 153 178 205 153 178 205 153 178 205 153 178 205 153 178 205 153 178 205 153 178 205 153 178 205 153 178 205 153 178 205 153 178 205 153 178 205 153 178 205 153 178 205 153 178 205 153 178 205 153 178 205 153 178 205 153 178 205 153 178 205 153 178 205 153 178 205 153 178 205 153 178 205 153 178 205 153 178 205 153 178 205 153 178 205 153 178 205 153 178 205 153 178 205 153 178 205 153 178 205 153 178 205 153 178 205 153 178 205 153 178 205 153 178 205 153 178 205 153 178 205 153 178 205 153 178 205 153 178 205 153 178 205 153 178 205 153 178 205 153 178 205 153 178 205 153 178 205 153 178 205 153 178 205 153 178 205 153 178 205 153 178 205 153 178 205 153 178 205 153 178 205 153 178 205 153 178 205 153 178 205 153 178 205 153 178 205 153 178 205 153 178 205 153 178 205 153 178 205 153 178 205 153 178 205 153 178 205 153 178 205 153 178 205 153 178 205 153 178 205 153 178 205 153 178 205 153 178 205 153 178 205 153 178 205 153 178 205 153 178 205 153 178 205 153 178 205 153 178 205 153 178 205 153 178 205 153 178 205 153 178 205 153 178 205 153 178 205 153 178 205 153 178 205 153 178 205 153 178 205 153 178 205 153 178 205 153 178 205 153 178 205 153 178 205 153 178 205 153 178 205 153 178 205 153 178 205 153 178 205 153 178 205 153 178 205 153 178 205 153 178 205 153 178 205 153 178 205 153 178 205 153 178 205 153 178 205 153 178 205 153 178 205 153 178 205 153 178 205 153 178 205 153 178 205 153 178 205 153 178 205 153 178 205 153 178 205 153 178 205 153 178 205 153 178 205 153 178 205 153 178 205 153 178 205 153 178 205 153 178 205 153 178 205 153 178 205 153 178 205 153 178 205 153 178 205 153 178 205 153 178 205 153 178 205 153 178 205 153 178 205 153 178 205 153 178 205 153 178 205 153 178 205 153 178 205 153 178 205 153 178 205 153 178 205 153 178 205 153 178 205 153 178 205 153 178 205 153 178 205 153 178 205 153 178 205 153 178 205 153 178 205 153 178 205 153 178 205 153 178 205 153 178 205 153 178 205 153 178 205 153 178 205 153 178 205 153 178 205 153 178 205 153 178 205 153 178 205 153 178 205 153 178 205 153 178 205 153 178 205 153 178 205 153 178 205 153 178 205 153 178 205 153 178 205 153 178 205 153 178 205 153 178 205 153 178 205 153 178 205 153 178 205 153 178 205 153 178 205 153 178 205 153 178 205 153 178 205 153 178 205 153 178 205 153 178 205 153 178 205 153 178 205 153 178 205 153 178 205 153 178 205 153 178 205 153 178 205 153 178 205 153 178 205 153 178 205 153 178 205 153 178 205 153 178 205 153 178 205 153 178 205 153 178 205 153 178 205 153 178 205 153 178 205 153 178 205 153 178 205 153 178 205 153 178 205 153 178 205 153 178 205 153 178 205 153 178 205 153 178 205 153 178 205 153 178 205 153 178 205 153 178 205 153 178 205 153 178 205 153 178 205 153 178 205 153 178 205 153 178 205 153 178 205 153 178 205 153 178 205 153 178 205 153 178 205 153 178 205 153 178 205 153 178 205 153 178 205 153 178 205 153 178 205 153 178 205 153 178 205 153 178 205 153 178 205 153 178 205 153 178 205 153 178 205 153 178 205 153 178 205 153 178 205 153 178 205 153 178 205 153 178 205 153 178 205 153 178 205 153 178 205 153 178 205 153 178 205 153 178 205 153 178 205 153 178 205 153 178 205 153 178 205 153 178 205 153 178 205 153 178 205 153 178 205 153 178 205 153 178 205 153 178 205 153 178 204 153 178 204 153 178 204 153 178 204 153 178 204 153 178 204 153 178 204 153 178 204 153 178 204 153 178 204 153 178 204 153 178 204 153 178 204 153 178 204 153 178 204 153 178 204 153 178 204 153 178 204 153 178 204 153 178 204 153 178 204 153 178 204 153 178 204 153 178 204 153 178 204 153 178 204 153 178 204 153 178 204 153 178 204 153 178 204 153 178 204 153 178 204 153 178 204 153 178 204 153 178 204 153 178 204 153 178 204 153 178 204 153 178 204 153 178 204 153 178 204 153 178 204 153 178 204 153 178 204 153 178 204 153 178 204 153 178 204 153 178 204 153 178 204 153 178 204 153 178 204 153 178 204 153 178 204 153 178 204 153 178 204 153 178 204 153 178 204 153 178 204 153 178 204 153 178 204 153 178 204 153 177 204 153 177 204 153 177 204 153 177 204 153 177 204 153 177 204 153 177 204 153 177 204 153 177 204 153 177 204 153 177 204 153 177 204 153 177 204 153 177 204 153 177 204 153 177 204 153 177 204 153 177 204 153 177 204 153 177 204 153 177 204 153 177 204 153 177 204 153 177 204 153 177 204 153 177 204 153 177 204 153 177 204 153 177 204 153 177 204 153 177 204 153 177 204 153 177 204 153 177 204 153 177 204 153 177 204 153 177 204 153 177 204 153 177 204 153 177 204 153 177 204 153 177 204 153 177 204 153 177 204 153 177 204 153 177 204 153 177 204 153 177 204 153 177 204 153 177 204 153 177 204 153 177 204 
153 177 204 153 177 204 153 177 204 153 177 204 153 177 204 153 177 204 153 177 204 153 177 204 153 177 204 153 177 204 153 177 204 153 177 204 153 177 204 153 177 204 153 177 204 153 177 204 153 177 204 153 177 204 153 177 204 153 177 204 153 177 204 153 177 204 153 177 204 153 177 204 153 177 204 153 177 204 153 177 204 153 177 204 153 177 204 153 177 204 153 177 204 153 177 204 153 177 204 153 177 204 153 177 204 153 177 204 153 177 204 153 177 204 153 177 204 153 177 204 153 177 204 153 177 204 153 177 204 153 177 204 153 177 204 153 177 204 153 177 204 153 177 204 153 177 204 153 177 204 153 177 204 153 177 204 153 177 204 153 177 204 153 177 204 153 177 204 153 177 204 153 177 204 153 177 204 153 177 204 153 177 204 153 178 204 153 178 204 153 178 204 153 178 204 153 178 204 153 178 204 153 178 204 153 178 204 153 178 204 153 178 204 153 178 204 153 178 204 153 178 204 153 178 204 153 178 204 153 178 204 153 178 204 153 178 204 153 178 204 153 178 204 153 178 204 153 178 204 153 178 204 153 178 204 153 178 204 153 178 204 153 178 204 153 178 204 153 178 204 153 178 204 153 178 204 153 178 204 153 178 204 153 178 204 153 178 204 153 178 204 153 178 204 153 178 204 153 178 204 153 178 204 153 178 204 153 178 204 153 178 204 153 178 204 153 178 204 153 178 204 153 178 204 153 178 204 153 178 204 153 178 204 153 178 204 153 178 204 153 178 204 153 178 204 153 178 204 153 178 204 153 178 204 153 178 204 153 178 204 153 178 204 153 178 204 153 178 204 153 178 205 153 178 205 153 178 205 153 178 205 153 178 205 153 178 205 153 178 205 153 178 205 153 178 205 153 178 205 153 178 205 153 178 205 153 178 205 153 178 205 153 178 205 153 178 205 153 178 205 153 178 205 153 178 205 153 178 205 153 178 205 153 178 205 153 178 205 153 178 205 153 178 205 153 178 205 153 178 205 153 178 205 153 178 205 153 178 205 153 178 205 153 178 205 153 178 205 153 178 205 153 178 205 153 178 205 153 178 205 153 178 205 153 178 205 153 178 205 153 178 205 153 178 205 153 178 205 153 178 205 153 178 205 153 178 205 153 178 205 153 178 205 153 178 205 153 178 205 153 178 205 153 178 205 153 178 205 153 178 205 153 178 205 153 178 205 153 178 205 153 178 205 153 178 205 153 178 205 153 178 205 153 178 205 153 178 205 153 178 205 153 178 205 153 178 205 153 178 205 153 178 205 153 178 205 153 178 205 153 178 205 153 178 205 153 178 205 153 178 205 153 178 205 153 178 205 153 178 205 153 178 205 153 178 205 153 178 205 153 178 205 153 178 205 153 178 205 153 178 205 153 178 205 153 178 205 153 178 205 153 178 205 153 178 205 153 178 205 153 178 205 153 178 205 153 178 205 153 178 205 153 178 205 153 178 205 153 178 205 153 178 205 153 178 205 153 178 205 153 178 205 153 178 205 153 178 205 153 178 205 153 178 205 153 178 205 153 178 205 153 178 205 153 178 205 153 178 205 153 178 205 153 178 205 153 178 205 153 178 205 153 178 205 153 178 205 153 178 205 153 178 205 153 178 205 153 178 205 153 178 205 153 178 205 153 178 205 153 178 205 153 178 205 153 178 205 153 178 205 153 178 205 153 178 205 153 178 205 153 178 205 153 178 205 153 178 205 153 178 205 153 178 205 153 178 205 153 178 205 153 178 205 153 178 205 153 178 205 153 178 205 153 178 205 153 178 205 153 178 205 153 178 205 153 178 205 153 178 205 153 178 205 153 178 205 153 178 205 153 178 205 153 178 205 153 178 205 153 178 205 153 178 205 153 178 205 153 178 205 153 178 205 153 178 205 153 178 205 153 178 205 153 178 205 153 178 205 153 178 205 153 178 205 153 178 205 153 178 205 153 178 205 153 178 205 153 178 205 153 178 205 153 178 205 153 178 205 153 178 205 153 178 205 153 178 205 153 178 205 153 178 205 153 178 205 153 178 205 153 178 205 153 178 205 153 178 205 153 178 205 153 178 205 153 178 205 153 178 205 153 178 205 153 178 205 153 178 205 153 178 205 153 178 205 153 178 205 153 178 205 153 178 205 153 178 205 153 178 205 153 178 205 153 178 205 153 178 205 153 178 205 153 178 205 153 178 205 153 178 205 153 178 205 153 178 205 153 178 205 153 178 205 153 178 205 153 178 205 153 178 205 153 178 205 153 178 205 153 178 205 153 178 205 153 178 205 153 178 205 153 178 205 153 178 205 153 178 205 153 178 205 153 178 205 153 178 205 153 178 205 153 178 205 153 178 205 153 178 205 153 178 205 153 178 205 153 178 205 153 178 205 153 178 205 153 178 205 153 178 205 153 178 205 153 178 205 153 178 205 153 178 205 153 178 205 153 178 205 153 178 205 153 178 205 153 178 205 153 178 205 153 178 205 153 178 205 153 178 205 153 178 205 153 178 205 153 178 205 153 178 205 153 178 205 153 178 205 153 178 205 153 178 205 153 178 205 153 178 205 153 178 205 153 178 205 153 178 205 153 178 205 153 178 205 153 178 205 153 178 205 153 178 205 153 178 205 153 178 205 153 178 205 153 178 205 153 178 205 153 178 205 153 178 205 153 178 205 153 178 205 153 178 205 153 178 205 153 178 205 153 178 205 153 178 205 153 178 205 153 178 205 153 178 205 153 178 205 153 178 205 153 178 205 153 178 205 153 178 205 153 178 205 153 178 205 153 178 205 153 178 205 153 178 205 153 178 205 153 178 205 153 178 205 153 178 205 153 178 205 153 178 205 153 178 205 153 178 205 153 178 205 153 178 205 153 178 205 153 178 205 153 178 205 153 178 205 153 178 205 153 178 205 153 178 205 153 178 205 153 178 205 153 178 205 153 178 205 153 178 205 153 178 205 153 178 205 153 178 205 153 178 205 153 178 205 153 178 205 153 178 205 153 178 205 153 178 205 153 178 205 153 178 205 153 178 205 153 178 205 153 178 205 153 178 205 153 178 205 153 178 205 153 178 205 153 178 205 153 178 205 153 178 205 153 178 205 153 178 205 153 178 205 153 178 205 153 178 205 153 178 205 153 178 205 153 178 205 153 178 205 153 178 205 153 178 205 153 178 205 153 178 205 153 178 205 153 178 205 153 178 205 153 178 205 153 178 205 153 178 205 153 178 205 153 178 205 153 178 205 153 178 205 153 178 205 153 178 205 153 178 205 153 178 205 153 178 205 153 178 205 153 178 205 153 178 205 153 178 205 153 178 205 153 178 205 153 178 205 153 178 205 153 178 205 153 178 205 153 178 205 153 178 205 153 178 205 153 178 205 153 178 205 153 178 205 153 178 205 153 178 205 153 178 205 153 178 205 153 178 205 153 178 205 153 178 205 153 178 205 153 178 205 153 178 205 153 178 205 153 178 205 153 178 205 153 178 205 153 178 205 153 178 205 153 178 205 153 178 205 153 178 205 153 178 205 153 178 205 153 178 205 153 178 205 153 178 205 153 178 205 153 178 205 153 178 205 153 178 205 153 178 205 153 178 205 153 178 205 153 178 205 153 178 205 153 178 205 153 178 205 153 178 205 153 178 205 153 178 205 153 178 205 153 178 205 153 178 205 153 178 205 153 178 205 153 178 205 153 178 205 153 178 205 153 178 205 153 178 205 153 178 205 153 178 205 153 178 205 153 178 205 153 178 205 153 178 205 153 178 205 153 178 205 153 178 205 153 178 205 153 178 205 153 178 205 153 178 205 153 178 205 153 178 205 153 178 205 153 178 205 153 178 205 153 178 205 153 178 205 153 178 205 153 178 205 153 178 205 153 178 205 153 178 205 153 178 205 153 178 205 153 178 205 153 178 205 153 178 205 153 178 205 153 178 205 153 178 205 153 178 205 153 178 205 153 178 205 153 178 205 153 178 205 153 178 205 153 178 205 153 178 205 153 178 205 153 178 205 153 178 205 153 178 205 153 178 205 153 178 205 153 178 205 153 178 205 153 178 205 153 178 205 153 178 205 153 178 205 153 178 205 153 178 205 153 178 205 153 178 205 153 178 205 153 178 205 153 178 205 153 178 205 153 178 205 153 178 205 153 178 205 153 178 205 153 178 205 153 178 205 153 178 205 153 178 205 153 178 205 153 178 205 153 178 205 153 178 205 153 178 205 153 178 205 153 178 205 153 178 205 153 178 205 153 178 205 153 178 205 153 178 205 153 178 205 153 178 205 153 178 205 153 178 205 153 178 205 153 178 205 153 178 205 153 178 205 153 178 205 153 178 205 153 178 205 153 178 205 153 178 205 153 178 205 153 178 205 153 178 205 153 178 205 153 178 205 153 178 205 153 178 205 153 178 205 153 178 205 153 178 205 153 178 205 153 178 205 153 178 205 153 178 205 153 178 205 153 178 205 153 178 205 153 178 205 153 178 205 153 178 205 153 178 205 153 178 205 153 178 205 153 178 205 153 178 205 153 178 205 153 178 205 153 178 205 153 178 205 153 178 205 153 178 205 153 178 205 153 178 205 153 178 204 153 178 204 153 178 204 153 178 204 153 178 204 153 178 204 153 178 204 153 178 204 153 178 204 153 178 204 153 178 204 153 178 204 153 178 204 153 178 204 153 178 204 153 178 204 153 178 204 153 178 204 153 178 204 153 178 204 153 178 204 153 178 204 153 178 204 153 178 204 153 178 204 153 178 204 153 178 204 153 178 204 153 178 204 153 178 204 153 178 204 153 178 204 153 178 204 153 178 204 153 178 204 153 178 204 153 178 204 153 178 204 153 178 204 153 178 204 153 178 204 153 178 204 153 178 204 153 178 204 153 178 204 153 178 204 153 178 204 153 178 204 153 178 204 153 178 204 153 178 204 153 178 204 153 178 204 153 178 204 153 178 204 153 178 204 153 178 204 153 178 204 153 178 204 153 178 204 153 178 204 153 178 204 153 177 204 153 177 204 153 177 204 153 177 204 153 177 204 153 177 204 153 177 204 153 177 204 153 177 204 153 177 204 153 177 204 153 177 204 153 177 204 153 177 204 153 177 204 153 177 204 153 177 204 153 177 204 153 177 204 153 177 204 153 177 204 153 177 204 153 177 204 153 177 204 153 177 204 153 177 204 153 177 204 153 177 204 153 177 204 153 177 204 153 177 204 153 177 204 153 177 204 153 177 204 153 177 204 153 177 204 153 177 204 153 177 204 153 177 204 153 177 204 153 177 204 153 177 204 153 177 204 153 177 204 153 177 204 153 177 204 153 177 204 153 177 204 153 177 204 153 177 204 153 177 204 153 177 204 153 177 204 153 177 204 153 177 204 153 177 204 153 177 204 153 177 204 153 177 204 153 177 204 153 177 204 
153 177 204 153 177 204 153 177 204 153 177 204 153 177 204 153 177 204 153 177 204 153 177 204 153 177 204 153 177 204 153 177 204 153 177 204 153 177 204 153 177 204 153 177 204 153 177 204 153 177 204 153 177 204 153 177 204 153 177 204 153 177 204 153 177 204 153 177 204 153 177 204 153 177 204 153 177 204 153 177 204 153 177 204 153 177 204 153 177 204 153 177 204 153 177 204 153 177 204 153 177 204 153 177 204 153 177 204 153 177 204 153 177 204 153 177 204 153 177 204 153 177 204 153 177 204 153 177 204 153 177 204 153 177 204 153 177 204 153 177 204 153 177 204 153 177 204 153 177 204 153 177 204 153 177 204 153 177 204 153 177 204 153 177 204 153 177 204 153 177 204 153 177 204 153 177 204 153 177 204 153 177 204 153 177 204 153 177 204 153 177 204 153 177 204 153 177 204 153 177 204 153 177 204 153 177 204 153 178 204 153 178 204 153 178 204 153 178 204 153 178 204 153 178 204 153 178 204 153 178 204 153 178 204 153 178 204 153 178 204 153 178 204 153 178 204 153 178 204 153 178 204 153 178 204 153 178 204 153 178 204 153 178 204 153 178 204 153 178 204 153 178 204 153 178 204 153 178 204 153 178 204 153 178 204 153 178 204 153 178 204 153 178 204 153 178 204 153 178 204 153 178 204 153 178 204 153 178 204 153 178 204 153 178 204 153 178 204 153 178 204 153 178 204 153 178 204 153 178 204 153 178 204 153 178 204 153 178 204 153 178 204 153 178 204 153 178 204 153 178 204 153 178 204 153 178 204 153 178 204 153 178 204 153 178 204 153 178 204 153 178 204 153 178 204 153 178 204 153 178 204 153 178 204 153 178 204 153 178 204 153 178 205 153 178 204 153 178 205 153 178 205 153 178 205 153 178 205 153 178 205 153 178 205 153 178 205 153 178 205 153 178 205 153 178 205 153 178 205 153 178 205 153 178 205 153 178 205 153 178 205 153 178 205 153 178 205 153 178 205 153 178 205 153 178 205 153 178 205 153 178 205 153 178 205 153 178 205 153 178 205 153 178 205 153 178 205 153 178 205 153 178 205 153 178 205 153 178 205 153 178 205 153 178 205 153 178 205 153 178 205 153 178 205 153 178 205 153 178 205 153 178 205 153 178 205 153 178 205 153 178 205 153 178 205 153 178 205 153 178 205 153 178 205 153 178 205 153 178 205 153 178 205 153 178 205 153 178 205 153 178 205 153 178 205 153 178 205 153 178 205 153 178 205 153 178 205 153 178 205 153 178 205 153 178 205 153 178 205 153 178 205 153 178 205 153 178 205 153 178 205 153 178 205 153 178 205 153 178 205 153 178 205 153 178 205 153 178 205 153 178 205 153 178 205 153 178 205 153 178 205 153 178 205 153 178 205 153 178 205 153 178 205 153 178 205 153 178 205 153 178 205 153 178 205 153 178 205 153 178 205 153 178 205 153 178 205 153 178 205 153 178 205 153 178 205 153 178 205 153 178 205 153 178 205 153 178 205 153 178 205 153 178 205 153 178 205 153 178 205 153 178 205 153 178 205 153 178 205 153 178 205 153 178 205 153 178 205 153 178 205 153 178 205 153 178 205 153 178 205 153 178 205 153 178 205 153 178 205 153 178 205 153 178 205 153 178 205 153 178 205 153 178 205 153 178 205 153 178 205 153 178 205 153 178 205 153 178 205 153 178 205 153 178 205 153 178 205 153 178 205 153 178 205 153 178 205 153 178 205 153 178 205 153 178 205 153 178 205 153 178 205 153 178 205 153 178 205 153 178 205 153 178 205 153 178 205 153 178 205 153 178 205 153 178 205 153 178 205 153 178 205 153 178 205 153 178 205 153 178 205 153 178 205 153 178 205 153 178 205 153 178 205 153 178 205 153 178 205 153 178 205 153 178 205 153 178 205 153 178 205 153 178 205 153 178 205 153 178 205 153 178 205 153 178 205 153 178 205 153 178 205 153 178 205 153 178 205 153 178 205 153 178 205 153 178 205 153 178 205 153 178 205 153 178 205 153 178 205 153 178 205 153 178 205 153 178 205 153 178 205 153 178 205 153 178 205 153 178 205 153 178 205 153 178 205 153 178 205 153 178 205 153 178 205 153 178 205 153 178 205 153 178 205 153 178 205 153 178 205 153 178 205 153 178 205 153 178 205 153 178 205 153 178 205 153 178 205 153 178 205 153 178 205 153 178 205 153 178 205 153 178 205 153 178 205 153 178 205 153 178 205 153 178 205 153 178 205 153 178 205 153 178 205 153 178 205 153 178 205 153 178 205 153 178 205 153 178 205 153 178 205 153 178 205 153 178 205 153 178 205 153 178 205 153 178 205 153 178 205 153 178 205 153 178 205 153 178 205 153 178 205 153 178 205 153 178 205 153 178 205 153 178 205 153 178 205 153 178 205 153 178 205 153 178 205 153 178 205 153 178 205 153 178 205 153 178 205 153 178 205 153 178 205 153 178 205 153 178 205 153 178 205 153 178 205 153 178 205 153 178 205 153 178 205 153 178 205 153 178 205 153 178 205 153 178 205 153 178 205 153 178 205 153 178 205 153 178 205 153 178 205 153 178 205 153 178 205 153 178 205 153 178 205 153 178 205 153 178 205 153 178 205 153 178 205 153 178 205 153 178 205 153 178 205 153 178 205 153 178 205 153 178 205 153 178 205 153 178 205 153 178 205 153 178 205 153 178 205 153 178 205 153 178 205 153 178 205 153 178 205 153 178 205 153 178 205 153 178 205 153 178 205 153 178 205 153 178 205 153 178 205 153 178 205 153 178 205 153 178 205 153 178 205 153 178 205 153 178 205 153 178 205 153 178 205 153 178 205 153 178 205 153 178 205 153 178 205 153 178 205 153 178 205 153 178 205 153 178 205 153 178 205 153 178 205 153 178 205 153 178 205 153 178 205 153 178 205 153 178 205 153 178 205 153 178 205 153 178 205 153 178 205 153 178 205 153 178 205 153 178 205 153 178 205 153 178 205 153 178 205 153 178 205 153 178 205 153 178 205 153 178 205 153 178 205 153 178 205 153 178 205 153 178 205 153 178 205 153 178 205 153 178 205 153 178 205 153 178 205 153 178 205 153 178 205 153 178 205 153 178 205 153 178 205 153 178 205 153 178 205 153 178 205 153 178 205 153 178 205 153 178 205 153 178 205 153 178 205 153 178 205 153 178 205 153 178 205 153 178 205 153 178 205 153 178 205 153 178 205 153 178 205 153 178 205 153 178 205 153 178 205 153 178 205 153 178 205 153 178 205 153 178 205 153 178 205 153 178 205 153 178 205 153 178 205 153 178 205 153 178 205 153 178 205 153 178 205 153 178 205 153 178 205 153 178 205 153 178 205 153 178 205 153 178 205 153 178 205 153 178 205 153 178 205 153 178 205 153 178 205 153 178 205 153 178 205 153 178 205 153 178 205 153 178 205 153 178 205 153 178 205 153 178 205 153 178 205 153 178 205 153 178 205 153 178 205 153 178 205 153 178 205 153 178 205 153 178 205 153 178 205 153 178 205 153 178 205 153 178 205 153 178 205 153 178 205 153 178 205 153 178 205 153 178 205 153 178 205 153 178 205 153 178 205 153 178 205 153 178 205 153 178 205 153 178 205 153 178 205 153 178 205 153 178 205 153 178 205 153 178 205 153 178 205 153 178 205 153 178 205 153 178 205 153 178 205 153 178 205 153 178 205 153 178 205 153 178 205 153 178 205 153 178 205 153 178 205 153 178 205 153 178 205 153 178 205 153 178 205 153 178 205 153 178 205 153 178 205 153 178 205 153 178 205 153 178 205 153 178 205 153 178 205 153 178 205 153 178 205 153 178 205 153 178 205 153 178 205 153 178 205 153 178 205 153 178 205 153 178 205 153 178 205 153 178 205 153 178 205 153 178 205 153 178 205 153 178 205 153 178 205 153 178 205 153 178 205 153 178 205 153 178 205 153 178 205 153 178 205 153 178 205 153 178 205 153 178 205 153 178 205 153 178 205 153 178 205 153 178 205 153 178 205 153 178 205 153 178 205 153 178 205 153 178 205 153 178 205 153 178 205 153 178 205 153 178 205 153 178 205 153 178 205 153 178 205 153 178 205 153 178 205 153 178 205 153 178 205 153 178 205 153 178 205 153 178 205 153 178 205 153 178 205 153 178 205 153 178 205 153 178 205 153 178 205 153 178 205 153 178 205 153 178 205 153 178 205 153 178 205 153 178 205 153 178 205 153 178 205 153 178 205 153 178 205 153 178 205 153 178 205 153 178 205 153 178 205 153 178 205 153 178 205 153 178 205 153 178 205 153 178 205 153 178 205 153 178 205 153 178 205 153 178 205 153 178 205 153 178 205 153 178 205 153 178 205 153 178 205 153 178 205 153 178 205 153 178 205 153 178 205 153 178 205 153 178 205 153 178 205 153 178 205 153 178 205 153 178 205 153 178 205 153 178 205 153 178 205 153 178 205 153 178 205 153 178 205 153 178 204 153 178 204 153 178 204 153 178 204 153 178 204 153 178 204 153 178 204 153 178 204 153 178 204 153 178 204 153 178 204 153 178 204 153 178 204 153 178 204 153 178 204 153 178 204 153 178 204 153 178 204 153 178 204 153 178 204 153 178 204 153 178 204 153 178 204 153 178 204 153 178 204 153 178 204 153 178 204 153 178 204 153 178 204 153 178 204 153 178 204 153 178 204 153 178 204 153 178 204 153 178 204 153 178 204 153 178 204 153 178 204 153 178 204 153 178 204 153 178 204 153 178 204 153 178 204 153 178 204 153 178 204 153 178 204 153 178 204 153 178 204 153 178 204 153 178 204 153 178 204 153 178 204 153 178 204 153 178 204 153 178 204 153 178 204 153 178 204 153 178 204 153 178 204 153 178 204 153 178 204 153 178 204 153 178 204 153 178 204 153 178 204 153 177 204 153 177 204 153 177 204 153 177 204 153 177 204 153 177 204 153 177 204 153 177 204 153 177 204 153 177 204 153 177 204 153 177 204 153 177 204 153 177 204 153 177 204 153 177 204 153 177 204 153 177 204 153 177 204 153 177 204 153 177 204 153 177 204 153 177 204 153 177 204 153 177 204 153 177 204 153 177 204 153 177 204 153 177 204 153 177 204 153 177 204 153 177 204 153 177 204 153 177 204 153 177 204 153 177 204 153 177 204 153 177 204 153 177 204 153 177 204 153 177 204 153 177 204 153 177 204 153 177 204 153 177 204 153 177 204 153 177 204 153 177 204 153 177 204 153 177 204 153 177 204 153 177 204 153 177 204 153 177 204 153 177 204 153 177 204 153 177 204 153 177 204 153 177 204 153 177 204 153 177 204 153 177 204 153 177 204 153 177 204 153 177 204 153 177 204 153 177 204 153 177 204 153 177 204 
153 177 204 153 177 204 153 177 204 153 177 204 153 177 204 153 177 204 153 177 204 153 177 204 153 177 204 153 177 204 153 177 204 153 177 204 153 177 204 153 177 204 153 177 204 153 177 204 153 177 204 153 177 204 153 177 204 153 177 204 153 177 204 153 177 204 153 177 204 153 177 204 153 177 204 153 177 204 153 177 204 153 177 204 153 177 204 153 177 204 153 177 204 153 177 204 153 177 204 153 177 204 153 177 204 153 177 204 153 177 204 153 177 204 153 177 204 153 177 204 153 177 204 153 177 204 153 177 204 153 177 204 153 177 204 153 177 204 153 177 204 153 177 204 153 177 204 153 177 204 153 177 204 153 177 204 153 177 204 153 177 204 153 177 204 153 177 204 153 177 204 153 177 204 153 177 204 153 177 204 153 177 204 153 177 204 153 177 204 153 177 204 153 177 204 153 177 204 153 177 204 153 177 204 153 177 204 153 177 204 153 177 204 153 177 204 153 177 204 153 177 204 153 177 204 153 177 204 153 177 204 153 177 204 153 178 204 153 178 204 153 178 204 153 178 204 153 178 204 153 178 204 153 178 204 153 178 204 153 178 204 153 178 204 153 178 204 153 178 204 153 178 204 153 178 204 153 178 204 153 178 204 153 178 204 153 178 204 153 178 204 153 178 204 153 178 204 153 178 204 153 178 204 153 178 204 153 178 204 153 178 204 153 178 204 153 178 204 153 178 204 153 178 204 153 178 204 153 178 204 153 178 204 153 178 204 153 178 204 153 178 204 153 178 204 153 178 204 153 178 204 153 178 204 153 178 204 153 178 204 153 178 204 153 178 204 153 178 204 153 178 204 153 178 204 153 178 204 153 178 204 153 178 204 153 178 204 153 178 204 153 178 204 153 178 204 153 178 204 153 178 204 153 178 204 153 178 204 153 178 204 153 178 204 153 178 204 153 178 204 153 178 205 153 178 205 153 178 204 153 178 204 153 178 205 153 178 205 153 178 205 153 178 205 153 178 205 153 178 205 153 178 205 153 178 205 153 178 205 153 178 205 153 178 205 153 178 205 153 178 205 153 178 205 153 178 205 153 178 205 153 178 205 153 178 205 153 178 205 153 178 205 153 178 205 153 178 205 153 178 205 153 178 205 153 178 205 153 178 205 153 178 205 153 178 205 153 178 205 153 178 205 153 178 205 153 178 205 153 178 205 153 178 205 153 178 205 153 178 205 153 178 205 153 178 205 153 178 205 153 178 205 153 178 205 153 178 205 153 178 205 153 178 205 153 178 205 153 178 205 153 178 205 153 178 205 153 178 205 153 178 205 153 178 205 153 178 205 153 178 205 153 178 205 153 178 205 153 178 205 153 178 205 153 178 205 153 178 205 153 178 205 153 178 205 153 178 205 153 178 205 153 178 205 153 178 205 153 178 205 153 178 205 153 178 205 153 178 205 153 178 205 153 178 205 153 178 205 153 178 205 153 178 205 153 178 205 153 178 205 153 178 205 153 178 205 153 178 205 153 178 205 153 178 205 153 178 205 153 178 205 153 178 205 153 178 205 153 178 205 153 178 205 153 178 205 153 178 205 153 178 205 153 178 205 153 178 205 153 178 205 153 178 205 153 178 205 153 178 205 153 178 205 153 178 205 153 178 205 153 178 205 153 178 205 153 178 205 153 178 205 153 178 205 153 178 205 153 178 205 153 178 205 153 178 205 153 178 205 153 178 205 153 178 205 153 178 205 153 178 205 153 178 205 153 178 205 153 178 205 153 178 205 153 178 205 153 178 205 153 178 205 153 178 205 153 178 205 153 178 205 153 178 205 153 178 205 153 178 205 153 178 205 153 178 205 153 178 205 153 178 205 153 178 205 153 178 205 153 178 205 153 178 205 153 178 205 153 178 205 153 178 205 153 178 205 153 178 205 153 178 205 153 178 205 153 178 205 153 178 205 153 178 205 153 178 205 153 178 205 153 178 205 153 178 205 153 178 205 153 178 205 153 178 205 153 178 205 153 178 205 153 178 205 153 178 205 153 178 205 153 178 205 153 178 205 153 178 205 153 178 205 153 178 205 153 178 205 153 178 205 153 178 205 153 178 205 153 178 205 153 178 205 153 178 205 153 178 205 153 178 205 153 178 205 153 178 205 153 178 205 153 178 205 153 178 205 153 178 205 153 178 205 153 178 205 153 178 205 153 178 205 153 178 205 153 178 205 153 178 205 153 178 205 153 178 205 153 178 205 153 178 205 153 178 205 153 178 205 153 178 205 153 178 205 153 178 205 153 178 205 153 178 205 153 178 205 153 178 205 153 178 205 153 178 205 153 178 205 153 178 205 153 178 205 153 178 205 153 178 205 153 178 205 153 178 205 153 178 205 153 178 205 153 178 205 153 178 205 153 178 205 153 178 205 153 178 205 153 178 205 153 178 205 153 178 205 153 178 205 153 178 205 153 178 205 153 178 205 153 178 205 153 178 205 153 178 205 153 178 205 153 178 205 153 178 205 153 178 205 153 178 205 153 178 205 153 178 205 153 178 205 153 178 205 153 178 205 153 178 205 153 178 205 153 178 205 153 178 205 153 178 205 153 178 205 153 178 205 153 178 205 153 178 205 153 178 205 153 178 205 153 178 205 153 178 205 153 178 205 153 178 205 153 178 205 153 178 205 153 178 205 153 178 205 153 178 205 153 178 205 153 178 205 153 178 205 153 178 205 153 178 205 153 178 205 153 178 205 153 178 205 153 178 205 153 178 205 153 178 205 153 178 205 153 178 205 153 178 205 153 178 205 153 178 205 153 178 205 153 178 205 153 178 205 153 178 205 153 178 205 153 178 205 153 178 205 153 178 205 153 178 205 153 178 205 153 178 205 153 178 205 153 178 205 153 178 205 153 178 205 153 178 205 153 178 205 153 178 205 153 178 205 153 178 205 153 178 205 153 178 205 153 178 205 153 178 205 153 178 205 153 178 205 153 178 205 153 178 205 153 178 205 153 178 205 153 178 205 153 178 205 153 178 205 153 178 205 153 178 205 153 178 205 153 178 205 153 178 205 153 178 205 153 178 205 153 178 205 153 178 205 153 178 205 153 178 205 153 178 205 153 178 205 153 178 205 153 178 205 153 178 205 153 178 205 153 178 205 153 178 205 153 178 205 153 178 205 153 178 205 153 178 205 153 178 205 153 178 205 153 178 205 153 178 205 153 178 205 153 178 205 153 178 205 153 178 205 153 178 205 153 178 205 153 178 205 153 178 205 153 178 205 153 178 205 153 178 205 153 178 205 153 178 205 153 178 205 153 178 205 153 178 205 153 178 205 153 178 205 153 178 205 153 178 205 153 178 205 153 178 205 153 178 205 153 178 205 153 178 205 153 178 205 153 178 205 153 178 205 153 178 205 153 178 205 153 178 205 153 178 205 153 178 205 153 178 205 153 178 205 153 178 205 153 178 205 153 178 205 153 178 205 153 178 205 153 178 205 153 178 205 153 178 205 153 178 205 153 178 205 153 178 205 153 178 205 153 178 205 153 178 205 153 178 205 153 178 205 153 178 205 153 178 205 153 178 205 153 178 205 153 178 205 153 178 205 153 178 205 153 178 205 153 178 205 153 178 205 153 178 205 153 178 205 153 178 205 153 178 205 153 178 205 153 178 205 153 178 205 153 178 205 153 178 205 153 178 205 153 178 205 153 178 205 153 178 205 153 178 205 153 178 205 153 178 205 153 178 205 153 178 205 153 178 205 153 178 205 153 178 205 153 178 205 153 178 205 153 178 205 153 178 205 153 178 205 153 178 205 153 178 205 153 178 205 153 178 205 153 178 205 153 178 205 153 178 205 153 178 205 153 178 205 153 178 205 153 178 205 153 178 205 153 178 205 153 178 205 153 178 205 153 178 205 153 178 205 153 178 205 153 178 205 153 178 205 153 178 205 153 178 205 153 178 205 153 178 205 153 178 205 153 178 205 153 178 205 153 178 205 153 178 205 153 178 205 153 178 205 153 178 205 153 178 205 153 178 205 153 178 205 153 178 205 153 178 205 153 178 205 153 178 205 153 178 205 153 178 205 153 178 205 153 178 205 153 178 205 153 178 205 153 178 205 153 178 205 153 178 205 153 178 205 153 178 205 153 178 205 153 178 205 153 178 205 153 178 205 153 178 205 153 178 205 153 178 205 153 178 205 153 178 205 153 178 205 153 178 205 153 178 205 153 178 205 153 178 205 153 178 205 153 178 205 153 178 205 153 178 205 153 178 205 153 178 205 153 178 205 153 178 205 153 178 205 153 178 205 153 178 205 153 178 205 153 178 205 153 178 205 153 178 205 153 178 205 153 178 205 153 178 205 153 178 205 153 178 205 153 178 205 153 178 205 153 178 205 153 178 205 153 178 205 153 178 205 153 178 205 153 178 205 153 178 205 153 178 205 153 178 205 153 178 205 153 178 205 153 178 204 153 178 205 153 178 204 153 178 204 153 178 204 153 178 204 153 178 204 153 178 204 153 178 204 153 178 204 153 178 204 153 178 204 153 178 204 153 178 204 153 178 204 153 178 204 153 178 204 153 178 204 153 178 204 153 178 204 153 178 204 153 178 204 153 178 204 153 178 204 153 178 204 153 178 204 153 178 204 153 178 204 153 178 204 153 178 204 153 178 204 153 178 204 153 178 204 153 178 204 153 178 204 153 178 204 153 178 204 153 178 204 153 178 204 153 178 204 153 178 204 153 178 204 153 178 204 153 178 204 153 178 204 153 178 204 153 178 204 153 178 204 153 178 204 153 178 204 153 178 204 153 178 204 153 178 204 153 178 204 153 178 204 153 178 204 153 178 204 153 178 204 153 178 204 153 178 204 153 178 204 153 178 204 153 178 204 153 178 204 153 178 204 153 178 204 153 177 204 153 177 204 153 177 204 153 177 204 153 177 204 153 177 204 153 177 204 153 177 204 153 177 204 153 177 204 153 177 204 153 177 204 153 177 204 153 177 204 153 177 204 153 177 204 153 177 204 153 177 204 153 177 204 153 177 204 153 177 204 153 177 204 153 177 204 153 177 204 153 177 204 153 177 204 153 177 204 153 177 204 153 177 204 153 177 204 153 177 204 153 177 204 153 177 204 153 177 204 153 177 204 153 177 204 153 177 204 153 177 204 153 177 204 153 177 204 153 177 204 153 177 204 153 177 204 153 177 204 153 177 204 153 177 204 153 177 204 153 177 204 153 177 204 153 177 204 153 177 204 153 177 204 153 177 204 153 177 204 153 177 204 153 177 204 153 177 204 153 177 204 153 177 204 153 177 204 153 177 204 153 177 204 153 177 204 153 177 204 153 177 204 153 177 204 153 177 204 153 177 204 153 177 204 153 177 204 153 177 204 153 177 204 153 177 204 153 177 204 153 177 204 153 177 204 153 177 204 153 177 204 
153 177 204 153 177 204 153 177 204 153 177 204 153 177 204 153 177 204 153 177 204 153 177 204 153 177 204 153 177 204 153 177 204 153 177 204 153 177 204 153 177 204 153 177 204 153 177 204 153 177 204 153 177 204 153 177 204 153 177 204 153 177 204 153 177 204 153 177 204 153 177 204 153 177 204 153 177 204 153 177 204 153 177 204 153 177 204 153 177 204 153 177 204 153 177 204 153 177 204 153 177 204 153 177 204 153 177 204 153 177 204 153 177 204 153 177 204 153 177 204 153 177 204 153 177 204 153 177 204 153 177 204 153 177 204 153 177 204 153 177 204 153 177 204 153 177 204 153 177 204 153 177 204 153 177 204 153 177 204 153 177 204 153 177 204 153 177 204 153 177 204 153 177 204 153 177 204 153 177 204 153 177 204 153 177 204 153 177 204 153 177 204 153 177 204 153 177 204 153 177 204 153 177 204 153 177 204 153 177 204 153 177 204 153 177 204 153 177 204 153 177 204 153 177 204 153 177 204 153 177 204 153 177 204 153 177 204 153 177 204 153 177 204 153 177 204 153 177 204 153 177 204 153 177 204 153 177 204 153 177 204 153 177 204 153 178 204 153 178 204 153 178 204 153 178 204 153 178 204 153 178 204 153 178 204 153 178 204 153 178 204 153 178 204 153 178 204 153 178 204 153 178 204 153 178 204 153 178 204 153 178 204 153 178 204 153 178 204 153 178 204 153 178 204 153 178 204 153 178 204 153 178 204 153 178 204 153 178 204 153 178 204 153 178 204 153 178 204 153 178 204 153 178 204 153 178 204 153 178 204 153 178 204 153 178 204 153 178 204 153 178 204 153 178 204 153 178 204 153 178 204 153 178 204 153 178 204 153 178 204 153 178 204 153 178 204 153 178 204 153 178 204 153 178 204 153 178 204 153 178 204 153 178 204 153 178 204 153 178 204 153 178 204 153 178 204 153 178 204 153 178 204 153 178 204 153 178 204 153 178 204 153 178 204 153 178 204 153 178 204 153 178 204 153 178 204 153 178 204 153 178 205 153 178 205 153 178 205 153 178 205 153 178 205 153 178 205 153 178 205 153 178 205 153 178 205 153 178 205 153 178 205 153 178 205 153 178 205 153 178 205 153 178 205 153 178 205 153 178 205 153 178 205 153 178 205 153 178 205 153 178 205 153 178 205 153 178 205 153 178 205 153 178 205 153 178 205 153 178 205 153 178 205 153 178 205 153 178 205 153 178 205 153 178 205 153 178 205 153 178 205 153 178 205 153 178 205 153 178 205 153 178 205 153 178 205 153 178 205 153 178 205 153 178 205 153 178 205 153 178 205 153 178 205 153 178 205 153 178 205 153 178 205 153 178 205 153 178 205 153 178 205 153 178 205 153 178 205 153 178 205 153 178 205 153 178 205 153 178 205 153 178 205 153 178 205 153 178 205 153 178 205 153 178 205 153 178 205 153 178 205 153 178 205 153 178 205 153 178 205 153 178 205 153 178 205 153 178 205 153 178 205 153 178 205 153 178 205 153 178 205 153 178 205 153 178 205 153 178 205 153 178 205 153 178 205 153 178 205 153 178 205 153 178 205 153 178 205 153 178 205 153 178 205 153 178 205 153 178 205 153 178 205 153 178 205 153 178 205 153 178 205 153 178 205 153 178 205 153 178 205 153 178 205 153 178 205 153 178 205 153 178 205 153 178 205 153 178 205 153 178 205 153 178 205 153 178 205 153 178 205 153 178 205 153 178 205 153 178 205 153 178 205 153 178 205 153 178 205 153 178 205 153 178 205 153 178 205 153 178 205 153 178 205 153 178 205 153 178 205 153 178 205 153 178 205 153 178 205 153 178 205 153 178 205 153 178 205 153 178 205 153 178 205 153 178 205 153 178 205 153 178 205 153 178 205 153 178 205 153 178 205 153 178 205 153 178 205 153 178 205 153 178 205 153 178 205 153 178 205 153 178 205 153 178 205 153 178 205 153 178 205 153 178 205 153 178 205 153 178 205 153 178 205 153 178 205 153 178 205 153 178 205 153 178 205 153 178 205 153 178 205 153 178 205 153 178 205 153 178 205 153 178 205 153 178 205 153 178 205 153 178 205 153 178 205 153 178 205 153 178 205 153 178 205 153 178 205 153 178 205 153 178 205 153 178 205 153 178 205 153 178 205 153 178 205 153 178 205 153 178 205 153 178 205 153 178 205 153 178 205 153 178 205 153 178 205 153 178 205 153 178 205 153 178 205 153 178 205 153 178 205 153 178 205 153 178 205 153 178 205 153 178 205 153 178 205 153 178 205 153 178 205 153 178 205 153 178 205 153 178 205 153 178 205 153 178 205 153 178 205 153 178 205 153 178 205 153 178 205 153 178 205 153 178 205 153 178 205 153 178 205 153 178 205 153 178 205 153 178 205 153 178 205 153 178 205 153 178 205 153 178 205 153 178 205 153 178 205 153 178 205 153 178 205 153 178 205 153 178 205 153 178 205 153 178 205 153 178 205 153 178 205 153 178 205 153 178 205 153 178 205 153 178 205 153 178 205 153 178 205 153 178 205 153 178 205 153 178 205 153 178 205 153 178 205 153 178 205 153 178 205 153 178 205 153 178 205 153 178 205 153 178 205 153 178 205 153 178 205 153 178 205 153 178 205 153 178 205 153 178 205 153 178 205 153 178 205 153 178 205 153 178 205 153 178 205 153 178 205 153 178 205 153 178 205 153 178 205 153 178 205 153 178 205 153 178 205 153 178 205 153 178 205 153 178 205 153 178 205 153 178 205 153 178 205 153 178 205 153 178 205 153 178 205 153 178 205 153 178 205 153 178 205 153 178 205 153 178 205 153 178 205 153 178 205 153 178 205 153 178 205 153 178 205 153 178 205 153 178 205 153 178 205 153 178 205 153 178 205 153 178 205 153 178 205 153 178 205 153 178 205 153 178 205 153 178 205 153 178 205 153 178 205 153 178 205 153 178 205 153 178 205 153 178 205 153 178 205 153 178 205 153 178 205 153 178 205 153 178 205 153 178 205 153 178 205 153 178 205 153 178 205 153 178 205 153 178 205 153 178 205 153 178 205 153 178 205 153 178 205 153 178 205 153 178 205 153 178 205 153 178 205 153 178 205 153 178 205 153 178 205 153 178 205 153 178 205 153 178 205 153 178 205 153 178 205 153 178 205 153 178 205 153 178 205 153 178 205 153 178 205 153 178 205 153 178 205 153 178 205 153 178 205 153 178 205 153 178 205 153 178 205 153 178 205 153 178 205 153 178 205 153 178 205 153 178 205 153 178 205 153 178 205 153 178 205 153 178 205 153 178 205 153 178 205 153 178 205 153 178 205 153 178 205 153 178 205 153 178 205 153 178 205 153 178 205 153 178 205 153 178 205 153 178 205 153 178 205 153 178 205 153 178 205 153 178 205 153 178 205 153 178 205 153 178 205 153 178 205 153 178 205 153 178 205 153 178 205 153 178 205 153 178 205 153 178 205 153 178 205 153 178 205 153 178 205 153 178 205 153 178 205 153 178 205 153 178 205 153 178 205 153 178 205 153 178 205 153 178 205 153 178 205 153 178 205 153 178 205 153 178 205 153 178 205 153 178 205 153 178 205 153 178 205 153 178 205 153 178 205 153 178 205 153 178 205 153 178 205 153 178 205 153 178 205 153 178 205 153 178 205 153 178 205 153 178 205 153 178 205 153 178 205 153 178 205 153 178 205 153 178 205 153 178 205 153 178 205 153 178 205 153 178 205 153 178 205 153 178 205 153 178 205 153 178 205 153 178 205 153 178 205 153 178 205 153 178 205 153 178 205 153 178 205 153 178 205 153 178 205 153 178 205 153 178 205 153 178 205 153 178 205 153 178 205 153 178 205 153 178 205 153 178 205 153 178 205 153 178 205 153 178 205 153 178 205 153 178 205 153 178 205 153 178 205 153 178 205 153 178 205 153 178 205 153 178 205 153 178 205 153 178 205 153 178 205 153 178 205 153 178 205 153 178 205 153 178 205 153 178 205 153 178 205 153 178 205 153 178 205 153 178 205 153 178 205 153 178 205 153 178 205 153 178 205 153 178 205 153 178 205 153 178 205 153 178 205 153 178 205 153 178 205 153 178 205 153 178 205 153 178 205 153 178 205 153 178 205 153 178 205 153 178 205 153 178 205 153 178 205 153 178 205 153 178 205 153 178 205 153 178 205 153 178 205 153 178 205 153 178 205 153 178 205 153 178 205 153 178 205 153 178 205 153 178 205 153 178 205 153 178 205 153 178 205 153 178 205 153 178 205 153 178 205 153 178 205 153 178 205 153 178 205 153 178 205 153 178 205 153 178 205 153 178 205 153 178 205 153 178 205 153 178 205 153 178 205 153 178 205 153 178 204 153 178 204 153 178 204 153 178 204 153 178 204 153 178 204 153 178 204 153 178 204 153 178 204 153 178 204 153 178 204 153 178 204 153 178 204 153 178 204 153 178 204 153 178 204 153 178 204 153 178 204 153 178 204 153 178 204 153 178 204 153 178 204 153 178 204 153 178 204 153 178 204 153 178 204 153 178 204 153 178 204 153 178 204 153 178 204 153 178 204 153 178 204 153 178 204 153 178 204 153 178 204 153 178 204 153 178 204 153 178 204 153 178 204 153 178 204 153 178 204 153 178 204 153 178 204 153 178 204 153 178 204 153 178 204 153 178 204 153 178 204 153 178 204 153 178 204 153 178 204 153 178 204 153 178 204 153 178 204 153 178 204 153 178 204 153 178 204 153 178 204 153 178 204 153 178 204 153 178 204 153 178 204 153 178 204 153 178 204 153 178 204 153 177 204 153 178 204 153 177 204 153 177 204 153 177 204 153 177 204 153 177 204 153 177 204 153 177 204 153 177 204 153 177 204 153 177 204 153 177 204 153 177 204 153 177 204 153 177 204 153 177 204 153 177 204 153 177 204 153 177 204 153 177 204 153 177 204 153 177 204 153 177 204 153 177 204 153 177 204 153 177 204 153 177 204 153 177 204 153 177 204 153 177 204 153 177 204 153 177 204 153 177 204 153 177 204 153 177 204 153 177 204 153 177 204 153 177 204 153 177 204 153 177 204 153 177 204 153 177 204 153 177 204 153 177 204 153 177 204 153 177 204 153 177 204 153 177 204 153 177 204 153 177 204 153 177 204 153 177 204 153 177 204 153 177 204 153 177 204 153 177 204 153 177 204 153 177 204 153 177 204 153 177 204 153 177 204 153 177 204 153 177 204 153 177 204 153 177 204 153 177 204 153 177 204 153 177 204 153 177 204 153 177 204 153 177 204 153 177 204 153 177 204 153 177 204 153 177 204 153 177 204 153 177 204 153 177 204 153 177 204 153 177 204 153 177 204 153 177 204 153 177 204 153 177 204 153 177 204 153 177 204 153 177 204 
153 177 204 153 177 204 153 177 204 153 177 204 153 177 204 153 177 204 153 177 204 153 177 204 153 177 204 153 177 204 153 177 204 153 177 204 153 177 204 153 177 204 153 177 204 153 177 204 153 177 204 153 177 204 153 177 204 153 177 204 153 177 204 153 177 204 153 177 204 153 177 204 153 177 204 153 177 204 153 177 204 153 177 204 153 177 204 153 177 204 153 177 204 153 177 204 153 177 204 153 177 204 153 177 204 153 177 204 153 177 204 153 177 204 153 177 204 153 177 204 153 177 204 153 177 204 153 177 204 153 177 204 153 177 204 153 177 204 153 177 204 153 177 204 153 177 204 153 177 204 153 177 204 153 177 204 153 177 204 153 177 204 153 177 204 153 177 204 153 177 204 153 177 204 153 177 204 153 177 204 153 177 204 153 177 204 153 177 204 153 177 204 153 177 204 153 177 204 153 177 204 153 177 204 153 177 204 153 177 204 153 177 204 153 177 204 153 177 204 153 177 204 153 177 204 153 177 204 153 177 204 153 177 204 153 177 204 153 177 204 153 177 204 153 177 204 153 177 204 153 177 204 153 177 204 153 177 204 153 177 204 153 177 204 153 177 204 153 177 204 153 177 204 153 177 204 153 177 204 153 177 204 153 177 204 153 177 204 153 177 204 153 178 204 153 178 204 153 178 204 153 178 204 153 178 204 153 178 204 153 178 204 153 178 204 153 178 204 153 178 204 153 178 204 153 178 204 153 178 204 153 178 204 153 178 204 153 178 204 153 178 204 153 178 204 153 178 204 153 178 204 153 178 204 153 178 204 153 178 204 153 178 204 153 178 204 153 178 204 153 178 204 153 178 204 153 178 204 153 178 204 153 178 204 153 178 204 153 178 204 153 178 204 153 178 204 153 178 204 153 178 204 153 178 204 153 178 204 153 178 204 153 178 204 153 178 204 153 178 204 153 178 204 153 178 204 153 178 204 153 178 204 153 178 204 153 178 204 153 178 204 153 178 204 153 178 204 153 178 204 153 178 204 153 178 204 153 178 204 153 178 204 153 178 204 153 178 204 153 178 204 153 178 204 153 178 204 153 178 204 153 178 204 153 178 204 153 178 204 153 178 205 153 178 204 153 178 205 153 178 205 153 178 205 153 178 205 153 178 205 153 178 205 153 178 205 153 178 205 153 178 205 153 178 205 153 178 205 153 178 205 153 178 205 153 178 205 153 178 205 153 178 205 153 178 205 153 178 205 153 178 205 153 178 205 153 178 205 153 178 205 153 178 205 153 178 205 153 178 205 153 178 205 153 178 205 153 178 205 153 178 205 153 178 205 153 178 205 153 178 205 153 178 205 153 178 205 153 178 205 153 178 205 153 178 205 153 178 205 153 178 205 153 178 205 153 178 205 153 178 205 153 178 205 153 178 205 153 178 205 153 178 205 153 178 205 153 178 205 153 178 205 153 178 205 153 178 205 153 178 205 153 178 205 153 178 205 153 178 205 153 178 205 153 178 205 153 178 205 153 178 205 153 178 205 153 178 205 153 178 205 153 178 205 153 178 205 153 178 205 153 178 205 153 178 205 153 178 205 153 178 205 153 178 205 153 178 205 153 178 205 153 178 205 153 178 205 153 178 205 153 178 205 153 178 205 153 178 205 153 178 205 153 178 205 153 178 205 153 178 205 153 178 205 153 178 205 153 178 205 153 178 205 153 178 205 153 178 205 153 178 205 153 178 205 153 178 205 153 178 205 153 178 205 153 178 205 153 178 205 153 178 205 153 178 205 153 178 205 153 178 205 153 178 205 153 178 205 153 178 205 153 178 205 153 178 205 153 178 205 153 178 205 153 178 205 153 178 205 153 178 205 153 178 205 153 178 205 153 178 205 153 178 205 153 178 205 153 178 205 153 178 205 153 178 205 153 178 205 153 178 205 153 178 205 153 178 205 153 178 205 153 178 205 153 178 205 153 178 205 153 178 205 153 178 205 153 178 205 153 178 205 153 178 205 153 178 205 153 178 205 153 178 205 153 178 205 153 178 205 153 178 205 153 178 205 153 178 205 153 178 205 153 178 205 153 178 205 153 178 205 153 178 205 153 178 205 153 178 205 153 178 205 153 178 205 153 178 205 153 178 205 153 178 205 153 178 205 153 178 205 153 178 205 153 178 205 153 178 205 153 178 205 153 178 205 153 178 205 153 178 205 153 178 205 153 178 205 153 178 205 153 178 205 153 178 205 153 178 205 153 178 205 153 178 205 153 178 205 153 178 205 153 178 205 153 178 205 153 178 205 153 178 205 153 178 205 153 178 205 153 178 205 153 178 205 153 178 205 153 178 205 153 178 205 153 178 205 153 178 205 153 178 205 153 178 205 153 178 205 153 178 205 153 178 205 153 178 205 153 178 205 153 178 205 153 178 205 153 178 205 153 178 205 153 178 205 153 178 205 153 178 205 153 178 205 153 178 205 153 178 205 153 178 205 153 178 205 153 178 205 153 178 205 153 178 205 153 178 205 153 178 205 153 178 205 153 178 205 153 178 205 153 178 205 153 178 205 153 178 205 153 178 205 153 178 205 153 178 205 153 178 205 153 178 205 153 178 205 153 178 205 153 178 205 153 178 205 153 178 205 153 178 205 153 178 205 153 178 205 153 178 205 153 178 205 153 178 205 153 178 205 153 178 205 153 178 205 153 178 205 153 178 205 153 178 205 153 178 205 153 178 205 153 178 205 153 178 205 153 178 205 153 178 205 153 178 205 153 178 205 153 178 205 153 178 205 153 178 205 153 178 205 153 178 205 153 178 205 153 178 205 153 178 205 153 178 205 153 178 205 153 178 205 153 178 205 153 178 205 153 178 205 153 178 205 153 178 205 153 178 205 153 178 205 153 178 205 153 178 205 153 178 205 153 178 205 153 178 205 153 178 205 153 178 205 153 178 205 153 178 205 153 178 205 153 178 205 153 178 205 153 178 205 153 178 205 153 178 205 153 178 205 153 178 205 153 178 205 153 178 205 153 178 205 153 178 205 153 178 205 153 178 205 153 178 205 153 178 205 153 178 205 153 178 205 153 178 205 153 178 205 153 178 205 153 178 205 153 178 205 153 178 205 153 178 205 153 178 205 153 178 205 153 178 205 153 178 205 153 178 205 153 178 205 153 178 205 153 178 205 153 178 205 153 178 205 153 178 205 153 178 205 153 178 205 153 178 205 153 178 205 153 178 205 153 178 205 153 178 205 153 178 205 153 178 205 153 178 205 153 178 205 153 178 205 153 178 205 153 178 205 153 178 205 153 178 205 153 178 205 153 178 205 153 178 205 153 178 205 153 178 205 153 178 205 153 178 205 153 178 205 153 178 205 153 178 205 153 178 205 153 178 205 153 178 205 153 178 205 153 178 205 153 178 205 153 178 205 153 178 205 153 178 205 153 178 205 153 178 205 153 178 205 153 178 205 153 178 205 153 178 205 153 178 205 153 178 205 153 178 205 153 178 205 153 178 205 153 178 205 153 178 205 153 178 205 153 178 205 153 178 205 153 178 205 153 178 205 153 178 205 153 178 205 153 178 205 153 178 205 153 178 205 153 178 205 153 178 205 153 178 205 153 178 205 153 178 205 153 178 205 153 178 205 153 178 205 153 178 205 153 178 205 153 178 205 153 178 205 153 178 205 153 178 205 153 178 205 153 178 205 153 178 205 153 178 205 153 178 205 153 178 205 153 178 205 153 178 205 153 178 205 153 178 205 153 178 205 153 178 205 153 178 205 153 178 205 153 178 205 153 178 205 153 178 205 153 178 205 153 178 205 153 178 205 153 178 205 153 178 205 153 178 205 153 178 205 153 178 205 153 178 205 153 178 205 153 178 205 153 178 205 153 178 205 153 178 205 153 178 205 153 178 205 153 178 205 153 178 205 153 178 205 153 178 205 153 178 205 153 178 205 153 178 205 153 178 205 153 178 205 153 178 205 153 178 205 153 178 205 153 178 205 153 178 205 153 178 205 153 178 205 153 178 205 153 178 205 153 178 205 153 178 205 153 178 205 153 178 205 153 178 205 153 178 205 153 178 205 153 178 205 153 178 205 153 178 205 153 178 205 153 178 205 153 178 205 153 178 205 153 178 205 153 178 205 153 178 205 153 178 205 153 178 205 153 178 205 153 178 205 153 178 205 153 178 205 153 178 205 153 178 205 153 178 205 153 178 205 153 178 205 153 178 205 153 178 205 153 178 205 153 178 205 153 178 205 153 178 205 153 178 205 153 178 205 153 178 205 153 178 205 153 178 205 153 178 205 153 178 205 153 178 204 153 178 205 153 178 204 153 178 204 153 178 204 153 178 204 153 178 204 153 178 204 153 178 204 153 178 204 153 178 204 153 178 204 153 178 204 153 178 204 153 178 204 153 178 204 153 178 204 153 178 204 153 178 204 153 178 204 153 178 204 153 178 204 153 178 204 153 178 204 153 178 204 153 178 204 153 178 204 153 178 204 153 178 204 153 178 204 153 178 204 153 178 204 153 178 204 153 178 204 153 178 204 153 178 204 153 178 204 153 178 204 153 178 204 153 178 204 153 178 204 153 178 204 153 178 204 153 178 204 153 178 204 153 178 204 153 178 204 153 178 204 153 178 204 153 178 204 153 178 204 153 178 204 153 178 204 153 178 204 153 178 204 153 178 204 153 178 204 153 178 204 153 178 204 153 178 204 153 178 204 153 178 204 153 178 204 153 178 204 153 178 204 153 178 204 153 178 204 153 178 204 153 178 204 153 177 204 153 178 204 153 177 204 153 177 204 153 177 204 153 177 204 153 177 204 153 177 204 153 177 204 153 177 204 153 177 204 153 177 204 153 177 204 153 177 204 153 177 204 153 177 204 153 177 204 153 177 204 153 177 204 153 177 204 153 177 204 153 177 204 153 177 204 153 177 204 153 177 204 153 177 204 153 177 204 153 177 204 153 177 204 153 177 204 153 177 204 153 177 204 153 177 204 153 177 204 153 177 204 153 177 204 153 177 204 153 177 204 153 177 204 153 177 204 153 177 204 153 177 204 153 177 204 153 177 204 153 177 204 153 177 204 153 177 204 153 177 204 153 177 204 153 177 204 153 177 204 153 177 204 153 177 204 153 177 204 153 177 204 153 177 204 153 177 204 153 177 204 153 177 204 153 177 204 153 177 204 153 177 204 153 177 204 153 177 204 153 177 204 153 177 204 153 177 204 153 177 204 153 177 204 153 177 204 153 177 204 153 177 204 153 177 204 153 177 204 153 177 204 153 177 204 153 177 204 153 177 204 153 177 204 153 177 204 153 177 204 153 177 204 153 177 204 153 177 204 153 177 204 153 177 204 153 177 204 153 177 204 153 177 204 153 177 204 153 177 204 153 177 204 153 177 204 153 177 204 153 177 204 153 177 204 153 177 204 
153 177 204 153 177 204 153 177 204 153 177 204 153 177 204 153 177 204 153 177 204 153 177 204 153 177 204 153 177 204 153 177 204 153 177 204 153 177 204 153 177 204 153 177 204 153 177 204 153 177 204 153 177 204 153 177 204 153 177 204 153 177 204 153 177 204 153 177 204 153 177 204 153 177 204 153 177 204 153 177 204 153 177 204 153 177 204 153 177 204 153 177 204 153 177 204 153 177 204 153 177 204 153 177 204 153 177 204 153 177 204 153 177 204 153 177 204 153 177 204 153 177 204 153 177 204 153 177 204 153 177 204 153 177 204 153 177 204 153 177 204 153 177 204 153 177 204 153 177 204 153 177 204 153 177 204 153 177 204 153 177 204 153 177 204 153 177 204 153 177 204 153 177 204 153 177 204 153 177 204 153 177 204 153 177 204 153 177 204 153 177 204 153 177 204 153 177 204 153 177 204 153 177 204 153 177 204 153 177 204 153 177 204 153 177 204 153 177 204 153 177 204 153 177 204 153 177 204 153 177 204 153 177 204 153 177 204 153 177 204 153 177 204 153 177 204 153 177 204 153 177 204 153 177 204 153 177 204 153 177 204 153 177 204 153 177 204 153 177 204 153 177 204 153 177 204 153 177 204 153 177 204 153 177 204 153 177 204 153 177 204 153 177 204 153 177 204 153 177 204 153 177 204 153 177 204 153 177 204 153 177 204 153 177 204 153 177 204 153 178 204 153 178 204 153 178 204 153 178 204 153 178 204 153 178 204 153 178 204 153 178 204 153 178 204 153 178 204 153 178 204 153 178 204 153 178 204 153 178 204 153 178 204 153 178 204 153 178 204 153 178 204 153 178 204 153 178 204 153 178 204 153 178 204 153 178 204 153 178 204 153 178 204 153 178 204 153 178 204 153 178 204 153 178 204 153 178 204 153 178 204 153 178 204 153 178 204 153 178 204 153 178 204 153 178 204 153 178 204 153 178 204 153 178 204 153 178 204 153 178 204 153 178 204 153 178 204 153 178 204 153 178 204 153 178 204 153 178 204 153 178 204 153 178 204 153 178 204 153 178 204 153 178 204 153 178 204 153 178 204 153 178 204 153 178 204 153 178 204 153 178 204 153 178 204 153 178 204 153 178 204 153 178 204 153 178 204 153 178 204 153 178 204 153 178 204 153 178 204 153 178 204 153 178 204 153 178 205 153 178 205 153 178 204 153 178 205 153 178 205 153 178 205 153 178 205 153 178 205 153 178 205 153 178 205 153 178 205 153 178 205 153 178 205 153 178 205 153 178 205 153 178 205 153 178 205 153 178 205 153 178 205 153 178 205 153 178 205 153 178 205 153 178 205 153 178 205 153 178 205 153 178 205 153 178 205 153 178 205 153 178 205 153 178 205 153 178 205 153 178 205 153 178 205 153 178 205 153 178 205 153 178 205 153 178 205 153 178 205 153 178 205 153 178 205 153 178 205 153 178 205 153 178 205 153 178 205 153 178 205 153 178 205 153 178 205 153 178 205 153 178 205 153 178 205 153 178 205 153 178 205 153 178 205 153 178 205 153 178 205 153 178 205 153 178 205 153 178 205 153 178 205 153 178 205 153 178 205 153 178 205 153 178 205 153 178 205 153 178 205 153 178 205 153 178 205 153 178 205 153 178 205 153 178 205 153 178 205 153 178 205 153 178 205 153 178 205 153 178 205 153 178 205 153 178 205 153 178 205 153 178 205 153 178 205 153 178 205 153 178 205 153 178 205 153 178 205 153 178 205 153 178 205 153 178 205 153 178 205 153 178 205 153 178 205 153 178 205 153 178 205 153 178 205 153 178 205 153 178 205 153 178 205 153 178 205 153 178 205 153 178 205 153 178 205 153 178 205 153 178 205 153 178 205 153 178 205 153 178 205 153 178 205 153 178 205 153 178 205 153 178 205 153 178 205 153 178 205 153 178 205 153 178 205 153 178 205 153 178 205 153 178 205 153 178 205 153 178 205 153 178 205 153 178 205 153 178 205 153 178 205 153 178 205 153 178 205 153 178 205 153 178 205 153 178 205 153 178 205 153 178 205 153 178 205 153 178 205 153 178 205 153 178 205 153 178 205 153 178 205 153 178 205 153 178 205 153 178 205 153 178 205 153 178 205 153 178 205 153 178 205 153 178 205 153 178 205 153 178 205 153 178 205 153 178 205 153 178 205 153 178 205 153 178 205 153 178 205 153 178 205 153 178 205 153 178 205 153 178 205 153 178 205 153 178 205 153 178 205 153 178 205 153 178 205 153 178 205 153 178 205 153 178 205 153 178 205 153 178 205 153 178 205 153 178 205 153 178 205 153 178 205 153 178 205 153 178 205 153 178 205 153 178 205 153 178 205 153 178 205 153 178 205 153 178 205 153 178 205 153 178 205 153 178 205 153 178 205 153 178 205 153 178 205 153 178 205 153 178 205 153 178 205 153 178 205 153 178 205 153 178 205 153 178 205 153 178 205 153 178 205 153 178 205 153 178 205 153 178 205 153 178 205 153 178 205 153 178 205 153 178 205 153 178 205 153 178 205 153 178 205 153 178 205 153 178 205 153 178 205 153 178 205 153 178 205 153 178 205 153 178 205 153 178 205 153 178 205 153 178 205 153 178 205 153 178 205 153 178 205 153 178 205 153 178 205 153 178 205 153 178 205 153 178 205 153 178 205 153 178 205 153 178 205 153 178 205 153 178 205 153 178 205 153 178 205 153 178 205 153 178 205 153 178 205 153 178 205 153 178 205 153 178 205 153 178 205 153 178 205 153 178 205 153 178 205 153 178 205 153 178 205 153 178 205 153 178 205 153 178 205 153 178 205 153 178 205 153 178 205 153 178 205 153 178 205 153 178 205 153 178 205 153 178 205 153 178 205 153 178 205 153 178 205 153 178 205 153 178 205 153 178 205 153 178 205 153 178 205 153 178 205 153 178 205 153 178 205 153 178 205 153 178 205 153 178 205 153 178 205 153 178 205 153 178 205 153 178 205 153 178 205 153 178 205 153 178 205 153 178 205 153 178 205 153 178 205 153 178 205 153 178 205 153 178 205 153 178 205 153 178 205 153 178 205 153 178 205 153 178 205 153 178 205 153 178 205 153 178 205 153 178 205 153 178 205 153 178 205 153 178 205 153 178 205 153 178 205 153 178 205 153 178 205 153 178 205 153 178 205 153 178 205 153 178 205 153 178 205 153 178 205 153 178 205 153 178 205 153 178 205 153 178 205 153 178 205 153 178 205 153 178 205 153 178 205 153 178 205 153 178 205 153 178 205 153 178 205 153 178 205 153 178 205 153 178 205 153 178 205 153 178 205 153 178 205 153 178 205 153 178 205 153 178 205 153 178 205 153 178 205 153 178 205 153 178 205 153 178 205 153 178 205 153 178 205 153 178 205 153 178 205 153 178 205 153 178 205 153 178 205 153 178 205 153 178 205 153 178 205 153 178 205 153 178 205 153 178 205 153 178 205 153 178 205 153 178 205 153 178 205 153 178 205 153 178 205 153 178 205 153 178 205 153 178 205 153 178 205 153 178 205 153 178 205 153 178 205 153 178 205 153 178 205 153 178 205 153 178 205 153 178 205 153 178 205 153 178 205 153 178 205 153 178 205 153 178 205 153 178 205 153 178 205 153 178 205 153 178 205 153 178 205 153 178 205 153 178 205 153 178 205 153 178 205 153 178 205 153 178 205 153 178 205 153 178 205 153 178 205 153 178 205 153 178 205 153 178 205 153 178 205 153 178 205 153 178 205 153 178 205 153 178 205 153 178 205 153 178 205 153 178 205 153 178 205 153 178 205 153 178 205 153 178 205 153 178 205 153 178 205 153 178 205 153 178 205 153 178 205 153 178 205 153 178 205 153 178 205 153 178 205 153 178 205 153 178 205 153 178 205 153 178 205 153 178 205 153 178 205 153 178 205 153 178 205 153 178 205 153 178 205 153 178 205 153 178 205 153 178 205 153 178 205 153 178 205 153 178 205 153 178 205 153 178 205 153 178 205 153 178 205 153 178 205 153 178 205 153 178 205 153 178 205 153 178 205 153 178 205 153 178 205 153 178 205 153 178 205 153 178 205 153 178 205 153 178 205 153 178 205 153 178 205 153 178 205 153 178 205 153 178 205 153 178 205 153 178 205 153 178 205 153 178 205 153 178 205 153 178 205 153 178 205 153 178 205 153 178 205 153 178 205 153 178 205 153 178 204 153 178 204 153 178 204 153 178 204 153 178 204 153 178 204 153 178 204 153 178 204 153 178 204 153 178 204 153 178 204 153 178 204 153 178 204 153 178 204 153 178 204 153 178 204 153 178 204 153 178 204 153 178 204 153 178 204 153 178 204 153 178 204 153 178 204 153 178 204 153 178 204 153 178 204 153 178 204 153 178 204 153 178 204 153 178 204 153 178 204 153 178 204 153 178 204 153 178 204 153 178 204 153 178 204 153 178 204 153 178 204 153 178 204 153 178 204 153 178 204 153 178 204 153 178 204 153 178 204 153 178 204 153 178 204 153 178 204 153 178 204 153 178 204 153 178 204 153 178 204 153 178 204 153 178 204 153 178 204 153 178 204 153 178 204 153 178 204 153 178 204 153 178 204 153 178 204 153 178 204 153 178 204 153 178 204 153 178 204 153 178 204 153 178 204 153 178 204 153 178 204 153 178 204 153 178 204 153 178 204 153 178 204 153 178 204 153 177 204 153 177 204 153 177 204 153 177 204 153 177 204 153 177 204 153 177 204 153 177 204 153 177 204 153 177 204 153 177 204 153 177 204 153 177 204 153 177 204 153 177 204 153 177 204 153 177 204 153 177 204 153 177 204 153 177 204 153 177 204 153 177 204 153 177 204 153 177 204 153 177 204 153 177 204 153 177 204 153 177 204 153 177 204 153 177 204 153 177 204 153 177 204 153 177 204 153 177 204 153 177 204 153 177 204 153 177 204 153 177 204 153 177 204 153 177 204 153 177 204 153 177 204 153 177 204 153 177 204 153 177 204 153 177 204 153 177 204 153 177 204 153 177 204 153 177 204 153 177 204 153 177 204 153 177 204 153 177 204 153 177 204 153 177 204 153 177 204 153 177 204 153 177 204 153 177 204 153 177 204 153 177 204 153 177 204 153 177 204 153 177 204 153 177 204 153 177 204 153 177 204 153 177 204 153 177 204 153 177 204 153 177 204 153 177 204 153 177 204 153 177 204 153 177 204 153 177 204 153 177 204 153 177 204 153 177 204 153 177 204 153 177 204 153 177 204 153 177 204 153 177 204 153 177 204 153 177 204 153 177 204 153 177 204 153 177 204 153 177 204 153 177 204 153 177 204 153 177 204 153 177 204 153 177 204 153 177 204 153 177 204 153 177 204 153 177 204 153 177 204 153 177 204 153 177 204 153 177 204 153 177 204 
153 177 204 153 177 204 153 177 204 153 177 204 153 177 204 153 177 204 153 177 204 153 177 204 153 177 204 153 177 204 153 177 204 153 177 204 153 177 204 153 177 204 153 177 204 153 177 204 153 177 204 153 177 204 153 177 204 153 177 204 153 177 204 153 177 204 153 177 204 153 177 204 153 177 204 153 177 204 153 177 204 153 177 204 153 177 204 153 177 204 153 177 204 153 177 204 153 177 204 153 177 204 153 177 204 153 177 204 153 177 204 153 177 204 153 177 204 153 177 204 153 177 204 153 177 204 153 177 204 153 177 204 153 177 204 153 177 204 153 177 204 153 177 204 153 177 204 153 177 204 153 177 204 153 177 204 153 177 204 153 177 204 153 177 204 153 177 204 153 177 204 153 177 204 153 177 204 153 177 204 153 177 204 153 177 204 153 177 204 153 177 204 153 177 204 153 177 204 153 177 204 153 177 204 153 177 204 153 177 204 153 177 204 153 177 204 153 177 204 153 177 204 153 177 204 153 177 204 153 177 204 153 177 204 153 177 204 153 177 204 153 177 204 153 177 204 153 177 204 153 177 204 153 177 204 153 177 204 153 177 204 153 177 204 153 177 204 153 177 204 153 177 204 153 177 204 153 177 204 153 177 204 153 177 204 153 177 204 153 177 204 153 177 204 153 177 204 153 177 204 153 177 204 153 177 204 153 177 204 153 177 204 153 177 204 153 177 204 153 177 204 153 177 204 153 177 204 153 177 204 153 177 204 153 177 204 153 177 204 153 177 204 153 177 204 153 178 204 153 178 204 153 178 204 153 178 204 153 178 204 153 178 204 153 178 204 153 178 204 153 178 204 153 178 204 153 178 204 153 178 204 153 178 204 153 178 204 153 178 204 153 178 204 153 178 204 153 178 204 153 178 204 153 178 204 153 178 204 153 178 204 153 178 204 153 178 204 153 178 204 153 178 204 153 178 204 153 178 204 153 178 204 153 178 204 153 178 204 153 178 204 153 178 204 153 178 204 153 178 204 153 178 204 153 178 204 153 178 204 153 178 204 153 178 204 153 178 204 153 178 204 153 178 204 153 178 204 153 178 204 153 178 204 153 178 204 153 178 204 153 178 204 153 178 204 153 178 204 153 178 204 153 178 204 153 178 204 153 178 204 153 178 204 153 178 204 153 178 204 153 178 204 153 178 204 153 178 204 153 178 204 153 178 204 153 178 204 153 178 204 153 178 204 153 178 204 153 178 204 153 178 204 153 178 204 153 178 204 153 178 204 153 178 204 153 178 204 153 178 205 153 178 205 153 178 205 153 178 205 153 178 205 153 178 205 153 178 205 153 178 205 153 178 205 153 178 205 153 178 205 153 178 205 153 178 205 153 178 205 153 178 205 153 178 205 153 178 205 153 178 205 153 178 205 153 178 205 153 178 205 153 178 205 153 178 205 153 178 205 153 178 205 153 178 205 153 178 205 153 178 205 153 178 205 153 178 205 153 178 205 153 178 205 153 178 205 153 178 205 153 178 205 153 178 205 153 178 205 153 178 205 153 178 205 153 178 205 153 178 205 153 178 205 153 178 205 153 178 205 153 178 205 153 178 205 153 178 205 153 178 205 153 178 205 153 178 205 153 178 205 153 178 205 153 178 205 153 178 205 153 178 205 153 178 205 153 178 205 153 178 205 153 178 205 153 178 205 153 178 205 153 178 205 153 178 205 153 178 205 153 178 205 153 178 205 153 178 205 153 178 205 153 178 205 153 178 205 153 178 205 153 178 205 153 178 205 153 178 205 153 178 205 153 178 205 153 178 205 153 178 205 153 178 205 153 178 205 153 178 205 153 178 205 153 178 205 153 178 205 153 178 205 153 178 205 153 178 205 153 178 205 153 178 205 153 178 205 153 178 205 153 178 205 153 178 205 153 178 205 153 178 205 153 178 205 153 178 205 153 178 205 153 178 205 153 178 205 153 178 205 153 178 205 153 178 205 153 178 205 153 178 205 153 178 205 153 178 205 153 178 205 153 178 205 153 178 205 153 178 205 153 178 205 153 178 205 153 178 205 153 178 205 153 178 205 153 178 205 153 178 205 153 178 205 153 178 205 153 178 205 153 178 205 153 178 205 153 178 205 153 178 205 153 178 205 153 178 205 153 178 205 153 178 205 153 178 205 153 178 205 153 178 205 153 178 205 153 178 205 153 178 205 153 178 205 153 178 205 153 178 205 153 178 205 153 178 205 153 178 205 153 178 205 153 178 205 153 178 205 153 178 205 153 178 205 153 178 205 153 178 205 153 178 205 153 178 205 153 178 205 153 178 205 153 178 205 153 178 205 153 178 205 153 178 205 153 178 205 153 178 205 153 178 205 153 178 205 153 178 205 153 178 205 153 178 205 153 178 205 153 178 205 153 178 205 153 178 205 153 178 205 153 178 205 153 178 205 153 178 205 153 178 205 153 178 205 153 178 205 153 178 205 153 178 205 153 178 205 153 178 205 153 178 205 153 178 205 153 178 205 153 178 205 153 178 205 153 178 205 153 178 205 153 178 205 153 178 205 153 178 205 153 178 205 153 178 205 153 178 205 153 178 205 153 178 205 153 178 205 153 178 205 153 178 205 153 178 205 153 178 205 153 178 205 153 178 205 153 178 205 153 178 205 153 178 205 153 178 205 153 178 205 153 178 205 153 178 205 153 178 205 153 178 205 153 178 205 153 178 205 153 178 205 153 178 205 153 178 205 153 178 205 153 178 205 153 178 205 153 178 205 153 178 205 153 178 205 153 178 205 153 178 205 153 178 205 153 178 205 153 178 205 153 178 205 153 178 205 153 178 205 153 178 205 153 178 205 153 178 205 153 178 205 153 178 205 153 178 205 153 178 205 153 178 205 153 178 205 153 178 205 153 178 205 153 178 205 153 178 205 153 178 205 153 178 205 153 178 205 153 178 205 153 178 205 153 178 205 153 178 205 153 178 205 153 178 205 153 178 205 153 178 205 153 178 205 153 178 205 153 178 205 153 178 205 153 178 205 153 178 205 153 178 205 153 178 205 153 178 205 153 178 205 153 178 205 153 178 205 153 178 205 153 178 205 153 178 205 153 178 205 153 178 205 153 178 205 153 178 205 153 178 205 153 178 205 153 178 205 153 178 205 153 178 205 153 178 205 153 178 205 153 178 205 153 178 205 153 178 205 153 178 205 153 178 205 153 178 205 153 178 205 153 178 205 153 178 205 153 178 205 153 178 205 153 178 205 153 178 205 153 178 205 153 178 205 153 178 205 153 178 205 153 178 205 153 178 205 153 178 205 153 178 205 153 178 205 153 178 205 153 178 205 153 178 205 153 178 205 153 178 205 153 178 205 153 178 205 153 178 205 153 178 205 153 178 205 153 178 205 153 178 205 153 178 205 153 178 205 153 178 205 153 178 205 153 178 205 153 178 205 153 178 205 153 178 205 153 178 205 153 178 205 153 178 205 153 178 205 153 178 205 153 178 205 153 178 205 153 178 205 153 178 205 153 178 205 153 178 205 153 178 205 153 178 205 153 178 205 153 178 205 153 178 205 153 178 205 153 178 205 153 178 205 153 178 205 153 178 205 153 178 205 153 178 205 153 178 205 153 178 205 153 178 205 153 178 205 153 178 205 153 178 205 153 178 205 153 178 205 153 178 205 153 178 205 153 178 205 153 178 205 153 178 205 153 178 205 153 178 205 153 178 205 153 178 205 153 178 205 153 178 205 153 178 205 153 178 205 153 178 205 153 178 205 153 178 205 153 178 205 153 178 205 153 178 205 153 178 205 153 178 205 153 178 205 153 178 205 153 178 205 153 178 205 153 178 205 153 178 205 153 178 205 153 178 205 153 178 205 153 178 205 153 178 205 153 178 205 153 178 205 153 178 205 153 178 205 153 178 205 153 178 205 153 178 205 153 178 205 153 178 205 153 178 205 153 178 205 153 178 205 153 178 205 153 178 205 153 178 205 153 178 205 153 178 205 153 178 205 153 178 205 153 178 205 153 178 205 153 178 205 153 178 205 153 178 205 153 178 205 153 178 205 153 178 205 153 178 205 153 178 205 153 178 205 153 178 205 153 178 205 153 178 205 153 178 205 153 178 205 153 178 205 153 178 205 153 178 205 153 178 205 153 178 205 153 178 205 153 178 204 153 178 204 153 178 204 153 178 204 153 178 204 153 178 204 153 178 204 153 178 204 153 178 204 153 178 204 153 178 204 153 178 204 153 178 204 153 178 204 153 178 204 153 178 204 153 178 204 153 178 204 153 178 204 153 178 204 153 178 204 153 178 204 153 178 204 153 178 204 153 178 204 153 178 204 153 178 204 153 178 204 153 178 204 153 178 204 153 178 204 153 178 204 153 178 204 153 178 204 153 178 204 153 178 204 153 178 204 153 178 204 153 178 204 153 178 204 153 178 204 153 178 204 153 178 204 153 178 204 153 178 204 153 178 204 153 178 204 153 178 204 153 178 204 153 178 204 153 178 204 153 178 204 153 178 204 153 178 204 153 178 204 153 178 204 153 178 204 153 178 204 153 178 204 153 178 204 153 178 204 153 178 204 153 178 204 153 178 204 153 178 204 153 178 204 153 178 204 153 178 204 153 178 204 153 178 204 153 178 204 153 177 204 153 177 204 153 177 204 153 177 204 153 177 204 153 177 204 153 177 204 153 177 204 153 177 204 153 177 204 153 177 204 153 177 204 153 177 204 153 177 204 153 177 204 153 177 204 153 177 204 153 177 204 153 177 204 153 177 204 153 177 204 153 177 204 153 177 204 153 177 204 153 177 204 153 177 204 153 177 204 153 177 204 153 177 204 153 177 204 153 177 204 153 177 204 153 177 204 153 177 204 153 177 204 153 177 204 153 177 204 153 177 204 153 177 204 153 177 204 153 177 204 153 177 204 153 177 204 153 177 204 153 177 204 153 177 204 153 177 204 153 177 204 153 177 204 153 177 204 153 177 204 153 177 204 153 177 204 153 177 204 153 177 204 153 177 204 153 177 204 153 177 204 153 177 204 153 177 204 153 177 204 153 177 204 153 177 204 153 177 204 153 177 204 153 177 204 153 177 204 153 177 204 153 177 204 153 177 204 153 177 204 153 177 204 153 177 204 153 177 204 153 177 204 153 177 204 153 177 204 153 177 204 153 177 204 153 177 204 153 177 204 153 177 204 153 177 204 153 177 204 153 177 204 153 177 204 153 177 204 153 177 204 153 177 204 153 177 204 153 177 204 153 177 204 153 177 204 153 177 204 153 177 204 153 177 204 153 177 204 153 177 204 153 177 204 153 177 204 153 177 204 153 177 204 153 177 204 153 177 204 153 177 204 153 177 204 153 177 204 153 177 204 153 177 204 153 177 204 153 177 204 153 177 204 153 177 204 153 177 204 153 177 204 153 177 204 
153 177 204 153 177 204 153 177 204 153 177 204 153 177 204 153 177 204 153 177 204 153 177 204 153 177 204 153 177 204 153 177 204 153 177 204 153 177 204 153 177 204 153 177 204 153 177 204 153 177 204 153 177 204 153 177 204 153 177 204 153 177 204 153 177 204 153 177 204 153 177 204 153 177 204 153 177 204 153 177 204 153 177 204 153 177 204 153 177 204 153 177 204 153 177 204 153 177 204 153 177 204 153 177 204 153 177 204 153 177 204 153 177 204 153 177 204 153 177 204 153 177 204 153 177 204 153 177 204 153 177 204 153 177 204 153 177 204 153 177 204 153 177 204 153 177 204 153 177 204 153 177 204 153 177 204 153 177 204 153 177 204 153 177 204 153 177 204 153 177 204 153 177 204 153 177 204 153 177 204 153 177 204 153 177 204 153 177 204 153 177 204 153 177 204 153 177 204 153 177 204 153 177 204 153 177 204 153 177 204 153 177 204 153 177 204 153 177 204 153 177 204 153 177 204 153 177 204 153 177 204 153 177 204 153 177 204 153 177 204 153 177 204 153 177 204 153 177 204 153 177 204 153 177 204 153 177 204 153 177 204 153 177 204 153 177 204 153 177 204 153 177 204 153 177 204 153 177 204 153 177 204 153 177 204 153 177 204 153 177 204 153 177 204 153 177 204 153 177 204 153 177 204 153 177 204 153 177 204 153 177 204 153 177 204 153 177 204 153 177 204 153 177 204 153 177 204 153 177 204 153 177 204 153 177 204 153 177 204 153 177 204 153 177 204 153 177 204 153 177 204 153 177 204 153 177 204 153 177 204 153 177 204 153 177 204 153 177 204 153 177 204 153 177 204 153 177 204 153 177 204 153 178 204 153 178 204 153 178 204 153 178 204 153 178 204 153 178 204 153 178 204 153 178 204 153 178 204 153 178 204 153 178 204 153 178 204 153 178 204 153 178 204 153 178 204 153 178 204 153 178 204 153 178 204 153 178 204 153 178 204 153 178 204 153 178 204 153 178 204 153 178 204 153 178 204 153 178 204 153 178 204 153 178 204 153 178 204 153 178 204 153 178 204 153 178 204 153 178 204 153 178 204 153 178 204 153 178 204 153 178 204 153 178 204 153 178 204 153 178 204 153 178 204 153 178 204 153 178 204 153 178 204 153 178 204 153 178 204 153 178 204 153 178 204 153 178 204 153 178 204 153 178 204 153 178 204 153 178 204 153 178 204 153 178 204 153 178 204 153 178 204 153 178 204 153 178 204 153 178 204 153 178 204 153 178 204 153 178 204 153 178 204 153 178 204 153 178 204 153 178 204 153 178 204 153 178 204 153 178 204 153 178 204 153 178 204 153 178 204 153 178 204 153 178 205 153 178 205 153 178 205 153 178 205 153 178 205 153 178 205 153 178 205 153 178 205 153 178 205 153 178 205 153 178 205 153 178 205 153 178 205 153 178 205 153 178 205 153 178 205 153 178 205 153 178 205 153 178 205 153 178 205 153 178 205 153 178 205 153 178 205 153 178 205 153 178 205 153 178 205 153 178 205 153 178 205 153 178 205 153 178 205 153 178 205 153 178 205 153 178 205 153 178 205 153 178 205 153 178 205 153 178 205 153 178 205 153 178 205 153 178 205 153 178 205 153 178 205 153 178 205 153 178 205 153 178 205 153 178 205 153 178 205 153 178 205 153 178 205 153 178 205 153 178 205 153 178 205 153 178 205 153 178 205 153 178 205 153 178 205 153 178 205 153 178 205 153 178 205 153 178 205 153 178 205 153 178 205 153 178 205 153 178 205 153 178 205 153 178 205 153 178 205 153 178 205 153 178 205 153 178 205 153 178 205 153 178 205 153 178 205 153 178 205 153 178 205 153 178 205 153 178 205 153 178 205 153 178 205 153 178 205 153 178 205 153 178 205 153 178 205 153 178 205 153 178 205 153 178 205 153 178 205 153 178 205 153 178 205 153 178 205 153 178 205 153 178 205 153 178 205 153 178 205 153 178 205 153 178 205 153 178 205 153 178 205 153 178 205 153 178 205 153 178 205 153 178 205 153 178 205 153 178 205 153 178 205 153 178 205 153 178 205 153 178 205 153 178 205 153 178 205 153 178 205 153 178 205 153 178 205 153 178 205 153 178 205 153 178 205 153 178 205 153 178 205 153 178 205 153 178 205 153 178 205 153 178 205 153 178 205 153 178 205 153 178 205 153 178 205 153 178 205 153 178 205 153 178 205 153 178 205 153 178 205 153 178 205 153 178 205 153 178 205 153 178 205 153 178 205 153 178 205 153 178 205 153 178 205 153 178 205 153 178 205 153 178 205 153 178 205 153 178 205 153 178 205 153 178 205 153 178 205 153 178 205 153 178 205 153 178 205 153 178 205 153 178 205 153 178 205 153 178 205 153 178 205 153 178 205 153 178 205 153 178 205 153 178 205 153 178 205 153 178 205 153 178 205 153 178 205 153 178 205 153 178 205 153 178 205 153 178 205 153 178 205 153 178 205 153 178 205 153 178 205 153 178 205 153 178 205 153 178 205 153 178 205 153 178 205 153 178 205 153 178 205 153 178 205 153 178 205 153 178 205 153 178 205 153 178 205 153 178 205 153 178 205 153 178 205 153 178 205 153 178 205 153 178 205 153 178 205 153 178 205 153 178 205 153 178 205 153 178 205 153 178 205 153 178 205 153 178 205 153 178 205 153 178 205 153 178 205 153 178 205 153 178 205 153 178 205 153 178 205 153 178 205 153 178 205 153 178 205 153 178 205 153 178 205 153 178 205 153 178 205 153 178 205 153 178 205 153 178 205 153 178 205 153 178 205 153 178 205 153 178 205 153 178 205 153 178 205 153 178 205 153 178 205 153 178 205 153 178 205 153 178 205 153 178 205 153 178 205 153 178 205 153 178 205 153 178 205 153 178 205 153 178 205 153 178 205 153 178 205 153 178 205 153 178 205 153 178 205 153 178 205 153 178 205 153 178 205 153 178 205 153 178 205 153 178 205 153 178 205 153 178 205 153 178 205 153 178 205 153 178 205 153 178 205 153 178 205 153 178 205 153 178 205 153 178 205 153 178 205 153 178 205 153 178 205 153 178 205 153 178 205 153 178 205 153 178 205 153 178 205 153 178 205 153 178 205 153 178 205 153 178 205 153 178 205 153 178 205 153 178 205 153 178 205 153 178 205 153 178 205 153 178 205 153 178 205 153 178 205 153 178 205 153 178 205 153 178 205 153 178 205 153 178 205 153 178 205 153 178 205 153 178 205 153 178 205 153 178 205 153 178 205 153 178 205 153 178 205 153 178 205 153 178 205 153 178 205 153 178 205 153 178 205 153 178 205 153 178 205 153 178 205 153 178 205 153 178 205 153 178 205 153 178 205 153 178 205 153 178 205 153 178 205 153 178 205 153 178 205 153 178 205 153 178 205 153 178 205 153 178 205 153 178 205 153 178 205 153 178 205 153 178 205 153 178 205 153 178 205 153 178 205 153 178 205 153 178 205 153 178 205 153 178 205 153 178 205 153 178 205 153 178 205 153 178 205 153 178 205 153 178 205 153 178 205 153 178 205 153 178 205 153 178 205 153 178 205 153 178 205 153 178 205 153 178 205 153 178 205 153 178 205 153 178 205 153 178 205 153 178 205 153 178 205 153 178 205 153 178 205 153 178 205 153 178 205 153 178 205 153 178 205 153 178 205 153 178 205 153 178 205 153 178 205 153 178 205 153 178 205 153 178 205 153 178 205 153 178 205 153 178 205 153 178 205 153 178 205 153 178 205 153 178 205 153 178 205 153 178 205 153 178 205 153 178 205 153 178 205 153 178 205 153 178 205 153 178 205 153 178 205 153 178 205 153 178 205 153 178 205 153 178 205 153 178 205 153 178 205 153 178 205 153 178 205 153 178 205 153 178 205 153 178 205 153 178 205 153 178 205 153 178 205 153 178 205 153 178 205 153 178 205 153 178 205 153 178 205 153 178 205 153 178 205 153 178 205 153 178 205 153 178 205 153 178 205 153 178 205 153 178 205 153 178 205 153 178 205 153 178 205 153 178 204 153 178 205 153 178 204 153 178 204 153 178 204 153 178 204 153 178 204 153 178 204 153 178 204 153 178 204 153 178 204 153 178 204 153 178 204 153 178 204 153 178 204 153 178 204 153 178 204 153 178 204 153 178 204 153 178 204 153 178 204 153 178 204 153 178 204 153 178 204 153 178 204 153 178 204 153 178 204 153 178 204 153 178 204 153 178 204 153 178 204 153 178 204 153 178 204 153 178 204 153 178 204 153 178 204 153 178 204 153 178 204 153 178 204 153 178 204 153 178 204 153 178 204 153 178 204 153 178 204 153 178 204 153 178 204 153 178 204 153 178 204 153 178 204 153 178 204 153 178 204 153 178 204 153 178 204 153 178 204 153 178 204 153 178 204 153 178 204 153 178 204 153 178 204 153 178 204 153 178 204 153 178 204 153 178 204 153 178 204 153 178 204 153 178 204 153 178 204 153 178 204 153 178 204 153 178 204 153 178 204 153 178 204 153 178 204 153 178 204 153 178 204 153 178 204 153 177 204 153 177 204 153 177 204 153 177 204 153 177 204 153 177 204 153 177 204 153 177 204 153 177 204 153 177 204 153 177 204 153 177 204 153 177 204 153 177 204 153 177 204 153 177 204 153 177 204 153 177 204 153 177 204 153 177 204 153 177 204 153 177 204 153 177 204 153 177 204 153 177 204 153 177 204 153 177 204 153 177 204 153 177 204 153 177 204 153 177 204 153 177 204 153 177 204 153 177 204 153 177 204 153 177 204 153 177 204 153 177 204 153 177 204 153 177 204 153 177 204 153 177 204 153 177 204 153 177 204 153 177 204 153 177 204 153 177 204 153 177 204 153 177 204 153 177 204 153 177 204 153 177 204 153 177 204 153 177 204 153 177 204 153 177 204 153 177 204 153 177 204 153 177 204 153 177 204 153 177 204 153 177 204 153 177 204 153 177 204 153 177 204 153 177 204 153 177 204 153 177 204 153 177 204 153 177 204 153 177 204 153 177 204 153 177 204 153 177 204 153 177 204 153 177 204 153 177 204 153 177 204 153 177 204 153 177 204 153 177 204 153 177 204 153 177 204 153 177 204 153 177 204 153 177 204 153 177 204 153 177 204 153 177 204 153 177 204 153 177 204 153 177 204 153 177 204 153 177 204 153 177 204 153 177 204 153 177 204 153 177 204 153 177 204 153 177 204 153 177 204 153 177 204 153 177 204 153 177 204 153 177 204 153 177 204 153 177 204 153 177 204 153 177 204 153 177 204 153 177 204 153 177 204 153 177 204 153 177 204 153 177 204 153 177 204 153 177 204 153 177 204 153 177 204 153 177 204 153 177 204 153 177 204 153 177 204 153 177 204 153 177 204 
153 177 204 153 177 204 153 177 204 153 177 204 153 177 204 153 177 204 153 177 204 153 177 204 153 177 204 153 177 204 153 177 204 153 177 204 153 177 204 153 177 204 153 177 204 153 177 204 153 177 204 153 177 204 153 177 204 153 177 204 153 177 204 153 177 204 153 177 204 153 177 204 153 177 204 153 177 204 153 177 204 153 177 204 153 177 204 153 177 204 153 177 204 153 177 204 153 177 204 153 177 204 153 177 204 153 177 204 153 177 204 153 177 204 153 177 204 153 177 204 153 177 204 153 177 204 153 177 204 153 177 204 153 177 204 153 177 204 153 177 204 153 177 204 153 177 204 153 177 204 153 177 204 153 177 204 153 177 204 153 177 204 153 177 204 153 177 204 153 177 204 153 177 204 153 177 204 153 177 204 153 177 204 153 177 204 153 177 204 153 177 204 153 177 204 153 177 204 153 177 204 153 177 204 153 177 204 153 177 204 153 177 204 153 177 204 153 177 204 153 177 204 153 177 204 153 177 204 153 177 204 153 177 204 153 177 204 153 177 204 153 177 204 153 177 204 153 177 204 153 177 204 153 177 204 153 177 204 153 177 204 153 177 204 153 177 204 153 177 204 153 177 204 153 177 204 153 177 204 153 177 204 153 177 204 153 177 204 153 177 204 153 177 204 153 177 204 153 177 204 153 177 204 153 177 204 153 177 204 153 177 204 153 177 204 153 177 204 153 177 204 153 177 204 153 177 204 153 177 204 153 177 204 153 177 204 153 177 204 153 177 204 153 177 204 153 177 204 153 177 204 153 177 204 153 177 204 153 177 204 153 177 204 153 177 204 153 177 204 153 177 204 153 177 204 153 177 204 153 177 204 153 177 204 153 177 204 153 177 204 153 177 204 153 177 204 153 177 204 153 177 204 153 177 204 153 177 204 153 178 204 153 177 204 153 178 204 153 178 204 153 178 204 153 178 204 153 178 204 153 178 204 153 178 204 153 178 204 153 178 204 153 178 204 153 178 204 153 178 204 153 178 204 153 178 204 153 178 204 153 178 204 153 178 204 153 178 204 153 178 204 153 178 204 153 178 204 153 178 204 153 178 204 153 178 204 153 178 204 153 178 204 153 178 204 153 178 204 153 178 204 153 178 204 153 178 204 153 178 204 153 178 204 153 178 204 153 178 204 153 178 204 153 178 204 153 178 204 153 178 204 153 178 204 153 178 204 153 178 204 153 178 204 153 178 204 153 178 204 153 178 204 153 178 204 153 178 204 153 178 204 153 178 204 153 178 204 153 178 204 153 178 204 153 178 204 153 178 204 153 178 204 153 178 204 153 178 204 153 178 204 153 178 204 153 178 204 153 178 204 153 178 204 153 178 204 153 178 204 153 178 204 153 178 204 153 178 204 153 178 204 153 178 204 153 178 204 153 178 204 153 178 204 153 178 204 153 178 204 153 178 204 153 178 205 153 178 205 153 178 205 153 178 205 153 178 205 153 178 205 153 178 205 153 178 205 153 178 205 153 178 205 153 178 205 153 178 205 153 178 205 153 178 205 153 178 205 153 178 205 153 178 205 153 178 205 153 178 205 153 178 205 153 178 205 153 178 205 153 178 205 153 178 205 153 178 205 153 178 205 153 178 205 153 178 205 153 178 205 153 178 205 153 178 205 153 178 205 153 178 205 153 178 205 153 178 205 153 178 205 153 178 205 153 178 205 153 178 205 153 178 205 153 178 205 153 178 205 153 178 205 153 178 205 153 178 205 153 178 205 153 178 205 153 178 205 153 178 205 153 178 205 153 178 205 153 178 205 153 178 205 153 178 205 153 178 205 153 178 205 153 178 205 153 178 205 153 178 205 153 178 205 153 178 205 153 178 205 153 178 205 153 178 205 153 178 205 153 178 205 153 178 205 153 178 205 153 178 205 153 178 205 153 178 205 153 178 205 153 178 205 153 178 205 153 178 205 153 178 205 153 178 205 153 178 205 153 178 205 153 178 205 153 178 205 153 178 205 153 178 205 153 178 205 153 178 205 153 178 205 153 178 205 153 178 205 153 178 205 153 178 205 153 178 205 153 178 205 153 178 205 153 178 205 153 178 205 153 178 205 153 178 205 153 178 205 153 178 205 153 178 205 153 178 205 153 178 205 153 178 205 153 178 205 153 178 205 153 178 205 153 178 205 153 178 205 153 178 205 153 178 205 153 178 205 153 178 205 153 178 205 153 178 205 153 178 205 153 178 205 153 178 205 153 178 205 153 178 205 153 178 205 153 178 205 153 178 205 153 178 205 153 178 205 153 178 205 153 178 205 153 178 205 153 178 205 153 178 205 153 178 205 153 178 205 153 178 205 153 178 205 153 178 205 153 178 205 153 178 205 153 178 205 153 178 205 153 178 205 153 178 205 153 178 205 153 178 205 153 178 205 153 178 205 153 178 205 153 178 205 153 178 205 153 178 205 153 178 205 153 178 205 153 178 205 153 178 205 153 178 205 153 178 205 153 178 205 153 178 205 153 178 205 153 178 205 153 178 205 153 178 205 153 178 205 153 178 205 153 178 205 153 178 205 153 178 205 153 178 205 153 178 205 153 178 205 153 178 205 153 178 205 153 178 205 153 178 205 153 178 205 153 178 205 153 178 205 153 178 205 153 178 205 153 178 205 153 178 205 153 178 205 153 178 205 153 178 205 153 178 205 153 178 205 153 178 205 153 178 205 153 178 205 153 178 205 153 178 205 153 178 205 153 178 205 153 178 205 153 178 205 153 178 205 153 178 205 153 178 205 153 178 205 153 178 205 153 178 205 153 178 205 153 178 205 153 178 205 153 178 205 153 178 205 153 178 205 153 178 205 153 178 205 153 178 205 153 178 205 153 178 205 153 178 205 153 178 205 153 178 205 153 178 205 153 178 205 153 178 205 153 178 205 153 178 205 153 178 205 153 178 205 153 178 205 153 178 205 153 178 205 153 178 205 153 178 205 153 178 205 153 178 205 153 178 205 153 178 205 153 178 205 153 178 205 153 178 205 153 178 205 153 178 205 153 178 205 153 178 205 153 178 205 153 178 205 153 178 205 153 178 205 153 178 205 153 178 205 153 178 205 153 178 205 153 178 205 153 178 205 153 178 205 153 178 205 153 178 205 153 178 205 153 178 205 153 178 205 153 178 205 153 178 205 153 178 205 153 178 205 153 178 205 153 178 205 153 178 205 153 178 205 153 178 205 153 178 205 153 178 205 153 178 205 153 178 205 153 178 205 153 178 205 153 178 205 153 178 205 153 178 205 153 178 205 153 178 205 153 178 205 153 178 205 153 178 205 153 178 205 153 178 205 153 178 205 153 178 205 153 178 205 153 178 205 153 178 205 153 178 205 153 178 205 153 178 205 153 178 205 153 178 205 153 178 205 153 178 205 153 178 205 153 178 205 153 178 205 153 178 205 153 178 205 153 178 205 153 178 205 153 178 205 153 178 205 153 178 205 153 178 205 153 178 205 153 178 205 153 178 205 153 178 205 153 178 205 153 178 205 153 178 205 153 178 205 153 178 205 153 178 205 153 178 205 153 178 205 153 178 205 153 178 205 153 178 205 153 178 205 153 178 205 153 178 205 153 178 205 153 178 205 153 178 205 153 178 205 153 178 205 153 178 205 153 178 205 153 178 205 153 178 205 153 178 205 153 178 205 153 178 205 153 178 205 153 178 205 153 178 205 153 178 205 153 178 205 153 178 205 153 178 205 153 178 205 153 178 205 153 178 205 153 178 205 153 178 205 153 178 205 153 178 205 153 178 205 153 178 205 153 178 205 153 178 205 153 178 205 153 178 205 153 178 205 153 178 205 153 178 205 153 178 205 153 178 205 153 178 205 153 178 205 153 178 205 153 178 205 153 178 205 153 178 205 153 178 205 153 178 205 153 178 205 153 178 205 153 178 205 153 178 205 153 178 205 153 178 205 153 178 205 153 178 205 153 178 205 153 178 204 153 178 204 153 178 204 153 178 204 153 178 204 153 178 204 153 178 204 153 178 204 153 178 204 153 178 204 153 178 204 153 178 204 153 178 204 153 178 204 153 178 204 153 178 204 153 178 204 153 178 204 153 178 204 153 178 204 153 178 204 153 178 204 153 178 204 153 178 204 153 178 204 153 178 204 153 178 204 153 178 204 153 178 204 153 178 204 153 178 204 153 178 204 153 178 204 153 178 204 153 178 204 153 178 204 153 178 204 153 178 204 153 178 204 153 178 204 153 178 204 153 178 204 153 178 204 153 178 204 153 178 204 153 178 204 153 178 204 153 178 204 153 178 204 153 178 204 153 178 204 153 178 204 153 178 204 153 178 204 153 178 204 153 178 204 153 178 204 153 178 204 153 178 204 153 178 204 153 178 204 153 178 204 153 178 204 153 178 204 153 178 204 153 178 204 153 178 204 153 178 204 153 178 204 153 178 204 153 178 204 153 178 204 153 178 204 153 178 204 153 178 204 153 178 204 153 178 204 153 178 204 153 178 204 153 177 204 153 177 204 153 177 204 153 177 204 153 177 204 153 177 204 153 177 204 153 177 204 153 177 204 153 177 204 153 177 204 153 177 204 153 177 204 153 177 204 153 177 204 153 177 204 153 177 204 153 177 204 153 177 204 153 177 204 153 177 204 153 177 204 153 177 204 153 177 204 153 177 204 153 177 204 153 177 204 153 177 204 153 177 204 153 177 204 153 177 204 153 177 204 153 177 204 153 177 204 153 177 204 153 177 204 153 177 204 153 177 204 153 177 204 153 177 204 153 177 204 153 177 204 153 177 204 153 177 204 153 177 204 153 177 204 153 177 204 153 177 204 153 177 204 153 177 204 153 177 204 153 177 204 153 177 204 153 177 204 153 177 204 153 177 204 153 177 204 153 177 204 153 177 204 153 177 204 153 177 204 153 177 204 153 177 204 153 177 204 153 177 204 153 177 204 153 177 204 153 177 204 153 177 204 153 177 204 153 177 204 153 177 204 153 177 204 153 177 204 153 177 204 153 177 204 153 177 204 153 177 204 153 177 204 153 177 204 153 177 204 153 177 204 153 177 204 153 177 204 153 177 204 153 177 204 153 177 204 153 177 204 153 177 204 153 177 204 153 177 204 153 177 204 153 177 204 153 177 204 153 177 204 153 177 204 153 177 204 153 177 204 153 177 204 153 177 204 153 177 204 153 177 204 153 177 204 153 177 204 153 177 204 153 177 204 153 177 204 153 177 204 153 177 204 153 177 204 153 177 204 153 177 204 153 177 204 153 177 204 153 177 204 153 177 204 153 177 204 153 177 204 153 177 204 153 177 204 153 177 204 153 177 204 153 177 204 153 177 204 153 177 204 153 177 204 153 177 204 153 177 204 153 177 204 153 177 204 153 177 204 153 177 204 153 177 204 153 177 204 153 177 204 
152 177 204 152 177 204 152 177 204 152 177 204 152 177 204 153 177 204 153 177 204 153 177 204 153 177 204 153 177 204 153 177 204 153 177 204 153 177 204 153 177 204 153 177 204 153 177 204 153 177 204 153 177 204 153 177 204 153 177 204 153 177 204 153 177 204 153 177 204 153 177 204 153 177 204 153 177 204 153 177 204 153 177 204 153 177 204 153 177 204 153 177 204 153 177 204 153 177 204 153 177 204 153 177 204 153 177 204 153 177 204 153 177 204 153 177 204 153 177 204 153 177 204 153 177 204 153 177 204 153 177 204 153 177 204 153 177 204 153 177 204 153 177 204 153 177 204 153 177 204 153 177 204 153 177 204 153 177 204 153 177 204 153 177 204 153 177 204 153 177 204 153 177 204 153 177 204 153 177 204 153 177 204 153 177 204 153 177 204 153 177 204 153 177 204 153 177 204 153 177 204 153 177 204 153 177 204 153 177 204 153 177 204 153 177 204 153 177 204 153 177 204 153 177 204 153 177 204 153 177 204 153 177 204 153 177 204 153 177 204 153 177 204 153 177 204 153 177 204 153 177 204 153 177 204 153 177 204 153 177 204 153 177 204 153 177 204 153 177 204 153 177 204 153 177 204 153 177 204 153 177 204 153 177 204 153 177 204 153 177 204 153 177 204 153 177 204 153 177 204 153 177 204 153 177 204 153 177 204 153 177 204 153 177 204 153 177 204 153 177 204 153 177 204 153 177 204 153 177 204 153 177 204 153 177 204 153 177 204 153 177 204 153 177 204 153 177 204 153 177 204 153 177 204 153 177 204 153 177 204 153 177 204 153 177 204 153 177 204 153 177 204 153 177 204 153 177 204 153 177 204 153 177 204 153 177 204 153 177 204 153 177 204 153 177 204 153 177 204 153 177 204 153 177 204 153 177 204 153 177 204 153 177 204 153 177 204 153 177 204 153 177 204 153 177 204 153 177 204 153 177 204 153 177 204 153 178 204 153 177 204 153 178 204 153 177 204 153 178 204 153 178 204 153 178 204 153 178 204 153 178 204 153 178 204 153 178 204 153 178 204 153 178 204 153 178 204 153 178 204 153 178 204 153 178 204 153 178 204 153 178 204 153 178 204 153 178 204 153 178 204 153 178 204 153 178 204 153 178 204 153 178 204 153 178 204 153 178 204 153 178 204 153 178 204 153 178 204 153 178 204 153 178 204 153 178 204 153 178 204 153 178 204 153 178 204 153 178 204 153 178 204 153 178 204 153 178 204 153 178 204 153 178 204 153 178 204 153 178 204 153 178 204 153 178 204 153 178 204 153 178 204 153 178 204 153 178 204 153 178 204 153 178 204 153 178 204 153 178 204 153 178 204 153 178 204 153 178 204 153 178 204 153 178 204 153 178 204 153 178 204 153 178 204 153 178 204 153 178 204 153 178 204 153 178 204 153 178 204 153 178 204 153 178 204 153 178 204 153 178 204 153 178 204 153 178 204 153 178 204 153 178 204 153 178 204 153 178 204 153 178 204 153 178 204 153 178 204 153 178 204 153 178 204 153 178 204 153 178 205 153 178 205 153 178 205 153 178 205 153 178 205 153 178 205 153 178 205 153 178 205 153 178 205 153 178 205 153 178 205 153 178 205 153 178 205 153 178 205 153 178 205 153 178 205 153 178 205 153 178 205 153 178 205 153 178 205 153 178 205 153 178 205 153 178 205 153 178 205 153 178 205 153 178 205 153 178 205 153 178 205 153 178 205 153 178 205 153 178 205 153 178 205 153 178 205 153 178 205 153 178 205 153 178 205 153 178 205 153 178 205 153 178 205 153 178 205 153 178 205 153 178 205 153 178 205 153 178 205 153 178 205 153 178 205 153 178 205 153 178 205 153 178 205 153 178 205 153 178 205 153 178 205 153 178 205 153 178 205 153 178 205 153 178 205 153 178 205 153 178 205 153 178 205 153 178 205 153 178 205 153 178 205 153 178 205 153 178 205 153 178 205 153 178 205 153 178 205 153 178 205 153 178 205 153 178 205 153 178 205 153 178 205 153 178 205 153 178 205 153 178 205 153 178 205 153 178 205 153 178 205 153 178 205 153 178 205 153 178 205 153 178 205 153 178 205 153 178 205 153 178 205 153 178 205 153 178 205 153 178 205 153 178 205 153 178 205 153 178 205 153 178 205 153 178 205 153 178 205 153 178 205 153 178 205 153 178 205 153 178 205 153 178 205 153 178 205 153 178 205 153 178 205 153 178 205 153 178 205 153 178 205 153 178 205 153 178 205 153 178 205 153 178 205 153 178 205 153 178 205 153 178 205 153 178 205 153 178 205 153 178 205 153 178 205 153 178 205 153 178 205 153 178 205 153 178 205 153 178 205 153 178 205 153 178 205 153 178 205 153 178 205 153 178 205 153 178 205 153 178 205 153 178 205 153 178 205 153 178 205 153 178 205 153 178 205 153 178 205 153 178 205 153 178 205 153 178 205 153 178 205 153 178 205 153 178 205 153 178 205 153 178 205 153 178 205 153 178 205 153 178 205 153 178 205 153 178 205 153 178 205 153 178 205 153 178 205 153 178 205 153 178 205 153 178 205 153 178 205 153 178 205 153 178 205 153 178 205 153 178 205 153 178 205 153 178 205 153 178 205 153 178 205 153 178 205 153 178 205 153 178 205 153 178 205 153 178 205 153 178 205 153 178 205 153 178 205 153 178 205 153 178 205 153 178 205 153 178 205 153 178 205 153 178 205 153 178 205 153 178 205 153 178 205 153 178 205 153 178 205 153 178 205 153 178 205 153 178 205 153 178 205 153 178 205 153 178 205 153 178 205 153 178 205 153 178 205 153 178 205 153 178 205 153 178 205 153 178 205 153 178 205 153 178 205 153 178 205 153 178 205 153 178 205 153 178 205 153 178 205 153 178 205 153 178 205 153 178 205 153 178 205 153 178 205 153 178 205 153 178 205 153 178 205 153 178 205 153 178 205 153 178 205 153 178 205 153 178 205 153 178 205 153 178 205 153 178 205 153 178 205 153 178 205 153 178 205 153 178 205 153 178 205 153 178 205 153 178 205 153 178 205 153 178 205 153 178 205 153 178 205 153 178 205 153 178 205 153 178 205 153 178 205 153 178 205 153 178 205 153 178 205 153 178 205 153 178 205 153 178 205 153 178 205 153 178 205 153 178 205 153 178 205 153 178 205 153 178 205 153 178 205 153 178 205 153 178 205 153 178 205 153 178 205 153 178 205 153 178 205 153 178 205 153 178 205 153 178 205 153 178 205 153 178 205 153 178 205 153 178 205 153 178 205 153 178 205 153 178 205 153 178 205 153 178 205 153 178 205 153 178 205 153 178 205 153 178 205 153 178 205 153 178 205 153 178 205 153 178 205 153 178 205 153 178 205 153 178 205 153 178 205 153 178 205 153 178 205 153 178 205 153 178 205 153 178 205 153 178 205 153 178 205 153 178 205 153 178 205 153 178 205 153 178 205 153 178 205 153 178 205 153 178 205 153 178 205 153 178 205 153 178 205 153 178 205 153 178 205 153 178 205 153 178 205 153 178 205 153 178 205 153 178 205 153 178 205 153 178 205 153 178 205 153 178 205 153 178 205 153 178 205 153 178 205 153 178 205 153 178 205 153 178 205 153 178 205 153 178 205 153 178 205 153 178 205 153 178 205 153 178 205 153 178 205 153 178 205 153 178 205 153 178 205 153 178 205 153 178 205 153 178 205 153 178 205 153 178 205 153 178 205 153 178 205 153 178 205 153 178 205 153 178 205 153 178 205 153 178 205 153 178 205 153 178 205 153 178 205 153 178 205 153 178 205 153 178 205 153 178 205 153 178 205 153 178 205 153 178 205 153 178 205 153 178 205 153 178 204 153 178 204 153 178 204 153 178 204 153 178 204 153 178 204 153 178 204 153 178 204 153 178 204 153 178 204 153 178 204 153 178 204 153 178 204 153 178 204 153 178 204 153 178 204 153 178 204 153 178 204 153 178 204 153 178 204 153 178 204 153 178 204 153 178 204 153 178 204 153 178 204 153 178 204 153 178 204 153 178 204 153 178 204 153 178 204 153 178 204 153 178 204 153 178 204 153 178 204 153 178 204 153 178 204 153 178 204 153 178 204 153 178 204 153 178 204 153 178 204 153 178 204 153 178 204 153 178 204 153 178 204 153 178 204 153 178 204 153 178 204 153 178 204 153 178 204 153 178 204 153 178 204 153 178 204 153 178 204 153 178 204 153 178 204 153 178 204 153 178 204 153 178 204 153 178 204 153 178 204 153 178 204 153 178 204 153 178 204 153 178 204 153 178 204 153 178 204 153 178 204 153 178 204 153 178 204 153 178 204 153 178 204 153 178 204 153 178 204 153 178 204 153 178 204 153 178 204 153 178 204 153 178 204 153 178 204 153 177 204 153 177 204 153 178 204 153 177 204 153 177 204 153 177 204 153 177 204 153 177 204 153 177 204 153 177 204 153 177 204 153 177 204 153 177 204 153 177 204 153 177 204 153 177 204 153 177 204 153 177 204 153 177 204 153 177 204 153 177 204 153 177 204 153 177 204 153 177 204 153 177 204 153 177 204 153 177 204 153 177 204 153 177 204 153 177 204 153 177 204 153 177 204 153 177 204 153 177 204 153 177 204 153 177 204 153 177 204 153 177 204 153 177 204 153 177 204 153 177 204 153 177 204 153 177 204 153 177 204 153 177 204 153 177 204 153 177 204 153 177 204 153 177 204 153 177 204 153 177 204 153 177 204 153 177 204 153 177 204 153 177 204 153 177 204 153 177 204 153 177 204 153 177 204 153 177 204 153 177 204 153 177 204 153 177 204 153 177 204 153 177 204 153 177 204 153 177 204 153 177 204 153 177 204 153 177 204 153 177 204 153 177 204 153 177 204 153 177 204 153 177 204 153 177 204 153 177 204 153 177 204 153 177 204 153 177 204 153 177 204 153 177 204 153 177 204 153 177 204 153 177 204 153 177 204 153 177 204 153 177 204 153 177 204 153 177 204 153 177 204 153 177 204 153 177 204 153 177 204 153 177 204 153 177 204 153 177 204 153 177 204 153 177 204 153 177 204 153 177 204 153 177 204 153 177 204 153 177 204 153 177 204 153 177 204 153 177 204 153 177 204 153 177 204 153 177 204 153 177 204 153 177 204 153 177 204 153 177 204 153 177 204 153 177 204 153 177 204 153 177 204 153 177 204 153 177 204 153 177 204 153 177 204 153 177 204 153 177 204 153 177 204 153 177 204 153 177 204 153 177 204 153 177 204 153 177 204 153 177 204 153 177 204 153 177 204 153 177 204 153 177 204 153 177 204 153 177 204 153 177 204 153 177 204 153 177 204 153 177 204 153 177 204 153 177 204 152 177 204 152 177 204 152 177 204 152 177 204 152 177 204 
152 177 204 152 177 204 152 177 204 152 177 204 152 177 204 152 177 204 152 177 204 152 177 204 152 177 204 152 177 204 152 177 204 152 177 204 152 177 204 153 177 204 153 177 204 153 177 204 153 177 204 153 177 204 153 177 204 153 177 204 153 177 204 153 177 204 153 177 204 153 177 204 153 177 204 153 177 204 153 177 204 153 177 204 153 177 204 153 177 204 153 177 204 153 177 204 153 177 204 153 177 204 153 177 204 153 177 204 153 177 204 153 177 204 153 177 204 153 177 204 153 177 204 153 177 204 153 177 204 153 177 204 153 177 204 153 177 204 153 177 204 153 177 204 153 177 204 153 177 204 153 177 204 153 177 204 153 177 204 153 177 204 153 177 204 153 177 204 153 177 204 153 177 204 153 177 204 153 177 204 153 177 204 153 177 204 153 177 204 153 177 204 153 177 204 153 177 204 153 177 204 153 177 204 153 177 204 153 177 204 153 177 204 153 177 204 153 177 204 153 177 204 153 177 204 153 177 204 153 177 204 153 177 204 153 177 204 153 177 204 153 177 204 153 177 204 153 177 204 153 177 204 153 177 204 153 177 204 153 177 204 153 177 204 153 177 204 153 177 204 153 177 204 153 177 204 153 177 204 153 177 204 153 177 204 153 177 204 153 177 204 153 177 204 153 177 204 153 177 204 153 177 204 153 177 204 153 177 204 153 177 204 153 177 204 153 177 204 153 177 204 153 177 204 153 177 204 153 177 204 153 177 204 153 177 204 153 177 204 153 177 204 153 177 204 153 177 204 153 177 204 153 177 204 153 177 204 153 177 204 153 177 204 153 177 204 153 177 204 153 177 204 153 177 204 153 177 204 153 177 204 153 177 204 153 177 204 153 177 204 153 177 204 153 177 204 153 177 204 153 177 204 153 177 204 153 177 204 153 177 204 153 177 204 153 177 204 153 177 204 153 177 204 153 177 204 153 177 204 153 177 204 153 177 204 153 177 204 153 177 204 153 177 204 153 177 204 153 177 204 153 177 204 153 177 204 153 177 204 153 177 204 153 177 204 153 177 204 153 177 204 153 177 204 153 178 204 153 178 204 153 178 204 153 178 204 153 178 204 153 178 204 153 178 204 153 178 204 153 178 204 153 178 204 153 178 204 153 178 204 153 178 204 153 178 204 153 178 204 153 178 204 153 178 204 153 178 204 153 178 204 153 178 204 153 178 204 153 178 204 153 178 204 153 178 204 153 178 204 153 178 204 153 178 204 153 178 204 153 178 204 153 178 204 153 178 204 153 178 204 153 178 204 153 178 204 153 178 204 153 178 204 153 178 204 153 178 204 153 178 204 153 178 204 153 178 204 153 178 204 153 178 204 153 178 204 153 178 204 153 178 204 153 178 204 153 178 204 153 178 204 153 178 204 153 178 204 153 178 204 153 178 204 153 178 204 153 178 204 153 178 204 153 178 204 153 178 204 153 178 204 153 178 204 153 178 204 153 178 204 153 178 204 153 178 204 153 178 204 153 178 204 153 178 204 153 178 204 153 178 204 153 178 204 153 178 204 153 178 204 153 178 204 153 178 204 153 178 204 153 178 204 153 178 204 153 178 204 153 178 204 153 178 204 153 178 204 153 178 204 153 178 204 153 178 204 153 178 204 153 178 204 153 178 205 153 178 205 153 178 205 153 178 205 153 178 205 153 178 205 153 178 205 153 178 205 153 178 205 153 178 205 153 178 205 153 178 205 153 178 205 153 178 205 153 178 205 153 178 205 153 178 205 153 178 205 153 178 205 153 178 205 153 178 205 153 178 205 153 178 205 153 178 205 153 178 205 153 178 205 153 178 205 153 178 205 153 178 205 153 178 205 153 178 205 153 178 205 153 178 205 153 178 205 153 178 205 153 178 205 153 178 205 153 178 205 153 178 205 153 178 205 153 178 205 153 178 205 153 178 205 153 178 205 153 178 205 153 178 205 153 178 205 153 178 205 153 178 205 153 178 205 153 178 205 153 178 205 153 178 205 153 178 205 153 178 205 153 178 205 153 178 205 153 178 205 153 178 205 153 178 205 153 178 205 153 178 205 153 178 205 153 178 205 153 178 205 153 178 205 153 178 205 153 178 205 153 178 205 153 178 205 153 178 205 153 178 205 153 178 205 153 178 205 153 178 205 153 178 205 153 178 205 153 178 205 153 178 205 153 178 205 153 178 205 153 178 205 153 178 205 153 178 205 153 178 205 153 178 205 153 178 205 153 178 205 153 178 205 153 178 205 153 178 205 153 178 205 153 178 205 153 178 205 153 178 205 153 178 205 153 178 205 153 178 205 153 178 205 153 178 205 153 178 205 153 178 205 153 178 205 153 178 205 153 178 205 153 178 205 153 178 205 153 178 205 153 178 205 153 178 205 153 178 205 153 178 205 153 178 205 153 178 205 153 178 205 153 178 205 153 178 205 153 178 205 153 178 205 153 178 205 153 178 205 153 178 205 153 178 205 153 178 205 153 178 205 153 178 205 153 178 205 153 178 205 153 178 205 153 178 205 153 178 205 153 178 205 153 178 205 153 178 205 153 178 205 153 178 205 153 178 205 153 178 205 153 178 205 153 178 205 153 178 205 153 178 205 153 178 205 153 178 205 153 178 205 153 178 205 153 178 205 153 178 205 153 178 205 153 178 205 153 178 205 153 178 205 153 178 205 153 178 205 153 178 205 153 178 205 153 178 205 153 178 205 153 178 205 153 178 205 153 178 205 153 178 205 153 178 205 153 178 205 153 178 205 153 178 205 153 178 205 153 178 205 153 178 205 153 178 205 153 178 205 153 178 205 153 178 205 153 178 205 153 178 205 153 178 205 153 178 205 153 178 205 153 178 205 153 178 205 153 178 205 153 178 205 153 178 205 153 178 205 153 178 205 153 178 205 153 178 205 153 178 205 153 178 205 153 178 205 153 178 205 153 178 205 153 178 205 153 178 205 153 178 205 153 178 205 153 178 205 153 178 205 153 178 205 153 178 205 153 178 205 153 178 205 153 178 205 153 178 205 153 178 205 153 178 205 153 178 205 153 178 205 153 178 205 153 178 205 153 178 205 153 178 205 153 178 205 153 178 205 153 178 205 153 178 205 153 178 205 153 178 205 153 178 205 153 178 205 153 178 205 153 178 205 153 178 205 153 178 205 153 178 205 153 178 205 153 178 205 153 178 205 153 178 205 153 178 205 153 178 205 153 178 205 153 178 205 153 178 205 153 178 205 153 178 205 153 178 205 153 178 205 153 178 205 153 178 205 153 178 205 153 178 205 153 178 205 153 178 205 153 178 205 153 178 205 153 178 205 153 178 205 153 178 205 153 178 205 153 178 205 153 178 205 153 178 205 153 178 205 153 178 205 153 178 205 153 178 205 153 178 205 153 178 205 153 178 205 153 178 205 153 178 205 153 178 205 153 178 205 153 178 205 153 178 205 153 178 205 153 178 205 153 178 205 153 178 205 153 178 205 153 178 205 153 178 205 153 178 205 153 178 205 153 178 205 153 178 205 153 178 205 153 178 205 153 178 205 153 178 205 153 178 205 153 178 205 153 178 205 153 178 205 153 178 205 153 178 205 153 178 205 153 178 205 153 178 205 153 178 205 153 178 205 153 178 205 153 178 205 153 178 205 153 178 205 153 178 205 153 178 205 153 178 205 153 178 205 153 178 205 153 178 205 153 178 205 153 178 205 153 178 205 153 178 205 153 178 205 153 178 204 153 178 205 153 178 205 153 178 205 153 178 204 153 178 204 153 178 204 153 178 204 153 178 204 153 178 204 153 178 204 153 178 204 153 178 204 153 178 204 153 178 204 153 178 204 153 178 204 153 178 204 153 178 204 153 178 204 153 178 204 153 178 204 153 178 204 153 178 204 153 178 204 153 178 204 153 178 204 153 178 204 153 178 204 153 178 204 153 178 204 153 178 204 153 178 204 153 178 204 153 178 204 153 178 204 153 178 204 153 178 204 153 178 204 153 178 204 153 178 204 153 178 204 153 178 204 153 178 204 153 178 204 153 178 204 153 178 204 153 178 204 153 178 204 153 178 204 153 178 204 153 178 204 153 178 204 153 178 204 153 178 204 153 178 204 153 178 204 153 178 204 153 178 204 153 178 204 153 178 204 153 178 204 153 178 204 153 178 204 153 178 204 153 178 204 153 178 204 153 178 204 153 178 204 153 178 204 153 178 204 153 178 204 153 178 204 153 178 204 153 178 204 153 178 204 153 178 204 153 178 204 153 178 204 153 178 204 153 178 204 153 178 204 153 178 204 153 178 204 153 178 204 153 178 204 153 178 204 153 178 204 153 178 204 153 178 204 153 178 204 153 177 204 153 177 204 153 177 204 153 177 204 153 177 204 153 177 204 153 177 204 153 177 204 153 177 204 153 177 204 153 177 204 153 177 204 153 177 204 153 177 204 153 177 204 153 177 204 153 177 204 153 177 204 153 177 204 153 177 204 153 177 204 153 177 204 153 177 204 153 177 204 153 177 204 153 177 204 153 177 204 153 177 204 153 177 204 153 177 204 153 177 204 153 177 204 153 177 204 153 177 204 153 177 204 153 177 204 153 177 204 153 177 204 153 177 204 153 177 204 153 177 204 153 177 204 153 177 204 153 177 204 153 177 204 153 177 204 153 177 204 153 177 204 153 177 204 153 177 204 153 177 204 153 177 204 153 177 204 153 177 204 153 177 204 153 177 204 153 177 204 153 177 204 153 177 204 153 177 204 153 177 204 153 177 204 153 177 204 153 177 204 153 177 204 153 177 204 153 177 204 153 177 204 153 177 204 153 177 204 153 177 204 153 177 204 153 177 204 153 177 204 153 177 204 153 177 204 153 177 204 153 177 204 153 177 204 153 177 204 153 177 204 153 177 204 153 177 204 153 177 204 153 177 204 153 177 204 153 177 204 153 177 204 153 177 204 153 177 204 153 177 204 153 177 204 153 177 204 153 177 204 153 177 204 153 177 204 153 177 204 153 177 204 153 177 204 153 177 204 153 177 204 153 177 204 153 177 204 153 177 204 153 177 204 153 177 204 153 177 204 153 177 204 153 177 204 153 177 204 153 177 204 153 177 204 153 177 204 153 177 204 153 177 204 153 177 204 153 177 204 153 177 204 153 177 204 153 177 204 153 177 204 153 177 204 153 177 204 153 177 204 153 177 204 153 177 204 153 177 204 153 177 204 153 177 204 153 177 204 153 177 204 153 177 204 153 177 204 153 177 204 153 177 204 153 177 204 153 177 204 153 177 204 153 177 204 153 177 204 153 177 204 153 177 204 153 177 204 153 177 204 152 177 204 153 177 204 152 177 204 152 177 204 152 177 204 152 177 204 152 177 204 152 177 204 152 177 204 152 177 204 152 177 204 152 177 204 152 177 204 152 177 204 
152 177 203 152 177 203 152 177 203 152 177 203 152 177 203 152 177 203 152 177 203 152 177 204 152 177 204 152 177 204 152 177 204 152 177 204 152 177 204 152 177 204 152 177 204 152 177 204 152 177 204 152 177 204 152 177 204 152 177 204 152 177 204 153 177 204 153 177 204 153 177 204 153 177 204 153 177 204 153 177 204 153 177 204 153 177 204 153 177 204 153 177 204 153 177 204 153 177 204 153 177 204 153 177 204 153 177 204 153 177 204 153 177 204 153 177 204 153 177 204 153 177 204 153 177 204 153 177 204 153 177 204 153 177 204 153 177 204 153 177 204 153 177 204 153 177 204 153 177 204 153 177 204 153 177 204 153 177 204 153 177 204 153 177 204 153 177 204 153 177 204 153 177 204 153 177 204 153 177 204 153 177 204 153 177 204 153 177 204 153 177 204 153 177 204 153 177 204 153 177 204 153 177 204 153 177 204 153 177 204 153 177 204 153 177 204 153 177 204 153 177 204 153 177 204 153 177 204 153 177 204 153 177 204 153 177 204 153 177 204 153 177 204 153 177 204 153 177 204 153 177 204 153 177 204 153 177 204 153 177 204 153 177 204 153 177 204 153 177 204 153 177 204 153 177 204 153 177 204 153 177 204 153 177 204 153 177 204 153 177 204 153 177 204 153 177 204 153 177 204 153 177 204 153 177 204 153 177 204 153 177 204 153 177 204 153 177 204 153 177 204 153 177 204 153 177 204 153 177 204 153 177 204 153 177 204 153 177 204 153 177 204 153 177 204 153 177 204 153 177 204 153 177 204 153 177 204 153 177 204 153 177 204 153 177 204 153 177 204 153 177 204 153 177 204 153 177 204 153 177 204 153 177 204 153 177 204 153 177 204 153 177 204 153 177 204 153 177 204 153 177 204 153 177 204 153 177 204 153 177 204 153 177 204 153 177 204 153 177 204 153 177 204 153 177 204 153 177 204 153 177 204 153 177 204 153 177 204 153 177 204 153 177 204 153 177 204 153 177 204 153 177 204 153 177 204 153 177 204 153 177 204 153 177 204 153 177 204 153 177 204 153 177 204 153 177 204 153 177 204 153 177 204 153 177 204 153 177 204 153 177 204 153 177 204 153 177 204 153 177 204 153 177 204 153 178 204 153 178 204 153 178 204 153 178 204 153 178 204 153 178 204 153 178 204 153 178 204 153 178 204 153 178 204 153 178 204 153 178 204 153 178 204 153 178 204 153 178 204 153 178 204 153 178 204 153 178 204 153 178 204 153 178 204 153 178 204 153 178 204 153 178 204 153 178 204 153 178 204 153 178 204 153 178 204 153 178 204 153 178 204 153 178 204 153 178 204 153 178 204 153 178 204 153 178 204 153 178 204 153 178 204 153 178 204 153 178 204 153 178 204 153 178 204 153 178 204 153 178 204 153 178 204 153 178 204 153 178 204 153 178 204 153 178 204 153 178 204 153 178 204 153 178 204 153 178 204 153 178 204 153 178 204 153 178 204 153 178 204 153 178 204 153 178 204 153 178 204 153 178 204 153 178 204 153 178 204 153 178 204 153 178 204 153 178 204 153 178 204 153 178 204 153 178 204 153 178 204 153 178 204 153 178 204 153 178 204 153 178 204 153 178 204 153 178 204 153 178 204 153 178 204 153 178 204 153 178 204 153 178 204 153 178 204 153 178 204 153 178 204 153 178 204 153 178 204 153 178 204 153 178 204 153 178 204 153 178 204 153 178 204 153 178 204 153 178 204 153 178 204 153 178 204 153 178 204 153 178 204 153 178 204 153 178 205 153 178 204 153 178 205 153 178 205 153 178 205 153 178 205 153 178 205 153 178 205 153 178 205 153 178 205 153 178 205 153 178 205 153 178 205 153 178 205 153 178 205 153 178 205 153 178 205 153 178 205 153 178 205 153 178 205 153 178 205 153 178 205 153 178 205 153 178 205 153 178 205 153 178 205 153 178 205 153 178 205 153 178 205 153 178 205 153 178 205 153 178 205 153 178 205 153 178 205 153 178 205 153 178 205 153 178 205 153 178 205 153 178 205 153 178 205 153 178 205 153 178 205 153 178 205 153 178 205 153 178 205 153 178 205 153 178 205 153 178 205 153 178 205 153 178 205 153 178 205 153 178 205 153 178 205 153 178 205 153 178 205 153 178 205 153 178 205 153 178 205 153 178 205 153 178 205 153 178 205 153 178 205 153 178 205 153 178 205 153 178 205 153 178 205 153 178 205 153 178 205 153 178 205 153 178 205 153 178 205 153 178 205 153 178 205 153 178 205 153 178 205 153 178 205 153 178 205 153 178 205 153 178 205 153 178 205 153 178 205 153 178 205 153 178 205 153 178 205 153 178 205 153 178 205 153 178 205 153 178 205 153 178 205 153 178 205 153 178 205 153 178 205 153 178 205 153 178 205 153 178 205 153 178 205 153 178 205 153 178 205 153 178 205 153 178 205 153 178 205 153 178 205 153 178 205 153 178 205 153 178 205 153 178 205 153 178 205 153 178 205 153 178 205 153 178 205 153 178 205 153 178 205 153 178 205 153 178 205 153 178 205 153 178 205 153 178 205 153 178 205 153 178 205 153 178 205 153 178 205 153 178 205 153 178 205 153 178 205 153 178 205 153 178 205 153 178 205 153 178 205 153 178 205 153 178 205 153 178 205 153 178 205 153 178 205 153 178 205 153 178 205 153 178 205 153 178 205 153 178 205 153 178 205 153 178 205 153 178 205 153 178 205 153 178 205 153 178 205 153 178 205 153 178 205 153 178 205 153 178 205 153 178 205 153 178 205 153 178 205 153 178 205 153 178 205 153 178 205 153 178 205 153 178 205 153 178 205 153 178 205 153 178 205 153 178 205 153 178 205 153 178 205 153 178 205 153 178 205 153 178 205 153 178 205 153 178 205 153 178 205 153 178 205 153 178 205 153 178 205 153 178 205 153 178 205 153 178 205 153 178 205 153 178 205 153 178 205 153 178 205 153 178 205 153 178 205 153 178 205 153 178 205 153 178 205 153 178 205 153 178 205 153 178 205 153 178 205 153 178 205 153 178 205 153 178 205 153 178 205 153 178 205 153 178 205 153 178 205 153 178 205 153 178 205 153 178 205 153 178 205 153 178 205 153 178 205 153 178 205 153 178 205 153 178 205 153 178 205 153 178 205 153 178 205 153 178 205 153 178 205 153 178 205 153 178 205 153 178 205 153 178 205 153 178 205 153 178 205 153 178 205 153 178 205 153 178 205 153 178 205 153 178 205 153 178 205 153 178 205 153 178 205 153 178 205 153 178 205 153 178 205 153 178 205 153 178 205 153 178 205 153 178 205 153 178 205 153 178 205 153 178 205 153 178 205 153 178 205 153 178 205 153 178 205 153 178 205 153 178 205 153 178 205 153 178 205 153 178 205 153 178 205 153 178 205 153 178 205 153 178 205 153 178 205 153 178 205 153 178 205 153 178 205 153 178 205 153 178 205 153 178 205 153 178 205 153 178 205 153 178 205 153 178 205 153 178 205 153 178 205 153 178 205 153 178 205 153 178 205 153 178 205 153 178 205 153 178 205 153 178 205 153 178 205 153 178 205 153 178 205 153 178 205 153 178 205 153 178 205 153 178 205 153 178 205 153 178 205 153 178 204 153 178 204 153 178 204 153 178 204 153 178 204 153 178 204 153 178 204 153 178 204 153 178 204 153 178 204 153 178 204 153 178 204 153 178 204 153 178 204 153 178 204 153 178 204 153 178 204 153 178 204 153 178 204 153 178 204 153 178 204 153 178 204 153 178 204 153 178 204 153 178 204 153 178 204 153 178 204 153 178 204 153 178 204 153 178 204 153 178 204 153 178 204 153 178 204 153 178 204 153 178 204 153 178 204 153 178 204 153 178 204 153 178 204 153 178 204 153 178 204 153 178 204 153 178 204 153 178 204 153 178 204 153 178 204 153 178 204 153 178 204 153 178 204 153 178 204 153 178 204 153 178 204 153 178 204 153 178 204 153 178 204 153 178 204 153 178 204 153 178 204 153 178 204 153 178 204 153 178 204 153 178 204 153 178 204 153 178 204 153 178 204 153 178 204 153 178 204 153 178 204 153 178 204 153 178 204 153 178 204 153 178 204 153 178 204 153 178 204 153 178 204 153 178 204 153 178 204 153 178 204 153 178 204 153 178 204 153 178 204 153 178 204 153 178 204 153 178 204 153 178 204 153 178 204 153 178 204 153 178 204 153 178 204 153 178 204 153 178 204 153 178 204 153 178 204 153 177 204 153 177 204 153 177 204 153 177 204 153 177 204 153 177 204 153 177 204 153 177 204 153 177 204 153 177 204 153 177 204 153 177 204 153 177 204 153 177 204 153 177 204 153 177 204 153 177 204 153 177 204 153 177 204 153 177 204 153 177 204 153 177 204 153 177 204 153 177 204 153 177 204 153 177 204 153 177 204 153 177 204 153 177 204 153 177 204 153 177 204 153 177 204 153 177 204 153 177 204 153 177 204 153 177 204 153 177 204 153 177 204 153 177 204 153 177 204 153 177 204 153 177 204 153 177 204 153 177 204 153 177 204 153 177 204 153 177 204 153 177 204 153 177 204 153 177 204 153 177 204 153 177 204 153 177 204 153 177 204 153 177 204 153 177 204 153 177 204 153 177 204 153 177 204 153 177 204 153 177 204 153 177 204 153 177 204 153 177 204 153 177 204 153 177 204 153 177 204 153 177 204 153 177 204 153 177 204 153 177 204 153 177 204 153 177 204 153 177 204 153 177 204 153 177 204 153 177 204 153 177 204 153 177 204 153 177 204 153 177 204 153 177 204 153 177 204 153 177 204 153 177 204 153 177 204 153 177 204 153 177 204 153 177 204 153 177 204 153 177 204 153 177 204 153 177 204 153 177 204 153 177 204 153 177 204 153 177 204 153 177 204 153 177 204 153 177 204 153 177 204 153 177 204 153 177 204 153 177 204 153 177 204 153 177 204 153 177 204 153 177 204 153 177 204 153 177 204 153 177 204 153 177 204 153 177 204 153 177 204 153 177 204 153 177 204 153 177 204 153 177 204 153 177 204 153 177 204 153 177 204 153 177 204 153 177 204 153 177 204 153 177 204 153 177 204 153 177 204 153 177 204 153 177 204 153 177 204 153 177 204 153 177 204 153 177 204 153 177 204 153 177 204 153 177 204 153 177 204 153 177 204 153 177 204 153 177 204 153 177 204 153 177 204 153 177 204 153 177 204 153 177 204 153 177 204 153 177 204 153 177 204 152 177 204 152 177 204 152 177 204 152 177 204 152 177 204 152 177 204 152 177 204 152 177 204 152 177 204 152 177 204 152 177 204 152 177 204 152 177 204 152 177 204 152 177 204 152 177 204 152 177 204 152 177 203 152 177 203 152 177 203 152 177 203 
152 177 203 152 177 203 152 177 203 152 177 203 152 177 203 152 177 203 152 177 203 152 177 203 152 177 203 152 177 203 152 177 203 152 177 203 152 177 204 152 177 204 152 177 203 152 177 204 152 177 204 152 177 204 152 177 204 152 177 204 152 177 204 152 177 204 152 177 204 152 177 204 152 177 204 152 177 204 152 177 204 152 177 204 152 177 204 153 177 204 153 177 204 153 177 204 153 177 204 153 177 204 153 177 204 153 177 204 153 177 204 153 177 204 153 177 204 153 177 204 153 177 204 153 177 204 153 177 204 153 177 204 153 177 204 153 177 204 153 177 204 153 177 204 153 177 204 153 177 204 153 177 204 153 177 204 153 177 204 153 177 204 153 177 204 153 177 204 153 177 204 153 177 204 153 177 204 153 177 204 153 177 204 153 177 204 153 177 204 153 177 204 153 177 204 153 177 204 153 177 204 153 177 204 153 177 204 153 177 204 153 177 204 153 177 204 153 177 204 153 177 204 153 177 204 153 177 204 153 177 204 153 177 204 153 177 204 153 177 204 153 177 204 153 177 204 153 177 204 153 177 204 153 177 204 153 177 204 153 177 204 153 177 204 153 177 204 153 177 204 153 177 204 153 177 204 153 177 204 153 177 204 153 177 204 153 177 204 153 177 204 153 177 204 153 177 204 153 177 204 153 177 204 153 177 204 153 177 204 153 177 204 153 177 204 153 177 204 153 177 204 153 177 204 153 177 204 153 177 204 153 177 204 153 177 204 153 177 204 153 177 204 153 177 204 153 177 204 153 177 204 153 177 204 153 177 204 153 177 204 153 177 204 153 177 204 153 177 204 153 177 204 153 177 204 153 177 204 153 177 204 153 177 204 153 177 204 153 177 204 153 177 204 153 177 204 153 177 204 153 177 204 153 177 204 153 177 204 153 177 204 153 177 204 153 177 204 153 177 204 153 177 204 153 177 204 153 177 204 153 177 204 153 177 204 153 177 204 153 177 204 153 177 204 153 177 204 153 177 204 153 177 204 153 177 204 153 177 204 153 177 204 153 177 204 153 177 204 153 177 204 153 177 204 153 177 204 153 177 204 153 177 204 153 177 204 153 177 204 153 177 204 153 177 204 153 177 204 153 177 204 153 177 204 153 177 204 153 177 204 153 177 204 153 177 204 153 177 204 153 177 204 153 177 204 153 177 204 153 177 204 153 177 204 153 177 204 153 177 204 153 177 204 153 178 204 153 177 204 153 178 204 153 178 204 153 178 204 153 178 204 153 178 204 153 178 204 153 178 204 153 178 204 153 178 204 153 178 204 153 178 204 153 178 204 153 178 204 153 178 204 153 178 204 153 178 204 153 178 204 153 178 204 153 178 204 153 178 204 153 178 204 153 178 204 153 178 204 153 178 204 153 178 204 153 178 204 153 178 204 153 178 204 153 178 204 153 178 204 153 178 204 153 178 204 153 178 204 153 178 204 153 178 204 153 178 204 153 178 204 153 178 204 153 178 204 153 178 204 153 178 204 153 178 204 153 178 204 153 178 204 153 178 204 153 178 204 153 178 204 153 178 204 153 178 204 153 178 204 153 178 204 153 178 204 153 178 204 153 178 204 153 178 204 153 178 204 153 178 204 153 178 204 153 178 204 153 178 204 153 178 204 153 178 204 153 178 204 153 178 204 153 178 204 153 178 204 153 178 204 153 178 204 153 178 204 153 178 204 153 178 204 153 178 204 153 178 204 153 178 204 153 178 204 153 178 204 153 178 204 153 178 204 153 178 204 153 178 204 153 178 204 153 178 204 153 178 204 153 178 204 153 178 204 153 178 204 153 178 204 153 178 204 153 178 204 153 178 204 153 178 204 153 178 204 153 178 204 153 178 204 153 178 204 153 178 204 153 178 204 153 178 205 153 178 204 153 178 205 153 178 205 153 178 205 153 178 205 153 178 205 153 178 205 153 178 205 153 178 205 153 178 205 153 178 205 153 178 205 153 178 205 153 178 205 153 178 205 153 178 205 153 178 205 153 178 205 153 178 205 153 178 205 153 178 205 153 178 205 153 178 205 153 178 205 153 178 205 153 178 205 153 178 205 153 178 205 153 178 205 153 178 205 153 178 205 153 178 205 153 178 205 153 178 205 153 178 205 153 178 205 153 178 205 153 178 205 153 178 205 153 178 205 153 178 205 153 178 205 153 178 205 153 178 205 153 178 205 153 178 205 153 178 205 153 178 205 153 178 205 153 178 205 153 178 205 153 178 205 153 178 205 153 178 205 153 178 205 153 178 205 153 178 205 153 178 205 153 178 205 153 178 205 153 178 205 153 178 205 153 178 205 153 178 205 153 178 205 153 178 205 153 178 205 153 178 205 153 178 205 153 178 205 153 178 205 153 178 205 153 178 205 153 178 205 153 178 205 153 178 205 153 178 205 153 178 205 153 178 205 153 178 205 153 178 205 153 178 205 153 178 205 153 178 205 153 178 205 153 178 205 153 178 205 153 178 205 153 178 205 153 178 205 153 178 205 153 178 205 153 178 205 153 178 205 153 178 205 153 178 205 153 178 205 153 178 205 153 178 205 153 178 205 153 178 205 153 178 205 153 178 205 153 178 205 153 178 205 153 178 205 153 178 205 153 178 205 153 178 205 153 178 205 153 178 205 153 178 205 153 178 205 153 178 205 153 178 205 153 178 205 153 178 205 153 178 205 153 178 205 153 178 205 153 178 205 153 178 205 153 178 205 153 178 205 153 178 205 153 178 205 153 178 205 153 178 205 153 178 205 153 178 205 153 178 205 153 178 205 153 178 205 153 178 205 153 178 205 153 178 205 153 178 205 153 178 205 153 178 205 153 178 205 153 178 205 153 178 205 153 178 205 153 178 205 153 178 205 153 178 205 153 178 205 153 178 205 153 178 205 153 178 205 153 178 205 153 178 205 153 178 205 153 178 205 153 178 205 153 178 205 153 178 205 153 178 205 153 178 205 153 178 205 153 178 205 153 178 205 153 178 205 153 178 205 153 178 205 153 178 205 153 178 205 153 178 205 153 178 205 153 178 205 153 178 205 153 178 205 153 178 205 153 178 205 153 178 205 153 178 205 153 178 205 153 178 205 153 178 205 153 178 205 153 178 205 153 178 205 153 178 205 153 178 205 153 178 205 153 178 205 153 178 205 153 178 205 153 178 205 153 178 205 153 178 205 153 178 205 153 178 205 153 178 205 153 178 205 153 178 205 153 178 205 153 178 205 153 178 205 153 178 205 153 178 205 153 178 205 153 178 205 153 178 205 153 178 205 153 178 205 153 178 205 153 178 205 153 178 205 153 178 205 153 178 205 153 178 205 153 178 205 153 178 205 153 178 205 153 178 205 153 178 205 153 178 205 153 178 205 153 178 205 153 178 205 153 178 205 153 178 205 153 178 205 153 178 205 153 178 205 153 178 205 153 178 205 153 178 205 153 178 205 153 178 205 153 178 205 153 178 205 153 178 205 153 178 205 153 178 205 153 178 204 153 178 204 153 178 204 153 178 204 153 178 204 153 178 204 153 178 204 153 178 204 153 178 204 153 178 204 153 178 204 153 178 204 153 178 204 153 178 204 153 178 204 153 178 204 153 178 204 153 178 204 153 178 204 153 178 204 153 178 204 153 178 204 153 178 204 153 178 204 153 178 204 153 178 204 153 178 204 153 178 204 153 178 204 153 178 204 153 178 204 153 178 204 153 178 204 153 178 204 153 178 204 153 178 204 153 178 204 153 178 204 153 178 204 153 178 204 153 178 204 153 178 204 153 178 204 153 178 204 153 178 204 153 178 204 153 178 204 153 178 204 153 178 204 153 178 204 153 178 204 153 178 204 153 178 204 153 178 204 153 178 204 153 178 204 153 178 204 153 178 204 153 178 204 153 178 204 153 178 204 153 178 204 153 178 204 153 178 204 153 178 204 153 178 204 153 178 204 153 178 204 153 178 204 153 178 204 153 178 204 153 178 204 153 178 204 153 178 204 153 178 204 153 178 204 153 178 204 153 178 204 153 178 204 153 178 204 153 178 204 153 178 204 153 178 204 153 178 204 153 178 204 153 178 204 153 178 204 153 178 204 153 178 204 153 178 204 153 178 204 153 178 204 153 178 204 153 178 204 153 178 204 153 178 204 153 178 204 153 178 204 153 178 204 153 178 204 153 177 204 153 178 204 153 178 204 153 177 204 153 177 204 153 177 204 153 177 204 153 177 204 153 177 204 153 177 204 153 177 204 153 177 204 153 177 204 153 177 204 153 177 204 153 177 204 153 177 204 153 177 204 153 177 204 153 177 204 153 177 204 153 177 204 153 177 204 153 177 204 153 177 204 153 177 204 153 177 204 153 177 204 153 177 204 153 177 204 153 177 204 153 177 204 153 177 204 153 177 204 153 177 204 153 177 204 153 177 204 153 177 204 153 177 204 153 177 204 153 177 204 153 177 204 153 177 204 153 177 204 153 177 204 153 177 204 153 177 204 153 177 204 153 177 204 153 177 204 153 177 204 153 177 204 153 177 204 153 177 204 153 177 204 153 177 204 153 177 204 153 177 204 153 177 204 153 177 204 153 177 204 153 177 204 153 177 204 153 177 204 153 177 204 153 177 204 153 177 204 153 177 204 153 177 204 153 177 204 153 177 204 153 177 204 153 177 204 153 177 204 153 177 204 153 177 204 153 177 204 153 177 204 153 177 204 153 177 204 153 177 204 153 177 204 153 177 204 153 177 204 153 177 204 153 177 204 153 177 204 153 177 204 153 177 204 153 177 204 153 177 204 153 177 204 153 177 204 153 177 204 153 177 204 153 177 204 153 177 204 153 177 204 153 177 204 153 177 204 153 177 204 153 177 204 153 177 204 153 177 204 153 177 204 153 177 204 153 177 204 153 177 204 153 177 204 153 177 204 153 177 204 153 177 204 153 177 204 153 177 204 153 177 204 153 177 204 153 177 204 153 177 204 153 177 204 153 177 204 153 177 204 153 177 204 153 177 204 153 177 204 153 177 204 153 177 204 153 177 204 153 177 204 153 177 204 153 177 204 153 177 204 153 177 204 153 177 204 153 177 204 153 177 204 153 177 204 153 177 204 153 177 204 153 177 204 153 177 204 153 177 204 153 177 204 153 177 204 153 177 204 153 177 204 153 177 204 153 177 204 153 177 204 153 177 204 153 177 204 153 177 204 153 177 204 153 177 204 153 177 204 152 177 204 152 177 204 152 177 204 152 177 204 152 177 204 152 177 204 152 177 204 152 177 204 152 177 204 152 177 204 152 177 204 152 177 204 152 177 204 152 177 204 152 177 203 152 177 203 152 177 203 152 177 203 152 177 203 152 177 203 152 177 203 152 177 203 152 177 203 152 177 203 152 177 203 152 177 203 152 177 203 152 177 203 152 177 203 
152 177 203 152 177 203 152 177 203 152 177 203 152 177 203 152 177 203 152 177 203 152 177 203 152 177 203 152 177 203 152 177 203 152 177 203 152 177 203 152 177 203 152 177 203 152 177 203 152 177 203 152 177 203 152 177 203 152 177 203 152 177 203 152 177 203 152 177 203 152 177 204 152 177 204 152 177 204 152 177 204 152 177 204 152 177 204 152 177 204 152 177 204 152 177 204 152 177 204 152 177 204 152 177 204 152 177 204 152 177 204 152 177 204 153 177 204 153 177 204 153 177 204 153 177 204 153 177 204 153 177 204 153 177 204 153 177 204 153 177 204 153 177 204 153 177 204 153 177 204 153 177 204 153 177 204 153 177 204 153 177 204 153 177 204 153 177 204 153 177 204 153 177 204 153 177 204 153 177 204 153 177 204 153 177 204 153 177 204 153 177 204 153 177 204 153 177 204 153 177 204 153 177 204 153 177 204 153 177 204 153 177 204 153 177 204 153 177 204 153 177 204 153 177 204 153 177 204 153 177 204 153 177 204 153 177 204 153 177 204 153 177 204 153 177 204 153 177 204 153 177 204 153 177 204 153 177 204 153 177 204 153 177 204 153 177 204 153 177 204 153 177 204 153 177 204 153 177 204 153 177 204 153 177 204 153 177 204 153 177 204 153 177 204 153 177 204 153 177 204 153 177 204 153 177 204 153 177 204 153 177 204 153 177 204 153 177 204 153 177 204 153 177 204 153 177 204 153 177 204 153 177 204 153 177 204 153 177 204 153 177 204 153 177 204 153 177 204 153 177 204 153 177 204 153 177 204 153 177 204 153 177 204 153 177 204 153 177 204 153 177 204 153 177 204 153 177 204 153 177 204 153 177 204 153 177 204 153 177 204 153 177 204 153 177 204 153 177 204 153 177 204 153 177 204 153 177 204 153 177 204 153 177 204 153 177 204 153 177 204 153 177 204 153 177 204 153 177 204 153 177 204 153 177 204 153 177 204 153 177 204 153 177 204 153 177 204 153 177 204 153 177 204 153 177 204 153 177 204 153 177 204 153 177 204 153 177 204 153 177 204 153 177 204 153 177 204 153 177 204 153 177 204 153 177 204 153 177 204 153 177 204 153 177 204 153 177 204 153 177 204 153 177 204 153 177 204 153 177 204 153 177 204 153 177 204 153 177 204 153 177 204 153 177 204 153 177 204 153 177 204 153 177 204 153 177 204 153 177 204 153 177 204 153 177 204 153 177 204 153 177 204 153 177 204 153 177 204 153 177 204 153 177 204 153 177 204 153 177 204 153 177 204 153 177 204 153 177 204 153 177 204 153 178 204 153 178 204 153 178 204 153 178 204 153 178 204 153 178 204 153 178 204 153 178 204 153 178 204 153 178 204 153 178 204 153 178 204 153 178 204 153 178 204 153 178 204 153 178 204 153 178 204 153 178 204 153 178 204 153 178 204 153 178 204 153 178 204 153 178 204 153 178 204 153 178 204 153 178 204 153 178 204 153 178 204 153 178 204 153 178 204 153 178 204 153 178 204 153 178 204 153 178 204 153 178 204 153 178 204 153 178 204 153 178 204 153 178 204 153 178 204 153 178 204 153 178 204 153 178 204 153 178 204 153 178 204 153 178 204 153 178 204 153 178 204 153 178 204 153 178 204 153 178 204 153 178 204 153 178 204 153 178 204 153 178 204 153 178 204 153 178 204 153 178 204 153 178 204 153 178 204 153 178 204 153 178 204 153 178 204 153 178 204 153 178 204 153 178 204 153 178 204 153 178 204 153 178 204 153 178 204 153 178 204 153 178 204 153 178 204 153 178 204 153 178 204 153 178 204 153 178 204 153 178 204 153 178 204 153 178 204 153 178 204 153 178 204 153 178 204 153 178 204 153 178 204 153 178 204 153 178 204 153 178 204 153 178 204 153 178 204 153 178 204 153 178 204 153 178 204 153 178 204 153 178 204 153 178 204 153 178 204 153 178 204 153 178 204 153 178 204 153 178 204 153 178 204 153 178 204 153 178 204 153 178 204 153 178 204 153 178 204 153 178 204 153 178 204 153 178 204 153 178 204 153 178 205 153 178 204 153 178 204 153 178 205 153 178 204 153 178 204 153 178 205 153 178 205 153 178 205 153 178 205 153 178 205 153 178 205 153 178 205 153 178 205 153 178 205 153 178 205 153 178 205 153 178 205 153 178 205 153 178 205 153 178 205 153 178 205 153 178 205 153 178 205 153 178 205 153 178 205 153 178 205 153 178 205 153 178 205 153 178 205 153 178 205 153 178 205 153 178 205 153 178 205 153 178 205 153 178 205 153 178 205 153 178 205 153 178 205 153 178 205 153 178 205 153 178 205 153 178 205 153 178 205 153 178 205 153 178 205 153 178 205 153 178 205 153 178 205 153 178 205 153 178 205 153 178 205 153 178 205 153 178 205 153 178 205 153 178 205 153 178 205 153 178 205 153 178 205 153 178 205 153 178 205 153 178 205 153 178 205 153 178 205 153 178 205 153 178 205 153 178 205 153 178 205 153 178 205 153 178 205 153 178 205 153 178 205 153 178 205 153 178 205 153 178 205 153 178 205 153 178 205 153 178 205 153 178 205 153 178 205 153 178 205 153 178 205 153 178 205 153 178 205 153 178 205 153 178 205 153 178 205 153 178 205 153 178 205 153 178 205 153 178 205 153 178 205 153 178 205 153 178 205 153 178 205 153 178 205 153 178 205 153 178 205 153 178 205 153 178 205 153 178 205 153 178 205 153 178 205 153 178 205 153 178 205 153 178 205 153 178 205 153 178 205 153 178 205 153 178 205 153 178 205 153 178 205 153 178 205 153 178 205 153 178 205 153 178 205 153 178 205 153 178 205 153 178 205 153 178 205 153 178 205 153 178 205 153 178 205 153 178 205 153 178 205 153 178 205 153 178 205 153 178 205 153 178 205 153 178 205 153 178 205 153 178 205 153 178 205 153 178 205 153 178 205 153 178 205 153 178 205 153 178 205 153 178 205 153 178 205 153 178 205 153 178 205 153 178 205 153 178 205 153 178 205 153 178 205 153 178 205 153 178 205 153 178 205 153 178 205 153 178 205 153 178 205 153 178 205 153 178 205 153 178 205 153 178 205 153 178 205 153 178 205 153 178 205 153 178 205 153 178 205 153 178 205 153 178 205 153 178 205 153 178 205 153 178 205 153 178 205 153 178 205 153 178 205 153 178 205 153 178 205 153 178 205 153 178 205 153 178 205 153 178 205 153 178 205 153 178 205 153 178 205 153 178 205 153 178 205 153 178 205 153 178 205 153 178 205 153 178 204 153 178 205 153 178 204 153 178 205 153 178 204 153 178 205 153 178 205 153 178 204 153 178 204 153 178 204 153 178 204 153 178 204 153 178 204 153 178 204 153 178 204 153 178 204 153 178 204 153 178 204 153 178 204 153 178 204 153 178 204 153 178 204 153 178 204 153 178 204 153 178 204 153 178 204 153 178 204 153 178 204 153 178 204 153 178 204 153 178 204 153 178 204 153 178 204 153 178 204 153 178 204 153 178 204 153 178 204 153 178 204 153 178 204 153 178 204 153 178 204 153 178 204 153 178 204 153 178 204 153 178 204 153 178 204 153 178 204 153 178 204 153 178 204 153 178 204 153 178 204 153 178 204 153 178 204 153 178 204 153 178 204 153 178 204 153 178 204 153 178 204 153 178 204 153 178 204 153 178 204 153 178 204 153 178 204 153 178 204 153 178 204 153 178 204 153 178 204 153 178 204 153 178 204 153 178 204 153 178 204 153 178 204 153 178 204 153 178 204 153 178 204 153 178 204 153 178 204 153 178 204 153 178 204 153 178 204 153 178 204 153 178 204 153 178 204 153 178 204 153 178 204 153 178 204 153 178 204 153 178 204 153 178 204 153 178 204 153 178 204 153 178 204 153 178 204 153 178 204 153 178 204 153 178 204 153 178 204 153 178 204 153 178 204 153 178 204 153 178 204 153 178 204 153 178 204 153 178 204 153 178 204 153 178 204 153 178 204 153 178 204 153 178 204 153 178 204 153 178 204 153 178 204 153 178 204 153 178 204 153 178 204 153 178 204 153 177 204 153 177 204 153 178 204 153 177 204 153 177 204 153 177 204 153 177 204 153 177 204 153 177 204 153 177 204 153 177 204 153 177 204 153 177 204 153 177 204 153 177 204 153 177 204 153 177 204 153 177 204 153 177 204 153 177 204 153 177 204 153 177 204 153 177 204 153 177 204 153 177 204 153 177 204 153 177 204 153 177 204 153 177 204 153 177 204 153 177 204 153 177 204 153 177 204 153 177 204 153 177 204 153 177 204 153 177 204 153 177 204 153 177 204 153 177 204 153 177 204 153 177 204 153 177 204 153 177 204 153 177 204 153 177 204 153 177 204 153 177 204 153 177 204 153 177 204 153 177 204 153 177 204 153 177 204 153 177 204 153 177 204 153 177 204 153 177 204 153 177 204 153 177 204 153 177 204 153 177 204 153 177 204 153 177 204 153 177 204 153 177 204 153 177 204 153 177 204 153 177 204 153 177 204 153 177 204 153 177 204 153 177 204 153 177 204 153 177 204 153 177 204 153 177 204 153 177 204 153 177 204 153 177 204 153 177 204 153 177 204 153 177 204 153 177 204 153 177 204 153 177 204 153 177 204 153 177 204 153 177 204 153 177 204 153 177 204 153 177 204 153 177 204 153 177 204 153 177 204 153 177 204 153 177 204 153 177 204 153 177 204 153 177 204 153 177 204 153 177 204 153 177 204 153 177 204 153 177 204 153 177 204 153 177 204 153 177 204 153 177 204 153 177 204 153 177 204 153 177 204 153 177 204 153 177 204 153 177 204 153 177 204 153 177 204 153 177 204 153 177 204 153 177 204 153 177 204 153 177 204 153 177 204 153 177 204 153 177 204 153 177 204 153 177 204 153 177 204 153 177 204 153 177 204 153 177 204 153 177 204 153 177 204 153 177 204 153 177 204 153 177 204 153 177 204 153 177 204 153 177 204 153 177 204 153 177 204 153 177 204 153 177 204 153 177 204 153 177 204 153 177 204 153 177 204 153 177 204 153 177 204 153 177 204 153 177 204 153 177 204 153 177 204 153 177 204 153 177 204 153 177 204 153 177 204 153 177 204 153 177 204 152 177 204 152 177 204 152 177 204 152 177 204 152 177 204 152 177 204 152 177 204 152 177 204 152 177 204 152 177 204 152 177 204 152 177 204 152 177 204 152 177 204 152 177 204 152 177 203 152 177 204 152 177 203 152 177 203 152 177 203 152 177 203 152 177 203 152 177 203 152 177 203 152 177 203 152 177 203 152 177 203 152 177 203 152 177 203 152 177 203 152 177 203 152 177 203 152 177 203 152 177 203 152 177 203 152 177 203 152 177 203 152 177 203 
152 177 203 152 177 203 152 177 203 152 177 203 152 177 203 152 177 203 152 177 203 152 177 203 152 177 203 152 177 203 152 177 203 152 177 203 152 177 203 152 177 203 152 177 203 152 177 203 152 177 203 152 177 203 152 177 203 152 177 203 152 177 203 152 177 203 152 177 203 152 177 203 152 177 203 152 177 203 152 177 203 152 177 203 152 177 203 152 177 203 152 177 204 152 177 204 152 177 204 152 177 204 152 177 204 152 177 204 152 177 204 152 177 204 152 177 204 152 177 204 152 177 204 152 177 204 152 177 204 152 177 204 152 177 204 152 177 204 152 177 204 152 177 204 153 177 204 153 177 204 153 177 204 153 177 204 153 177 204 153 177 204 153 177 204 153 177 204 153 177 204 153 177 204 153 177 204 153 177 204 153 177 204 153 177 204 153 177 204 153 177 204 153 177 204 153 177 204 153 177 204 153 177 204 153 177 204 153 177 204 153 177 204 153 177 204 153 177 204 153 177 204 153 177 204 153 177 204 153 177 204 153 177 204 153 177 204 153 177 204 153 177 204 153 177 204 153 177 204 153 177 204 153 177 204 153 177 204 153 177 204 153 177 204 153 177 204 153 177 204 153 177 204 153 177 204 153 177 204 153 177 204 153 177 204 153 177 204 153 177 204 153 177 204 153 177 204 153 177 204 153 177 204 153 177 204 153 177 204 153 177 204 153 177 204 153 177 204 153 177 204 153 177 204 153 177 204 153 177 204 153 177 204 153 177 204 153 177 204 153 177 204 153 177 204 153 177 204 153 177 204 153 177 204 153 177 204 153 177 204 153 177 204 153 177 204 153 177 204 153 177 204 153 177 204 153 177 204 153 177 204 153 177 204 153 177 204 153 177 204 153 177 204 153 177 204 153 177 204 153 177 204 153 177 204 153 177 204 153 177 204 153 177 204 153 177 204 153 177 204 153 177 204 153 177 204 153 177 204 153 177 204 153 177 204 153 177 204 153 177 204 153 177 204 153 177 204 153 177 204 153 177 204 153 177 204 153 177 204 153 177 204 153 177 204 153 177 204 153 177 204 153 177 204 153 177 204 153 177 204 153 177 204 153 177 204 153 177 204 153 177 204 153 177 204 153 177 204 153 177 204 153 177 204 153 177 204 153 177 204 153 177 204 153 177 204 153 177 204 153 177 204 153 177 204 153 177 204 153 177 204 153 177 204 153 177 204 153 177 204 153 177 204 153 177 204 153 177 204 153 177 204 153 177 204 153 177 204 153 177 204 153 177 204 153 177 204 153 177 204 153 177 204 153 177 204 153 177 204 153 177 204 153 177 204 153 177 204 153 177 204 153 177 204 153 177 204 153 177 204 153 177 204 153 177 204 153 177 204 153 177 204 153 177 204 153 177 204 153 177 204 153 177 204 153 178 204 153 178 204 153 178 204 153 178 204 153 178 204 153 178 204 153 178 204 153 178 204 153 178 204 153 178 204 153 178 204 153 178 204 153 178 204 153 178 204 153 178 204 153 178 204 153 178 204 153 178 204 153 178 204 153 178 204 153 178 204 153 178 204 153 178 204 153 178 204 153 178 204 153 178 204 153 178 204 153 178 204 153 178 204 153 178 204 153 178 204 153 178 204 153 178 204 153 178 204 153 178 204 153 178 204 153 178 204 153 178 204 153 178 204 153 178 204 153 178 204 153 178 204 153 178 204 153 178 204 153 178 204 153 178 204 153 178 204 153 178 204 153 178 204 153 178 204 153 178 204 153 178 204 153 178 204 153 178 204 153 178 204 153 178 204 153 178 204 153 178 204 153 178 204 153 178 204 153 178 204 153 178 204 153 178 204 153 178 204 153 178 204 153 178 204 153 178 204 153 178 204 153 178 204 153 178 204 153 178 204 153 178 204 153 178 204 153 178 204 153 178 204 153 178 204 153 178 204 153 178 204 153 178 204 153 178 204 153 178 204 153 178 204 153 178 204 153 178 204 153 178 204 153 178 204 153 178 204 153 178 204 153 178 204 153 178 204 153 178 204 153 178 204 153 178 204 153 178 204 153 178 204 153 178 204 153 178 204 153 178 204 153 178 204 153 178 204 153 178 204 153 178 204 153 178 204 153 178 204 153 178 204 153 178 204 153 178 204 153 178 204 153 178 204 153 178 204 153 178 204 153 178 204 153 178 204 153 178 204 153 178 204 153 178 204 153 178 204 153 178 204 153 178 204 153 178 204 153 178 204 153 178 204 153 178 204 153 178 204 153 178 204 153 178 204 153 178 204 153 178 204 153 178 205 153 178 204 153 178 204 153 178 205 153 178 204 153 178 205 153 178 204 153 178 205 153 178 205 153 178 205 153 178 204 153 178 205 153 178 205 153 178 205 153 178 205 153 178 205 153 178 205 153 178 205 153 178 205 153 178 205 153 178 205 153 178 205 153 178 205 153 178 205 153 178 205 153 178 205 153 178 205 153 178 205 153 178 205 153 178 205 153 178 205 153 178 205 153 178 205 153 178 205 153 178 205 153 178 205 153 178 205 153 178 205 153 178 205 153 178 205 153 178 205 153 178 205 153 178 205 153 178 205 153 178 205 153 178 205 153 178 205 153 178 205 153 178 205 153 178 205 153 178 205 153 178 205 153 178 205 153 178 205 153 178 205 153 178 205 153 178 205 153 178 205 153 178 205 153 178 205 153 178 205 153 178 205 153 178 205 153 178 205 153 178 205 153 178 205 153 178 205 153 178 205 153 178 205 153 178 205 153 178 205 153 178 205 153 178 205 153 178 205 153 178 205 153 178 205 153 178 205 153 178 205 153 178 205 153 178 205 153 178 205 153 178 205 153 178 205 153 178 205 153 178 205 153 178 205 153 178 205 153 178 205 153 178 205 153 178 205 153 178 205 153 178 205 153 178 205 153 178 205 153 178 205 153 178 205 153 178 205 153 178 205 153 178 205 153 178 205 153 178 205 153 178 205 153 178 205 153 178 205 153 178 205 153 178 205 153 178 205 153 178 205 153 178 205 153 178 205 153 178 205 153 178 205 153 178 205 153 178 205 153 178 205 153 178 205 153 178 205 153 178 205 153 178 204 153 178 205 153 178 204 153 178 205 153 178 204 153 178 204 153 178 204 153 178 204 153 178 205 153 178 204 153 178 204 153 178 204 153 178 204 153 178 204 153 178 204 153 178 204 153 178 204 153 178 204 153 178 204 153 178 204 153 178 204 153 178 204 153 178 204 153 178 204 153 178 204 153 178 204 153 178 204 153 178 204 153 178 204 153 178 204 153 178 204 153 178 204 153 178 204 153 178 204 153 178 204 153 178 204 153 178 204 153 178 204 153 178 204 153 178 204 153 178 204 153 178 204 153 178 204 153 178 204 153 178 204 153 178 204 153 178 204 153 178 204 153 178 204 153 178 204 153 178 204 153 178 204 153 178 204 153 178 204 153 178 204 153 178 204 153 178 204 153 178 204 153 178 204 153 178 204 153 178 204 153 178 204 153 178 204 153 178 204 153 178 204 153 178 204 153 178 204 153 178 204 153 178 204 153 178 204 153 178 204 153 178 204 153 178 204 153 178 204 153 178 204 153 178 204 153 178 204 153 178 204 153 178 204 153 178 204 153 178 204 153 178 204 153 178 204 153 178 204 153 178 204 153 178 204 153 178 204 153 178 204 153 178 204 153 178 204 153 178 204 153 178 204 153 178 204 153 178 204 153 178 204 153 178 204 153 178 204 153 178 204 153 178 204 153 178 204 153 178 204 153 178 204 153 178 204 153 178 204 153 178 204 153 178 204 153 178 204 153 178 204 153 178 204 153 178 204 153 178 204 153 178 204 153 178 204 153 178 204 153 178 204 153 178 204 153 178 204 153 178 204 153 178 204 153 178 204 153 178 204 153 178 204 153 178 204 153 178 204 153 178 204 153 178 204 153 178 204 153 178 204 153 178 204 153 178 204 153 178 204 153 178 204 153 178 204 153 178 204 153 178 204 153 178 204 153 178 204 153 178 204 153 178 204 153 177 204 153 177 204 153 177 204 153 177 204 153 177 204 153 177 204 153 177 204 153 177 204 153 177 204 153 177 204 153 177 204 153 177 204 153 177 204 153 177 204 153 177 204 153 177 204 153 177 204 153 177 204 153 177 204 153 177 204 153 177 204 153 177 204 153 177 204 153 177 204 153 177 204 153 177 204 153 177 204 153 177 204 153 177 204 153 177 204 153 177 204 153 177 204 153 177 204 153 177 204 153 177 204 153 177 204 153 177 204 153 177 204 153 177 204 153 177 204 153 177 204 153 177 204 153 177 204 153 177 204 153 177 204 153 177 204 153 177 204 153 177 204 153 177 204 153 177 204 153 177 204 153 177 204 153 177 204 153 177 204 153 177 204 153 177 204 153 177 204 153 177 204 153 177 204 153 177 204 153 177 204 153 177 204 153 177 204 153 177 204 153 177 204 153 177 204 153 177 204 153 177 204 153 177 204 153 177 204 153 177 204 153 177 204 153 177 204 153 177 204 153 177 204 153 177 204 153 177 204 153 177 204 153 177 204 153 177 204 153 177 204 153 177 204 153 177 204 153 177 204 153 177 204 153 177 204 153 177 204 153 177 204 153 177 204 153 177 204 153 177 204 153 177 204 153 177 204 153 177 204 153 177 204 153 177 204 153 177 204 153 177 204 153 177 204 153 177 204 153 177 204 153 177 204 153 177 204 153 177 204 153 177 204 153 177 204 153 177 204 153 177 204 153 177 204 153 177 204 153 177 204 153 177 204 153 177 204 153 177 204 153 177 204 153 177 204 153 177 204 153 177 204 153 177 204 153 177 204 153 177 204 153 177 204 153 177 204 153 177 204 153 177 204 153 177 204 153 177 204 153 177 204 153 177 204 153 177 204 153 177 204 153 177 204 153 177 204 153 177 204 153 177 204 153 177 204 153 177 204 153 177 204 153 177 204 153 177 204 153 177 204 153 177 204 153 177 204 153 177 204 153 177 204 153 177 204 153 177 204 153 177 204 153 177 204 153 177 204 153 177 204 153 177 204 153 177 204 153 177 204 153 177 204 153 177 204 153 177 204 153 177 204 153 177 204 153 177 204 153 177 204 152 177 204 152 177 204 152 177 204 152 177 204 152 177 204 152 177 204 152 177 204 152 177 204 152 177 204 152 177 204 152 177 204 152 177 204 152 177 204 152 177 204 152 177 204 152 177 204 152 177 203 152 177 203 152 177 203 152 177 203 152 177 203 152 177 203 152 177 203 152 177 203 152 177 203 152 177 203 152 177 203 152 177 203 152 177 203 152 177 203 152 177 203 152 177 203 152 177 203 152 177 203 152 177 203 152 177 203 152 177 203 152 177 203 152 177 203 152 177 203 152 177 203 152 177 203 152 177 203 152 177 203 152 177 203 152 177 203 
152 177 203 152 177 203 152 177 203 152 177 203 152 177 203 152 177 203 152 177 203 152 177 203 152 177 203 152 177 203 152 177 203 152 177 203 152 177 203 152 177 203 152 177 203 152 177 203 152 177 203 152 177 203 152 177 203 152 177 203 152 177 203 152 177 203 152 177 203 152 177 203 152 177 203 152 177 203 152 177 203 152 177 203 152 177 203 152 177 203 152 177 203 152 177 203 152 177 203 152 177 203 152 177 203 152 177 203 152 177 203 152 177 203 152 177 204 152 177 204 152 177 204 152 177 204 152 177 204 152 177 204 152 177 204 152 177 204 152 177 204 152 177 204 152 177 204 152 177 204 152 177 204 152 177 204 152 177 204 152 177 204 152 177 204 152 177 204 152 177 204 153 177 204 153 177 204 153 177 204 153 177 204 153 177 204 153 177 204 153 177 204 153 177 204 153 177 204 153 177 204 153 177 204 153 177 204 153 177 204 153 177 204 153 177 204 153 177 204 153 177 204 153 177 204 153 177 204 153 177 204 153 177 204 153 177 204 153 177 204 153 177 204 153 177 204 153 177 204 153 177 204 153 177 204 153 177 204 153 177 204 153 177 204 153 177 204 153 177 204 153 177 204 153 177 204 153 177 204 153 177 204 153 177 204 153 177 204 153 177 204 153 177 204 153 177 204 153 177 204 153 177 204 153 177 204 153 177 204 153 177 204 153 177 204 153 177 204 153 177 204 153 177 204 153 177 204 153 177 204 153 177 204 153 177 204 153 177 204 153 177 204 153 177 204 153 177 204 153 177 204 153 177 204 153 177 204 153 177 204 153 177 204 153 177 204 153 177 204 153 177 204 153 177 204 153 177 204 153 177 204 153 177 204 153 177 204 153 177 204 153 177 204 153 177 204 153 177 204 153 177 204 153 177 204 153 177 204 153 177 204 153 177 204 153 177 204 153 177 204 153 177 204 153 177 204 153 177 204 153 177 204 153 177 204 153 177 204 153 177 204 153 177 204 153 177 204 153 177 204 153 177 204 153 177 204 153 177 204 153 177 204 153 177 204 153 177 204 153 177 204 153 177 204 153 177 204 153 177 204 153 177 204 153 177 204 153 177 204 153 177 204 153 177 204 153 177 204 153 177 204 153 177 204 153 177 204 153 177 204 153 177 204 153 177 204 153 177 204 153 177 204 153 177 204 153 177 204 153 177 204 153 177 204 153 177 204 153 177 204 153 177 204 153 177 204 153 177 204 153 177 204 153 177 204 153 177 204 153 177 204 153 177 204 153 177 204 153 177 204 153 177 204 153 177 204 153 177 204 153 177 204 153 177 204 153 177 204 153 177 204 153 177 204 153 177 204 153 177 204 153 177 204 153 177 204 153 177 204 153 177 204 153 177 204 153 177 204 153 177 204 153 177 204 153 177 204 153 177 204 153 177 204 153 177 204 153 177 204 153 177 204 153 177 204 153 177 204 153 177 204 153 177 204 153 177 204 153 177 204 153 177 204 153 177 204 153 178 204 153 178 204 153 178 204 153 178 204 153 178 204 153 178 204 153 178 204 153 178 204 153 178 204 153 178 204 153 178 204 153 178 204 153 178 204 153 178 204 153 178 204 153 178 204 153 178 204 153 178 204 153 178 204 153 178 204 153 178 204 153 178 204 153 178 204 153 178 204 153 178 204 153 178 204 153 178 204 153 178 204 153 178 204 153 178 204 153 178 204 153 178 204 153 178 204 153 178 204 153 178 204 153 178 204 153 178 204 153 178 204 153 178 204 153 178 204 153 178 204 153 178 204 153 178 204 153 178 204 153 178 204 153 178 204 153 178 204 153 178 204 153 178 204 153 178 204 153 178 204 153 178 204 153 178 204 153 178 204 153 178 204 153 178 204 153 178 204 153 178 204 153 178 204 153 178 204 153 178 204 153 178 204 153 178 204 153 178 204 153 178 204 153 178 204 153 178 204 153 178 204 153 178 204 153 178 204 153 178 204 153 178 204 153 178 204 153 178 204 153 178 204 153 178 204 153 178 204 153 178 204 153 178 204 153 178 204 153 178 204 153 178 204 153 178 204 153 178 204 153 178 204 153 178 204 153 178 204 153 178 204 153 178 204 153 178 204 153 178 204 153 178 204 153 178 204 153 178 204 153 178 204 153 178 204 153 178 204 153 178 204 153 178 204 153 178 204 153 178 204 153 178 204 153 178 204 153 178 204 153 178 204 153 178 204 153 178 204 153 178 204 153 178 204 153 178 204 153 178 204 153 178 204 153 178 204 153 178 204 153 178 204 153 178 204 153 178 204 153 178 204 153 178 204 153 178 204 153 178 204 153 178 204 153 178 204 153 178 204 153 178 204 153 178 204 153 178 204 153 178 204 153 178 204 153 178 204 153 178 204 153 178 204 153 178 204 153 178 204 153 178 204 153 178 204 153 178 204 153 178 204 153 178 204 153 178 204 153 178 204 153 178 204 153 178 204 153 178 204 153 178 204 153 178 204 153 178 204 153 178 204 153 178 204 153 178 204 153 178 204 153 178 204 153 178 204 153 178 204 153 178 204 153 178 204 153 178 204 153 178 204 153 178 204 153 178 204 153 178 204 153 178 204 153 178 204 153 178 204 153 178 204 153 178 204 153 178 204 153 178 204 153 178 204 153 178 204 153 178 204 153 178 204 153 178 204 153 178 204 153 178 204 153 178 204 153 178 204 153 178 204 153 178 204 153 178 204 153 178 204 153 178 204 153 178 204 153 178 204 153 178 204 153 178 204 153 178 204 153 178 204 153 178 204 153 178 204 153 178 204 153 178 204 153 178 204 153 178 204 153 178 204 153 178 204 153 178 204 153 178 204 153 178 204 153 178 204 153 178 204 153 178 204 153 178 204 153 178 204 153 178 204 153 178 204 153 178 204 153 178 204 153 178 204 153 178 204 153 178 204 153 178 204 153 178 204 153 178 204 153 178 204 153 178 204 153 178 204 153 178 204 153 178 204 153 178 204 153 178 204 153 178 204 153 178 204 153 178 204 153 178 204 153 178 204 153 178 204 153 178 204 153 178 204 153 178 204 153 178 204 153 178 204 153 178 204 153 178 204 153 178 204 153 178 204 153 178 204 153 178 204 153 178 204 153 178 204 153 178 204 153 178 204 153 178 204 153 178 204 153 178 204 153 178 204 153 178 204 153 178 204 153 178 204 153 178 204 153 178 204 153 178 204 153 178 204 153 178 204 153 178 204 153 178 204 153 178 204 153 178 204 153 178 204 153 178 204 153 178 204 153 178 204 153 178 204 153 178 204 153 178 204 153 178 204 153 178 204 153 178 204 153 178 204 153 178 204 153 178 204 153 178 204 153 178 204 153 178 204 153 178 204 153 178 204 153 178 204 153 178 204 153 178 204 153 178 204 153 178 204 153 178 204 153 178 204 153 178 204 153 178 204 153 178 204 153 178 204 153 178 204 153 178 204 153 178 204 153 178 204 153 178 204 153 178 204 153 178 204 153 178 204 153 178 204 153 178 204 153 178 204 153 178 204 153 178 204 153 178 204 153 178 204 153 178 204 153 178 204 153 178 204 153 178 204 153 178 204 153 178 204 153 178 204 153 178 204 153 178 204 153 178 204 153 178 204 153 178 204 153 178 204 153 178 204 153 178 204 153 178 204 153 178 204 153 178 204 153 178 204 153 178 204 153 178 204 153 178 204 153 178 204 153 178 204 153 178 204 153 178 204 153 178 204 153 178 204 153 178 204 153 178 204 153 178 204 153 178 204 153 178 204 153 178 204 153 178 204 153 178 204 153 178 204 153 178 204 153 178 204 153 178 204 153 178 204 153 178 204 153 178 204 153 178 204 153 178 204 153 178 204 153 178 204 153 178 204 153 178 204 153 178 204 153 178 204 153 177 204 153 177 204 153 177 204 153 177 204 153 178 204 153 177 204 153 177 204 153 177 204 153 177 204 153 177 204 153 177 204 153 177 204 153 177 204 153 177 204 153 177 204 153 177 204 153 177 204 153 177 204 153 177 204 153 177 204 153 177 204 153 177 204 153 177 204 153 177 204 153 177 204 153 177 204 153 177 204 153 177 204 153 177 204 153 177 204 153 177 204 153 177 204 153 177 204 153 177 204 153 177 204 153 177 204 153 177 204 153 177 204 153 177 204 153 177 204 153 177 204 153 177 204 153 177 204 153 177 204 153 177 204 153 177 204 153 177 204 153 177 204 153 177 204 153 177 204 153 177 204 153 177 204 153 177 204 153 177 204 153 177 204 153 177 204 153 177 204 153 177 204 153 177 204 153 177 204 153 177 204 153 177 204 153 177 204 153 177 204 153 177 204 153 177 204 153 177 204 153 177 204 153 177 204 153 177 204 153 177 204 153 177 204 153 177 204 153 177 204 153 177 204 153 177 204 153 177 204 153 177 204 153 177 204 153 177 204 153 177 204 153 177 204 153 177 204 153 177 204 153 177 204 153 177 204 153 177 204 153 177 204 153 177 204 153 177 204 153 177 204 153 177 204 153 177 204 153 177 204 153 177 204 153 177 204 153 177 204 153 177 204 153 177 204 153 177 204 153 177 204 153 177 204 153 177 204 153 177 204 153 177 204 153 177 204 153 177 204 153 177 204 153 177 204 153 177 204 153 177 204 153 177 204 153 177 204 153 177 204 153 177 204 153 177 204 153 177 204 153 177 204 153 177 204 153 177 204 153 177 204 153 177 204 153 177 204 153 177 204 153 177 204 153 177 204 153 177 204 153 177 204 153 177 204 153 177 204 153 177 204 153 177 204 153 177 204 153 177 204 153 177 204 153 177 204 153 177 204 153 177 204 153 177 204 153 177 204 153 177 204 153 177 204 153 177 204 153 177 204 153 177 204 153 177 204 153 177 204 153 177 204 153 177 204 153 177 204 153 177 204 153 177 204 153 177 204 153 177 204 153 177 204 153 177 204 153 177 204 153 177 204 153 177 204 153 177 204 153 177 204 153 177 204 153 177 204 153 177 204 153 177 204 153 177 204 153 177 204 153 177 204 153 177 204 153 177 204 152 177 204 152 177 204 152 177 204 152 177 204 152 177 204 152 177 204 152 177 204 152 177 204 152 177 204 152 177 204 152 177 204 152 177 204 152 177 204 152 177 204 152 177 204 152 177 204 152 177 203 152 177 203 152 177 203 152 177 203 152 177 203 152 177 203 152 177 203 152 177 203 152 177 203 152 177 203 152 177 203 152 177 203 152 177 203 152 177 203 152 177 203 152 177 203 152 177 203 152 177 203 152 177 203 152 177 203 152 177 203 152 177 203 152 177 203 152 177 203 152 177 203 152 177 203 152 177 203 152 177 203 152 177 203 152 177 203 152 177 203 152 177 203 152 177 203 152 177 203 152 177 203 152 177 203 152 177 203 152 177 203 152 177 203 
152 177 203 152 177 203 152 177 203 152 177 203 152 177 203 152 177 203 152 177 203 152 177 203 152 177 203 152 177 203 152 177 203 152 177 203 152 177 203 152 177 203 152 177 203 152 177 203 152 177 203 152 177 203 152 177 203 152 177 203 152 177 203 152 177 203 152 177 203 152 177 203 152 177 203 152 177 203 152 177 203 152 177 203 152 177 203 152 177 203 152 177 203 152 177 203 152 177 203 152 177 203 152 177 203 152 177 203 152 177 203 152 177 203 152 177 203 152 177 203 152 177 203 152 177 203 152 177 203 152 177 203 152 177 203 152 177 203 152 177 203 152 177 203 152 177 203 152 177 204 152 177 204 152 177 204 152 177 204 152 177 204 152 177 204 152 177 204 152 177 204 152 177 204 152 177 204 152 177 204 152 177 204 152 177 204 152 177 204 152 177 204 152 177 204 153 177 204 153 177 204 153 177 204 153 177 204 153 177 204 153 177 204 153 177 204 153 177 204 153 177 204 153 177 204 153 177 204 153 177 204 153 177 204 153 177 204 153 177 204 153 177 204 153 177 204 153 177 204 153 177 204 153 177 204 153 177 204 153 177 204 153 177 204 153 177 204 153 177 204 153 177 204 153 177 204 153 177 204 153 177 204 153 177 204 153 177 204 153 177 204 153 177 204 153 177 204 153 177 204 153 177 204 153 177 204 153 177 204 153 177 204 153 177 204 153 177 204 153 177 204 153 177 204 153 177 204 153 177 204 153 177 204 153 177 204 153 177 204 153 177 204 153 177 204 153 177 204 153 177 204 153 177 204 153 177 204 153 177 204 153 177 204 153 177 204 153 177 204 153 177 204 153 177 204 153 177 204 153 177 204 153 177 204 153 177 204 153 177 204 153 177 204 153 177 204 153 177 204 153 177 204 153 177 204 153 177 204 153 177 204 153 177 204 153 177 204 153 177 204 153 177 204 153 177 204 153 177 204 153 177 204 153 177 204 153 177 204 153 177 204 153 177 204 153 177 204 153 177 204 153 177 204 153 177 204 153 177 204 153 177 204 153 177 204 153 177 204 153 177 204 153 177 204 153 177 204 153 177 204 153 177 204 153 177 204 153 177 204 153 177 204 153 177 204 153 177 204 153 177 204 153 177 204 153 177 204 153 177 204 153 177 204 153 177 204 153 177 204 153 177 204 153 177 204 153 177 204 153 177 204 153 177 204 153 177 204 153 177 204 153 177 204 153 177 204 153 177 204 153 177 204 153 177 204 153 177 204 153 177 204 153 177 204 153 177 204 153 177 204 153 177 204 153 177 204 153 177 204 153 177 204 153 177 204 153 177 204 153 177 204 153 177 204 153 177 204 153 177 204 153 177 204 153 177 204 153 177 204 153 177 204 153 177 204 153 177 204 153 177 204 153 177 204 153 177 204 153 177 204 153 177 204 153 177 204 153 177 204 153 177 204 153 177 204 153 177 204 153 177 204 153 177 204 153 177 204 153 177 204 153 177 204 153 177 204 153 177 204 153 177 204 153 177 204 153 177 204 153 177 204 153 177 204 153 177 204 153 177 204 153 177 204 153 177 204 153 177 204 153 177 204 153 177 204 153 177 204 153 178 204 153 177 204 153 177 204 153 178 204 153 178 204 153 178 204 153 178 204 153 178 204 153 178 204 153 178 204 153 178 204 153 178 204 153 178 204 153 178 204 153 178 204 153 178 204 153 178 204 153 178 204 153 178 204 153 178 204 153 178 204 153 178 204 153 178 204 153 178 204 153 178 204 153 178 204 153 178 204 153 178 204 153 178 204 153 178 204 153 178 204 153 178 204 153 178 204 153 178 204 153 178 204 153 178 204 153 178 204 153 178 204 153 178 204 153 178 204 153 178 204 153 178 204 153 178 204 153 178 204 153 178 204 153 178 204 153 178 204 153 178 204 153 178 204 153 178 204 153 178 204 153 178 204 153 178 204 153 178 204 153 178 204 153 178 204 153 178 204 153 178 204 153 178 204 153 178 204 153 178 204 153 178 204 153 178 204 153 178 204 153 178 204 153 178 204 153 178 204 153 178 204 153 178 204 153 178 204 153 178 204 153 178 204 153 178 204 153 178 204 153 178 204 153 178 204 153 178 204 153 178 204 153 178 204 153 178 204 153 178 204 153 178 204 153 178 204 153 178 204 153 178 204 153 178 204 153 178 204 153 178 204 153 178 204 153 178 204 153 178 204 153 178 204 153 178 204 153 178 204 153 178 204 153 178 204 153 178 204 153 178 204 153 178 204 153 178 204 153 178 204 153 178 204 153 178 204 153 178 204 153 178 204 153 178 204 153 178 204 153 178 204 153 178 204 153 178 204 153 178 204 153 178 204 153 178 204 153 178 204 153 178 204 153 178 204 153 178 204 153 178 204 153 178 204 153 178 204 153 178 204 153 178 204 153 178 204 153 178 204 153 178 204 153 178 204 153 178 204 153 178 204 153 178 204 153 178 204 153 178 204 153 178 204 153 178 204 153 178 204 153 178 204 153 178 204 153 178 204 153 178 204 153 178 204 153 178 204 153 178 204 153 178 204 153 178 204 153 178 204 153 178 204 153 178 204 153 178 204 153 178 204 153 178 204 153 178 204 153 178 204 153 178 204 153 178 204 153 178 204 153 178 204 153 178 204 153 178 204 153 178 204 153 178 204 153 178 204 153 178 204 153 178 204 153 178 204 153 178 204 153 178 204 153 178 204 153 178 204 153 178 204 153 178 204 153 178 204 153 178 204 153 178 204 153 178 204 153 178 204 153 178 204 153 178 204 153 178 204 153 178 204 153 178 204 153 178 204 153 178 204 153 178 204 153 178 204 153 178 204 153 178 204 153 178 204 153 178 204 153 178 204 153 178 204 153 178 204 153 178 204 153 178 204 153 178 204 153 178 204 153 178 204 153 178 204 153 178 204 153 178 204 153 178 204 153 178 204 153 178 204 153 178 204 153 178 204 153 178 204 153 178 204 153 178 204 153 178 204 153 178 204 153 178 204 153 178 204 153 178 204 153 178 204 153 178 204 153 178 204 153 178 204 153 178 204 153 178 204 153 178 204 153 178 204 153 178 204 153 178 204 153 178 204 153 178 204 153 178 204 153 178 204 153 178 204 153 178 204 153 178 204 153 178 204 153 178 204 153 178 204 153 178 204 153 178 204 153 178 204 153 178 204 153 178 204 153 178 204 153 178 204 153 178 204 153 178 204 153 178 204 153 178 204 153 178 204 153 178 204 153 178 204 153 178 204 153 178 204 153 178 204 153 178 204 153 178 204 153 178 204 153 178 204 153 178 204 153 178 204 153 178 204 153 178 204 153 178 204 153 178 204 153 178 204 153 178 204 153 178 204 153 178 204 153 178 204 153 178 204 153 178 204 153 178 204 153 178 204 153 178 204 153 178 204 153 178 204 153 178 204 153 178 204 153 178 204 153 178 204 153 178 204 153 178 204 153 178 204 153 178 204 153 178 204 153 178 204 153 178 204 153 178 204 153 178 204 153 178 204 153 178 204 153 178 204 153 178 204 153 178 204 153 178 204 153 178 204 153 178 204 153 178 204 153 178 204 153 178 204 153 178 204 153 178 204 153 178 204 153 178 204 153 178 204 153 178 204 153 178 204 153 178 204 153 178 204 153 178 204 153 178 204 153 178 204 153 178 204 153 178 204 153 178 204 153 178 204 153 178 204 153 178 204 153 178 204 153 178 204 153 178 204 153 178 204 153 178 204 153 178 204 153 178 204 153 178 204 153 178 204 153 178 204 153 178 204 153 178 204 153 178 204 153 178 204 153 177 204 153 177 204 153 177 204 153 177 204 153 177 204 153 177 204 153 177 204 153 177 204 153 177 204 153 177 204 153 177 204 153 177 204 153 177 204 153 177 204 153 177 204 153 177 204 153 177 204 153 177 204 153 177 204 153 177 204 153 177 204 153 177 204 153 177 204 153 177 204 153 177 204 153 177 204 153 177 204 153 177 204 153 177 204 153 177 204 153 177 204 153 177 204 153 177 204 153 177 204 153 177 204 153 177 204 153 177 204 153 177 204 153 177 204 153 177 204 153 177 204 153 177 204 153 177 204 153 177 204 153 177 204 153 177 204 153 177 204 153 177 204 153 177 204 153 177 204 153 177 204 153 177 204 153 177 204 153 177 204 153 177 204 153 177 204 153 177 204 153 177 204 153 177 204 153 177 204 153 177 204 153 177 204 153 177 204 153 177 204 153 177 204 153 177 204 153 177 204 153 177 204 153 177 204 153 177 204 153 177 204 153 177 204 153 177 204 153 177 204 153 177 204 153 177 204 153 177 204 153 177 204 153 177 204 153 177 204 153 177 204 153 177 204 153 177 204 153 177 204 153 177 204 153 177 204 153 177 204 153 177 204 153 177 204 153 177 204 153 177 204 153 177 204 153 177 204 153 177 204 153 177 204 153 177 204 153 177 204 153 177 204 153 177 204 153 177 204 153 177 204 153 177 204 153 177 204 153 177 204 153 177 204 153 177 204 153 177 204 153 177 204 153 177 204 153 177 204 153 177 204 153 177 204 153 177 204 153 177 204 153 177 204 153 177 204 153 177 204 153 177 204 153 177 204 153 177 204 153 177 204 153 177 204 153 177 204 153 177 204 153 177 204 153 177 204 153 177 204 153 177 204 153 177 204 153 177 204 153 177 204 153 177 204 153 177 204 153 177 204 153 177 204 153 177 204 153 177 204 153 177 204 153 177 204 153 177 204 153 177 204 153 177 204 153 177 204 153 177 204 153 177 204 153 177 204 153 177 204 153 177 204 153 177 204 153 177 204 153 177 204 153 177 204 153 177 204 153 177 204 153 177 204 153 177 204 153 177 204 153 177 204 153 177 204 153 177 204 153 177 204 153 177 204 153 177 204 153 177 204 153 177 204 153 177 204 153 177 204 153 177 204 153 177 204 153 177 204 153 177 204 153 177 204 152 177 204 152 177 204 152 177 204 152 177 204 152 177 204 152 177 204 152 177 204 152 177 204 152 177 204 152 177 204 152 177 204 152 177 204 152 177 204 152 177 204 152 177 204 152 177 204 152 177 204 152 177 204 152 177 203 152 177 203 152 177 203 152 177 203 152 177 203 152 177 203 152 177 203 152 177 203 152 177 203 152 177 203 152 177 203 152 177 203 152 177 203 152 177 203 152 177 203 152 177 203 152 177 203 152 177 203 152 177 203 152 177 203 152 177 203 152 177 203 152 177 203 152 177 203 152 177 203 152 177 203 152 177 203 152 177 203 152 177 203 152 177 203 152 177 203 152 177 203 152 177 203 152 177 203 152 177 203 152 177 203 152 177 203 152 177 203 152 177 203 152 177 203 152 177 203 152 177 203 152 177 203 152 177 203 152 177 203 152 177 203 152 177 203 152 177 203 
152 177 203 152 177 203 152 177 203 152 177 203 152 177 203 152 177 203 152 177 203 152 177 203 152 177 203 152 177 203 152 177 203 152 177 203 152 177 203 152 177 203 152 177 203 152 177 203 152 177 203 152 177 203 152 177 203 152 177 203 152 177 203 152 177 203 152 177 203 152 177 203 152 177 203 152 177 203 152 177 203 152 177 203 152 177 203 152 177 203 152 177 203 152 177 203 152 177 203 152 177 203 152 177 203 152 177 203 152 177 203 152 177 203 152 177 203 152 177 203 152 177 203 152 177 203 152 177 203 152 177 203 152 177 203 152 177 203 152 177 203 152 177 203 152 177 203 152 177 203 152 177 203 152 177 203 152 177 203 152 177 203 152 177 203 152 177 203 152 177 203 152 177 204 152 177 204 152 177 204 152 177 204 152 177 204 152 177 204 152 177 204 152 177 204 152 177 204 152 177 204 152 177 204 152 177 204 152 177 204 152 177 204 152 177 204 152 177 204 153 177 204 153 177 204 153 177 204 153 177 204 153 177 204 153 177 204 153 177 204 153 177 204 153 177 204 153 177 204 153 177 204 153 177 204 153 177 204 153 177 204 153 177 204 153 177 204 153 177 204 153 177 204 153 177 204 153 177 204 153 177 204 153 177 204 153 177 204 153 177 204 153 177 204 153 177 204 153 177 204 153 177 204 153 177 204 153 177 204 153 177 204 153 177 204 153 177 204 153 177 204 153 177 204 153 177 204 153 177 204 153 177 204 153 177 204 153 177 204 153 177 204 153 177 204 153 177 204 153 177 204 153 177 204 153 177 204 153 177 204 153 177 204 153 177 204 153 177 204 153 177 204 153 177 204 153 177 204 153 177 204 153 177 204 153 177 204 153 177 204 153 177 204 153 177 204 153 177 204 153 177 204 153 177 204 153 177 204 153 177 204 153 177 204 153 177 204 153 177 204 153 177 204 153 177 204 153 177 204 153 177 204 153 177 204 153 177 204 153 177 204 153 177 204 153 177 204 153 177 204 153 177 204 153 177 204 153 177 204 153 177 204 153 177 204 153 177 204 153 177 204 153 177 204 153 177 204 153 177 204 153 177 204 153 177 204 153 177 204 153 177 204 153 177 204 153 177 204 153 177 204 153 177 204 153 177 204 153 177 204 153 177 204 153 177 204 153 177 204 153 177 204 153 177 204 153 177 204 153 177 204 153 177 204 153 177 204 153 177 204 153 177 204 153 177 204 153 177 204 153 177 204 153 177 204 153 177 204 153 177 204 153 177 204 153 177 204 153 177 204 153 177 204 153 177 204 153 177 204 153 177 204 153 177 204 153 177 204 153 177 204 153 177 204 153 177 204 153 177 204 153 177 204 153 177 204 153 177 204 153 177 204 153 177 204 153 177 204 153 177 204 153 177 204 153 177 204 153 177 204 153 177 204 153 177 204 153 177 204 153 177 204 153 177 204 153 177 204 153 177 204 153 177 204 153 177 204 153 177 204 153 177 204 153 177 204 153 177 204 153 177 204 153 177 204 153 177 204 153 177 204 153 177 204 153 177 204 153 177 204 153 177 204 153 177 204 153 177 204 153 177 204 153 177 204 153 177 204 153 177 204 153 177 204 153 177 204 153 177 204 153 177 204 153 177 204 153 177 204 153 177 204 153 177 204 153 177 204 153 177 204 153 177 204 153 177 204 153 177 204 153 177 204 153 177 204 153 177 204 153 178 204 153 178 204 153 178 204 153 177 204 153 177 204 153 178 204 153 178 204 153 178 204 153 178 204 153 178 204 153 178 204 153 178 204 153 178 204 153 178 204 153 178 204 153 178 204 153 178 204 153 178 204 153 178 204 153 178 204 153 178 204 153 178 204 153 178 204 153 178 204 153 178 204 153 178 204 153 178 204 153 178 204 153 178 204 153 178 204 153 178 204 153 178 204 153 178 204 153 178 204 153 178 204 153 178 204 153 178 204 153 178 204 153 178 204 153 178 204 153 178 204 153 178 204 153 178 204 153 178 204 153 178 204 153 178 204 153 178 204 153 178 204 153 178 204 153 178 204 153 178 204 153 178 204 153 178 204 153 178 204 153 178 204 153 178 204 153 178 204 153 178 204 153 178 204 153 178 204 153 178 204 153 178 204 153 178 204 153 178 204 153 178 204 153 178 204 153 178 204 153 178 204 153 178 204 153 178 204 153 178 204 153 178 204 153 178 204 153 178 204 153 178 204 153 178 204 153 178 204 153 178 204 153 178 204 153 178 204 153 178 204 153 178 204 153 178 204 153 178 204 153 178 204 153 178 204 153 178 204 153 178 204 153 178 204 153 178 204 153 178 204 153 178 204 153 178 204 153 178 204 153 178 204 153 178 204 153 178 204 153 178 204 153 178 204 153 178 204 153 178 204 153 178 204 153 178 204 153 178 204 153 178 204 153 178 204 153 178 204 153 178 204 153 178 204 153 178 204 153 178 204 153 178 204 153 178 204 153 178 204 153 178 204 153 178 204 153 178 204 153 178 204 153 178 204 153 178 204 153 178 204 153 178 204 153 178 204 153 178 204 153 178 204 153 178 204 153 178 204 153 178 204 153 178 204 153 178 204 153 178 204 153 178 204 153 178 204 153 178 204 153 178 204 153 178 204 153 178 204 153 178 204 153 178 204 153 178 204 153 178 204 153 178 204 153 178 204 153 178 204 153 178 204 153 178 204 153 178 204 153 178 204 153 178 204 153 178 204 153 178 204 153 178 204 153 178 204 153 178 204 153 178 204 153 178 204 153 178 204 153 178 204 153 178 204 153 178 204 153 178 204 153 178 204 153 178 204 153 178 204 153 178 204 153 178 204 153 178 204 153 178 204 153 178 204 153 178 204 153 178 204 153 178 204 153 178 204 153 178 204 153 178 204 153 178 204 153 178 204 153 178 204 153 178 204 153 178 204 153 178 204 153 178 204 153 178 204 153 178 204 153 178 204 153 178 204 153 178 204 153 178 204 153 178 204 153 178 204 153 178 204 153 178 204 153 178 204 153 178 204 153 178 204 153 178 204 153 178 204 153 178 204 153 178 204 153 178 204 153 178 204 153 178 204 153 178 204 153 178 204 153 178 204 153 178 204 153 178 204 153 178 204 153 178 204 153 178 204 153 178 204 153 178 204 153 178 204 153 178 204 153 178 204 153 178 204 153 178 204 153 178 204 153 178 204 153 178 204 153 178 204 153 178 204 153 178 204 153 178 204 153 178 204 153 178 204 153 178 204 153 178 204 153 178 204 153 178 204 153 178 204 153 178 204 153 178 204 153 178 204 153 178 204 153 178 204 153 178 204 153 178 204 153 178 204 153 178 204 153 178 204 153 178 204 153 178 204 153 178 204 153 178 204 153 178 204 153 178 204 153 178 204 153 178 204 153 178 204 153 178 204 153 178 204 153 178 204 153 178 204 153 178 204 153 178 204 153 178 204 153 178 204 153 178 204 153 178 204 153 178 204 153 178 204 153 178 204 153 178 204 153 178 204 153 178 204 153 178 204 153 178 204 153 178 204 153 178 204 153 178 204 153 178 204 153 178 204 153 178 204 153 178 204 153 178 204 153 178 204 153 178 204 153 178 204 153 178 204 153 178 204 153 178 204 153 178 204 153 178 204 153 178 204 153 178 204 153 178 204 153 178 204 153 178 204 153 177 204 153 177 204 153 177 204 153 177 204 153 177 204 153 177 204 153 177 204 153 177 204 153 177 204 153 177 204 153 177 204 153 177 204 153 177 204 153 177 204 153 177 204 153 177 204 153 177 204 153 177 204 153 177 204 153 177 204 153 177 204 153 177 204 153 177 204 153 177 204 153 177 204 153 177 204 153 177 204 153 177 204 153 177 204 153 177 204 153 177 204 153 177 204 153 177 204 153 177 204 153 177 204 153 177 204 153 177 204 153 177 204 153 177 204 153 177 204 153 177 204 153 177 204 153 177 204 153 177 204 153 177 204 153 177 204 153 177 204 153 177 204 153 177 204 153 177 204 153 177 204 153 177 204 153 177 204 153 177 204 153 177 204 153 177 204 153 177 204 153 177 204 153 177 204 153 177 204 153 177 204 153 177 204 153 177 204 153 177 204 153 177 204 153 177 204 153 177 204 153 177 204 153 177 204 153 177 204 153 177 204 153 177 204 153 177 204 153 177 204 153 177 204 153 177 204 153 177 204 153 177 204 153 177 204 153 177 204 153 177 204 153 177 204 153 177 204 153 177 204 153 177 204 153 177 204 153 177 204 153 177 204 153 177 204 153 177 204 153 177 204 153 177 204 153 177 204 153 177 204 153 177 204 153 177 204 153 177 204 153 177 204 153 177 204 153 177 204 153 177 204 153 177 204 153 177 204 153 177 204 153 177 204 153 177 204 153 177 204 153 177 204 153 177 204 153 177 204 153 177 204 153 177 204 153 177 204 153 177 204 153 177 204 153 177 204 153 177 204 153 177 204 153 177 204 153 177 204 153 177 204 153 177 204 153 177 204 153 177 204 153 177 204 153 177 204 153 177 204 153 177 204 153 177 204 153 177 204 153 177 204 153 177 204 153 177 204 153 177 204 153 177 204 153 177 204 153 177 204 153 177 204 153 177 204 153 177 204 153 177 204 153 177 204 153 177 204 153 177 204 153 177 204 153 177 204 153 177 204 153 177 204 153 177 204 153 177 204 153 177 204 153 177 204 153 177 204 153 177 204 153 177 204 153 177 204 153 177 204 153 177 204 153 177 204 153 177 204 153 177 204 153 177 204 153 177 204 153 177 204 153 177 204 153 177 204 153 177 204 153 177 204 153 177 204 153 177 204 153 177 204 153 177 204 153 177 204 153 177 204 153 177 204 153 177 204 153 177 204 153 177 204 153 177 204 153 177 204 153 177 204 153 177 204 153 177 204 153 177 204 152 177 204 152 177 204 152 177 204 152 177 204 152 177 204 152 177 204 152 177 204 152 177 204 152 177 204 152 177 204 152 177 204 152 177 204 152 177 204 152 177 204 152 177 204 152 177 204 152 177 204 152 177 204 152 177 203 152 177 203 152 177 203 152 177 203 152 177 203 152 177 203 152 177 203 152 177 203 152 177 203 152 177 203 152 177 203 152 177 203 152 177 203 152 177 203 152 177 203 152 177 203 152 177 203 152 177 203 152 177 203 152 177 203 152 177 203 152 177 203 152 177 203 152 177 203 152 177 203 152 177 203 152 177 203 152 177 203 152 177 203 152 177 203 152 177 203 152 177 203 152 177 203 152 177 203 152 177 203 152 177 203 152 177 203 152 177 203 152 177 203 152 177 203 152 177 203 152 177 203 152 177 203 152 177 203 152 177 203 152 177 203 152 177 203 152 177 203 152 177 203 152 177 203 152 177 203 152 177 203 152 177 203 152 177 203 152 177 203 152 177 203 
152 177 203 152 177 203 152 177 203 152 177 203 152 177 203 152 177 203 152 177 203 152 177 203 152 177 203 152 177 203 152 177 203 152 177 203 152 177 203 152 177 203 152 177 203 152 177 203 152 177 203 152 177 203 152 177 203 152 177 203 152 177 203 152 177 203 152 177 203 152 177 203 152 177 203 152 177 203 152 177 203 152 177 203 152 177 203 152 177 203 152 177 203 152 177 203 152 177 203 152 177 203 152 177 203 152 177 203 152 177 203 152 177 203 152 177 203 152 177 203 152 177 203 152 177 203 152 177 203 152 177 203 152 177 203 152 177 203 152 177 203 152 177 203 152 177 203 152 177 203 152 177 203 152 177 203 152 177 203 152 177 203 152 177 203 152 177 203 152 177 203 152 177 203 152 177 203 152 177 203 152 177 203 152 177 203 152 177 203 152 177 203 152 177 203 152 177 203 152 177 203 152 177 204 152 177 204 152 177 204 152 177 204 152 177 204 152 177 204 152 177 204 152 177 204 152 177 204 152 177 204 152 177 204 152 177 204 152 177 204 152 177 204 152 177 204 152 177 204 152 177 204 153 177 204 153 177 204 153 177 204 153 177 204 153 177 204 153 177 204 153 177 204 153 177 204 153 177 204 153 177 204 153 177 204 153 177 204 153 177 204 153 177 204 153 177 204 153 177 204 153 177 204 153 177 204 153 177 204 153 177 204 153 177 204 153 177 204 153 177 204 153 177 204 153 177 204 153 177 204 153 177 204 153 177 204 153 177 204 153 177 204 153 177 204 153 177 204 153 177 204 153 177 204 153 177 204 153 177 204 153 177 204 153 177 204 153 177 204 153 177 204 153 177 204 153 177 204 153 177 204 153 177 204 153 177 204 153 177 204 153 177 204 153 177 204 153 177 204 153 177 204 153 177 204 153 177 204 153 177 204 153 177 204 153 177 204 153 177 204 153 177 204 153 177 204 153 177 204 153 177 204 153 177 204 153 177 204 153 177 204 153 177 204 153 177 204 153 177 204 153 177 204 153 177 204 153 177 204 153 177 204 153 177 204 153 177 204 153 177 204 153 177 204 153 177 204 153 177 204 153 177 204 153 177 204 153 177 204 153 177 204 153 177 204 153 177 204 153 177 204 153 177 204 153 177 204 153 177 204 153 177 204 153 177 204 153 177 204 153 177 204 153 177 204 153 177 204 153 177 204 153 177 204 153 177 204 153 177 204 153 177 204 153 177 204 153 177 204 153 177 204 153 177 204 153 177 204 153 177 204 153 177 204 153 177 204 153 177 204 153 177 204 153 177 204 153 177 204 153 177 204 153 177 204 153 177 204 153 177 204 153 177 204 153 177 204 153 177 204 153 177 204 153 177 204 153 177 204 153 177 204 153 177 204 153 177 204 153 177 204 153 177 204 153 177 204 153 177 204 153 177 204 153 177 204 153 177 204 153 177 204 153 177 204 153 177 204 153 177 204 153 177 204 153 177 204 153 177 204 153 177 204 153 177 204 153 177 204 153 177 204 153 177 204 153 177 204 153 177 204 153 177 204 153 177 204 153 177 204 153 177 204 153 177 204 153 177 204 153 177 204 153 177 204 153 177 204 153 177 204 153 177 204 153 177 204 153 177 204 153 177 204 153 177 204 153 177 204 153 177 204 153 177 204 153 177 204 153 177 204 153 177 204 153 177 204 153 177 204 153 177 204 153 177 204 153 177 204 153 177 204 153 177 204 153 177 204 153 177 204 153 177 204 153 177 204 153 177 204 153 177 204 153 177 204 153 177 204 153 177 204 153 177 204 153 177 204 153 177 204 153 177 204 153 177 204 153 177 204 153 177 204 153 177 204 153 177 204 153 177 204 153 177 204 153 177 204 153 178 204 153 178 204 153 178 204 153 178 204 153 178 204 153 178 204 153 178 204 153 178 204 153 178 204 153 178 204 153 178 204 153 178 204 153 178 204 153 178 204 153 178 204 153 178 204 153 178 204 153 178 204 153 178 204 153 178 204 153 178 204 153 178 204 153 178 204 153 178 204 153 178 204 153 178 204 153 178 204 153 178 204 153 178 204 153 178 204 153 178 204 153 178 204 153 178 204 153 178 204 153 178 204 153 178 204 153 178 204 153 178 204 153 178 204 153 178 204 153 178 204 153 178 204 153 178 204 153 178 204 153 178 204 153 178 204 153 178 204 153 178 204 153 178 204 153 178 204 153 178 204 153 178 204 153 178 204 153 178 204 153 178 204 153 178 204 153 178 204 153 178 204 153 178 204 153 178 204 153 178 204 153 178 204 153 178 204 153 178 204 153 178 204 153 178 204 153 178 204 153 178 204 153 178 204 153 178 204 153 178 204 153 178 204 153 178 204 153 178 204 153 178 204 153 178 204 153 178 204 153 178 204 153 178 204 153 178 204 153 178 204 153 178 204 153 178 204 153 178 204 153 178 204 153 178 204 153 178 204 153 178 204 153 178 204 153 178 204 153 178 204 153 178 204 153 178 204 153 178 204 153 178 204 153 178 204 153 178 204 153 178 204 153 178 204 153 178 204 153 178 204 153 178 204 153 178 204 153 178 204 153 178 204 153 178 204 153 178 204 153 178 204 153 178 204 153 178 204 153 178 204 153 178 204 153 178 204 153 178 204 153 178 204 153 178 204 153 178 204 153 178 204 153 178 204 153 178 204 153 178 204 153 178 204 153 178 204 153 178 204 153 178 204 153 178 204 153 178 204 153 178 204 153 178 204 153 178 204 153 178 204 153 178 204 153 178 204 153 178 204 153 178 204 153 178 204 153 178 204 153 178 204 153 178 204 153 178 204 153 178 204 153 178 204 153 178 204 153 178 204 153 178 204 153 178 204 153 178 204 153 178 204 153 178 204 153 178 204 153 178 204 153 178 204 153 178 204 153 178 204 153 178 204 153 178 204 153 178 204 153 178 204 153 178 204 153 178 204 153 178 204 153 178 204 153 178 204 153 178 204 153 178 204 153 178 204 153 178 204 153 178 204 153 178 204 153 178 204 153 178 204 153 178 204 153 178 204 153 178 204 153 178 204 153 178 204 153 178 204 153 178 204 153 178 204 153 178 204 153 178 204 153 178 204 153 178 204 153 178 204 153 178 204 153 178 204 153 178 204 153 178 204 153 178 204 153 178 204 153 178 204 153 178 204 153 178 204 153 178 204 153 178 204 153 178 204 153 178 204 153 178 204 153 178 204 153 178 204 153 178 204 153 178 204 153 178 204 153 178 204 153 178 204 153 178 204 153 178 204 153 178 204 153 178 204 153 178 204 153 178 204 153 178 204 153 178 204 153 178 204 153 178 204 153 178 204 153 178 204 153 178 204 153 178 204 153 178 204 153 178 204 153 178 204 153 178 204 153 178 204 153 178 204 153 178 204 153 178 204 153 178 204 153 178 204 153 178 204 153 178 204 153 178 204 153 178 204 153 178 204 153 178 204 153 178 204 153 178 204 153 178 204 153 178 204 153 178 204 153 178 204 153 178 204 153 178 204 153 178 204 153 178 204 153 178 204 153 178 204 153 178 204 153 177 204 153 178 204 153 177 204 153 177 204 153 177 204 153 177 204 153 177 204 153 177 204 153 177 204 153 177 204 153 177 204 153 177 204 153 177 204 153 177 204 153 177 204 153 177 204 153 177 204 153 177 204 153 177 204 153 177 204 153 177 204 153 177 204 153 177 204 153 177 204 153 177 204 153 177 204 153 177 204 153 177 204 153 177 204 153 177 204 153 177 204 153 177 204 153 177 204 153 177 204 153 177 204 153 177 204 153 177 204 153 177 204 153 177 204 153 177 204 153 177 204 153 177 204 153 177 204 153 177 204 153 177 204 153 177 204 153 177 204 153 177 204 153 177 204 153 177 204 153 177 204 153 177 204 153 177 204 153 177 204 153 177 204 153 177 204 153 177 204 153 177 204 153 177 204 153 177 204 153 177 204 153 177 204 153 177 204 153 177 204 153 177 204 153 177 204 153 177 204 153 177 204 153 177 204 153 177 204 153 177 204 153 177 204 153 177 204 153 177 204 153 177 204 153 177 204 153 177 204 153 177 204 153 177 204 153 177 204 153 177 204 153 177 204 153 177 204 153 177 204 153 177 204 153 177 204 153 177 204 153 177 204 153 177 204 153 177 204 153 177 204 153 177 204 153 177 204 153 177 204 153 177 204 153 177 204 153 177 204 153 177 204 153 177 204 153 177 204 153 177 204 153 177 204 153 177 204 153 177 204 153 177 204 153 177 204 153 177 204 153 177 204 153 177 204 153 177 204 153 177 204 153 177 204 153 177 204 153 177 204 153 177 204 153 177 204 153 177 204 153 177 204 153 177 204 153 177 204 153 177 204 153 177 204 153 177 204 153 177 204 153 177 204 153 177 204 153 177 204 153 177 204 153 177 204 153 177 204 153 177 204 153 177 204 153 177 204 153 177 204 153 177 204 153 177 204 153 177 204 153 177 204 153 177 204 153 177 204 153 177 204 153 177 204 153 177 204 153 177 204 153 177 204 153 177 204 153 177 204 153 177 204 153 177 204 153 177 204 153 177 204 153 177 204 153 177 204 153 177 204 153 177 204 153 177 204 153 177 204 153 177 204 153 177 204 153 177 204 153 177 204 153 177 204 153 177 204 153 177 204 153 177 204 153 177 204 153 177 204 153 177 204 153 177 204 153 177 204 153 177 204 153 177 204 153 177 204 153 177 204 153 177 204 153 177 204 153 177 204 153 177 204 153 177 204 153 177 204 153 177 204 153 177 204 153 177 204 153 177 204 153 177 204 153 177 204 153 177 204 153 177 204 153 177 204 153 177 204 153 177 204 153 177 204 153 177 204 152 177 204 152 177 204 152 177 204 152 177 204 152 177 204 152 177 204 152 177 204 152 177 204 152 177 204 152 177 204 152 177 204 152 177 204 152 177 204 152 177 204 152 177 204 152 177 204 152 177 204 152 177 204 152 177 203 152 177 203 152 177 203 152 177 203 152 177 203 152 177 203 152 177 203 152 177 203 152 177 203 152 177 203 152 177 203 152 177 203 152 177 203 152 177 203 152 177 203 152 177 203 152 177 203 152 177 203 152 177 203 152 177 203 152 177 203 152 177 203 152 177 203 152 177 203 152 177 203 152 177 203 152 177 203 152 177 203 152 177 203 152 177 203 152 177 203 152 177 203 152 177 203 152 177 203 152 177 203 152 177 203 152 177 203 152 177 203 152 177 203 152 177 203 152 177 203 152 177 203 152 177 203 152 177 203 152 177 203 152 177 203 152 177 203 152 177 203 152 177 203 152 177 203 152 177 203 152 177 203 152 177 203 152 177 203 152 177 203 152 177 203 152 177 203 152 177 203 152 177 203 152 177 203 152 177 203 152 177 203 152 177 203 152 177 203 152 177 203 
152 176 203 152 176 203 152 176 203 152 177 203 152 176 203 152 177 203 152 177 203 152 177 203 152 177 203 152 177 203 152 177 203 152 177 203 152 177 203 152 177 203 152 177 203 152 177 203 152 177 203 152 177 203 152 177 203 152 177 203 152 177 203 152 177 203 152 177 203 152 177 203 152 177 203 152 177 203 152 177 203 152 177 203 152 177 203 152 177 203 152 177 203 152 177 203 152 177 203 152 177 203 152 177 203 152 177 203 152 177 203 152 177 203 152 177 203 152 177 203 152 177 203 152 177 203 152 177 203 152 177 203 152 177 203 152 177 203 152 177 203 152 177 203 152 177 203 152 177 203 152 177 203 152 177 203 152 177 203 152 177 203 152 177 203 152 177 203 152 177 203 152 177 203 152 177 203 152 177 203 152 177 203 152 177 203 152 177 203 152 177 203 152 177 203 152 177 203 152 177 203 152 177 203 152 177 203 152 177 203 152 177 203 152 177 203 152 177 203 152 177 203 152 177 203 152 177 203 152 177 204 152 177 204 152 177 204 152 177 204 152 177 204 152 177 204 152 177 204 152 177 204 152 177 204 152 177 204 152 177 204 152 177 204 152 177 204 152 177 204 152 177 204 152 177 204 152 177 204 152 177 204 153 177 204 153 177 204 153 177 204 153 177 204 153 177 204 153 177 204 153 177 204 153 177 204 153 177 204 153 177 204 153 177 204 153 177 204 153 177 204 153 177 204 153 177 204 153 177 204 153 177 204 153 177 204 153 177 204 153 177 204 153 177 204 153 177 204 153 177 204 153 177 204 153 177 204 153 177 204 153 177 204 153 177 204 153 177 204 153 177 204 153 177 204 153 177 204 153 177 204 153 177 204 153 177 204 153 177 204 153 177 204 153 177 204 153 177 204 153 177 204 153 177 204 153 177 204 153 177 204 153 177 204 153 177 204 153 177 204 153 177 204 153 177 204 153 177 204 153 177 204 153 177 204 153 177 204 153 177 204 153 177 204 153 177 204 153 177 204 153 177 204 153 177 204 153 177 204 153 177 204 153 177 204 153 177 204 153 177 204 153 177 204 153 177 204 153 177 204 153 177 204 153 177 204 153 177 204 153 177 204 153 177 204 153 177 204 153 177 204 153 177 204 153 177 204 153 177 204 153 177 204 153 177 204 153 177 204 153 177 204 153 177 204 153 177 204 153 177 204 153 177 204 153 177 204 153 177 204 153 177 204 153 177 204 153 177 204 153 177 204 153 177 204 153 177 204 153 177 204 153 177 204 153 177 204 153 177 204 153 177 204 153 177 204 153 177 204 153 177 204 153 177 204 153 177 204 153 177 204 153 177 204 153 177 204 153 177 204 153 177 204 153 177 204 153 177 204 153 177 204 153 177 204 153 177 204 153 177 204 153 177 204 153 177 204 153 177 204 153 177 204 153 177 204 153 177 204 153 177 204 153 177 204 153 177 204 153 177 204 153 177 204 153 177 204 153 177 204 153 177 204 153 177 204 153 177 204 153 177 204 153 177 204 153 177 204 153 177 204 153 177 204 153 177 204 153 177 204 153 177 204 153 177 204 153 177 204 153 177 204 153 177 204 153 177 204 153 177 204 153 177 204 153 177 204 153 177 204 153 177 204 153 177 204 153 177 204 153 177 204 153 177 204 153 177 204 153 177 204 153 177 204 153 177 204 153 177 204 153 177 204 153 177 204 153 177 204 153 177 204 153 177 204 153 177 204 153 177 204 153 177 204 153 177 204 153 177 204 153 177 204 153 177 204 153 177 204 153 177 204 153 177 204 153 177 204 153 177 204 153 177 204 153 177 204 153 177 204 153 177 204 153 177 204 153 177 204 153 177 204 153 177 204 153 177 204 153 177 204 153 177 204 153 177 204 153 177 204 153 177 204 153 177 204 153 177 204 153 177 204 153 177 204 153 177 204 153 177 204 153 177 204 153 177 204 153 177 204 153 177 204 153 177 204 153 177 204 153 177 204 153 177 204 153 177 204 153 177 204 153 177 204 153 178 204 153 177 204 153 178 204 153 178 204 153 178 204 153 177 204 153 178 204 153 178 204 153 178 204 153 178 204 153 178 204 153 178 204 153 178 204 153 178 204 153 178 204 153 178 204 153 178 204 153 178 204 153 178 204 153 178 204 153 178 204 153 178 204 153 178 204 153 178 204 153 178 204 153 178 204 153 178 204 153 178 204 153 178 204 153 178 204 153 178 204 153 178 204 153 178 204 153 178 204 153 178 204 153 178 204 153 178 204 153 178 204 153 178 204 153 178 204 153 178 204 153 178 204 153 178 204 153 178 204 153 178 204 153 178 204 153 178 204 153 178 204 153 178 204 153 178 204 153 178 204 153 178 204 153 178 204 153 178 204 153 178 204 153 178 204 153 178 204 153 178 204 153 178 204 153 178 204 153 178 204 153 178 204 153 178 204 153 178 204 153 178 204 153 178 204 153 178 204 153 178 204 153 178 204 153 178 204 153 178 204 153 178 204 153 178 204 153 178 204 153 178 204 153 178 204 153 178 204 153 178 204 153 178 204 153 178 204 153 178 204 153 178 204 153 178 204 153 178 204 153 178 204 153 178 204 153 178 204 153 178 204 153 178 204 153 178 204 153 178 204 153 178 204 153 178 204 153 178 204 153 178 204 153 178 204 153 178 204 153 178 204 153 178 204 153 178 204 153 178 204 153 178 204 153 178 204 153 178 204 153 178 204 153 178 204 153 178 204 153 178 204 153 178 204 153 178 204 153 178 204 153 178 204 153 178 204 153 178 204 153 178 204 153 178 204 153 178 204 153 178 204 153 178 204 153 178 204 153 178 204 153 178 204 153 178 204 153 178 204 153 178 204 153 178 204 153 178 204 153 178 204 153 178 204 153 178 204 153 178 204 153 178 204 153 178 204 153 178 204 153 178 204 153 178 204 153 178 204 153 178 204 153 178 204 153 178 204 153 178 204 153 178 204 153 178 204 153 178 204 153 178 204 153 178 204 153 178 204 153 178 204 153 178 204 153 178 204 153 178 204 153 178 204 153 178 204 153 178 204 153 178 204 153 178 204 153 178 204 153 178 204 153 178 204 153 178 204 153 178 204 153 178 204 153 178 204 153 178 204 153 178 204 153 178 204 153 178 204 153 178 204 153 178 204 153 178 204 153 178 204 153 178 204 153 178 204 153 178 204 153 178 204 153 178 204 153 178 204 153 178 204 153 178 204 153 178 204 153 178 204 153 178 204 153 178 204 153 178 204 153 178 204 153 178 204 153 178 204 153 178 204 153 178 204 153 178 204 153 178 204 153 178 204 153 178 204 153 178 204 153 178 204 153 178 204 153 178 204 153 178 204 153 178 204 153 178 204 153 178 204 153 177 204 153 178 204 153 177 204 153 178 204 153 177 204 153 177 204 153 177 204 153 177 204 153 177 204 153 177 204 153 177 204 153 177 204 153 177 204 153 177 204 153 177 204 153 177 204 153 177 204 153 177 204 153 177 204 153 177 204 153 177 204 153 177 204 153 177 204 153 177 204 153 177 204 153 177 204 153 177 204 153 177 204 153 177 204 153 177 204 153 177 204 153 177 204 153 177 204 153 177 204 153 177 204 153 177 204 153 177 204 153 177 204 153 177 204 153 177 204 153 177 204 153 177 204 153 177 204 153 177 204 153 177 204 153 177 204 153 177 204 153 177 204 153 177 204 153 177 204 153 177 204 153 177 204 153 177 204 153 177 204 153 177 204 153 177 204 153 177 204 153 177 204 153 177 204 153 177 204 153 177 204 153 177 204 153 177 204 153 177 204 153 177 204 153 177 204 153 177 204 153 177 204 153 177 204 153 177 204 153 177 204 153 177 204 153 177 204 153 177 204 153 177 204 153 177 204 153 177 204 153 177 204 153 177 204 153 177 204 153 177 204 153 177 204 153 177 204 153 177 204 153 177 204 153 177 204 153 177 204 153 177 204 153 177 204 153 177 204 153 177 204 153 177 204 153 177 204 153 177 204 153 177 204 153 177 204 153 177 204 153 177 204 153 177 204 153 177 204 153 177 204 153 177 204 153 177 204 153 177 204 153 177 204 153 177 204 153 177 204 153 177 204 153 177 204 153 177 204 153 177 204 153 177 204 153 177 204 153 177 204 153 177 204 153 177 204 153 177 204 153 177 204 153 177 204 153 177 204 153 177 204 153 177 204 153 177 204 153 177 204 153 177 204 153 177 204 153 177 204 153 177 204 153 177 204 153 177 204 153 177 204 153 177 204 153 177 204 153 177 204 153 177 204 153 177 204 153 177 204 153 177 204 153 177 204 153 177 204 153 177 204 153 177 204 153 177 204 153 177 204 153 177 204 153 177 204 153 177 204 153 177 204 153 177 204 153 177 204 153 177 204 153 177 204 153 177 204 153 177 204 153 177 204 153 177 204 153 177 204 153 177 204 153 177 204 153 177 204 153 177 204 153 177 204 153 177 204 153 177 204 153 177 204 153 177 204 153 177 204 153 177 204 153 177 204 153 177 204 153 177 204 153 177 204 153 177 204 153 177 204 153 177 204 153 177 204 153 177 204 153 177 204 153 177 204 153 177 204 153 177 204 153 177 204 153 177 204 153 177 204 153 177 204 153 177 204 153 177 204 153 177 204 153 177 204 153 177 204 153 177 204 153 177 204 153 177 204 153 177 204 153 177 204 153 177 204 153 177 204 153 177 204 153 177 204 153 177 204 153 177 204 153 177 204 153 177 204 153 177 204 153 177 204 153 177 204 152 177 204 153 177 204 152 177 204 152 177 204 152 177 204 152 177 204 152 177 204 152 177 204 152 177 204 152 177 204 152 177 204 152 177 204 152 177 204 152 177 204 152 177 204 152 177 204 152 177 204 152 177 204 152 177 204 152 177 204 152 177 203 152 177 203 152 177 203 152 177 203 152 177 203 152 177 203 152 177 203 152 177 203 152 177 203 152 177 203 152 177 203 152 177 203 152 177 203 152 177 203 152 177 203 152 177 203 152 177 203 152 177 203 152 177 203 152 177 203 152 177 203 152 177 203 152 177 203 152 177 203 152 177 203 152 177 203 152 177 203 152 177 203 152 177 203 152 177 203 152 177 203 152 177 203 152 177 203 152 177 203 152 177 203 152 177 203 152 177 203 152 177 203 152 177 203 152 177 203 152 177 203 152 177 203 152 177 203 152 177 203 152 177 203 152 177 203 152 177 203 152 177 203 152 177 203 152 177 203 152 177 203 152 177 203 152 177 203 152 177 203 152 177 203 152 177 203 152 177 203 152 177 203 152 177 203 152 177 203 152 177 203 152 177 203 152 177 203 152 177 203 152 177 203 152 177 203 152 177 203 152 177 203 152 177 203 152 177 203 152 177 203 152 176 203 152 177 203 152 176 203 152 176 203 
152 176 203 152 176 203 152 176 203 152 176 203 152 176 203 152 176 203 152 176 203 152 176 203 152 176 203 152 176 203 152 176 203 152 177 203 152 177 203 152 177 203 152 177 203 152 177 203 152 177 203 152 177 203 152 177 203 152 177 203 152 177 203 152 177 203 152 177 203 152 177 203 152 177 203 152 177 203 152 177 203 152 177 203 152 177 203 152 177 203 152 177 203 152 177 203 152 177 203 152 177 203 152 177 203 152 177 203 152 177 203 152 177 203 152 177 203 152 177 203 152 177 203 152 177 203 152 177 203 152 177 203 152 177 203 152 177 203 152 177 203 152 177 203 152 177 203 152 177 203 152 177 203 152 177 203 152 177 203 152 177 203 152 177 203 152 177 203 152 177 203 152 177 203 152 177 203 152 177 203 152 177 203 152 177 203 152 177 203 152 177 203 152 177 203 152 177 203 152 177 203 152 177 203 152 177 203 152 177 203 152 177 203 152 177 203 152 177 203 152 177 203 152 177 203 152 177 203 152 177 203 152 177 203 152 177 203 152 177 203 152 177 203 152 177 203 152 177 203 152 177 203 152 177 203 152 177 204 152 177 204 152 177 204 152 177 204 152 177 204 152 177 204 152 177 204 152 177 204 152 177 204 152 177 204 152 177 204 152 177 204 152 177 204 152 177 204 152 177 204 152 177 204 152 177 204 152 177 204 152 177 204 152 177 204 153 177 204 153 177 204 153 177 204 153 177 204 153 177 204 153 177 204 153 177 204 153 177 204 153 177 204 153 177 204 153 177 204 153 177 204 153 177 204 153 177 204 153 177 204 153 177 204 153 177 204 153 177 204 153 177 204 153 177 204 153 177 204 153 177 204 153 177 204 153 177 204 153 177 204 153 177 204 153 177 204 153 177 204 153 177 204 153 177 204 153 177 204 153 177 204 153 177 204 153 177 204 153 177 204 153 177 204 153 177 204 153 177 204 153 177 204 153 177 204 153 177 204 153 177 204 153 177 204 153 177 204 153 177 204 153 177 204 153 177 204 153 177 204 153 177 204 153 177 204 153 177 204 153 177 204 153 177 204 153 177 204 153 177 204 153 177 204 153 177 204 153 177 204 153 177 204 153 177 204 153 177 204 153 177 204 153 177 204 153 177 204 153 177 204 153 177 204 153 177 204 153 177 204 153 177 204 153 177 204 153 177 204 153 177 204 153 177 204 153 177 204 153 177 204 153 177 204 153 177 204 153 177 204 153 177 204 153 177 204 153 177 204 153 177 204 153 177 204 153 177 204 153 177 204 153 177 204 153 177 204 153 177 204 153 177 204 153 177 204 153 177 204 153 177 204 153 177 204 153 177 204 153 177 204 153 177 204 153 177 204 153 177 204 153 177 204 153 177 204 153 177 204 153 177 204 153 177 204 153 177 204 153 177 204 153 177 204 153 177 204 153 177 204 153 177 204 153 177 204 153 177 204 153 177 204 153 177 204 153 177 204 153 177 204 153 177 204 153 177 204 153 177 204 153 177 204 153 177 204 153 177 204 153 177 204 153 177 204 153 177 204 153 177 204 153 177 204 153 177 204 153 177 204 153 177 204 153 177 204 153 177 204 153 177 204 153 177 204 153 177 204 153 177 204 153 177 204 153 177 204 153 177 204 153 177 204 153 177 204 153 177 204 153 177 204 153 177 204 153 177 204 153 177 204 153 177 204 153 177 204 153 177 204 153 177 204 153 177 204 153 177 204 153 177 204 153 177 204 153 177 204 153 177 204 153 177 204 153 177 204 153 177 204 153 177 204 153 177 204 153 177 204 153 177 204 153 177 204 153 177 204 153 177 204 153 177 204 153 177 204 153 177 204 153 177 204 153 177 204 153 177 204 153 177 204 153 177 204 153 177 204 153 177 204 153 177 204 153 177 204 153 177 204 153 177 204 153 177 204 153 177 204 153 177 204 153 177 204 153 177 204 153 177 204 153 177 204 153 177 204 153 177 204 153 177 204 153 177 204 153 177 204 153 177 204 153 177 204 153 177 204 153 177 204 153 177 204 153 177 204 153 177 204 153 177 204 153 177 204 153 177 204 153 177 204 153 177 204 153 177 204 153 177 204 153 177 204 153 177 204 153 177 204 153 177 204 153 177 204 153 177 204 153 177 204 153 177 204 153 177 204 153 177 204 153 177 204 153 177 204 153 177 204 153 177 204 153 177 204 153 177 204 153 177 204 153 177 204 153 178 204 153 178 204 153 178 204 153 178 204 153 177 204 153 178 204 153 178 204 153 178 204 153 178 204 153 178 204 153 178 204 153 178 204 153 178 204 153 178 204 153 178 204 153 178 204 153 178 204 153 178 204 153 178 204 153 178 204 153 178 204 153 178 204 153 178 204 153 178 204 153 178 204 153 178 204 153 178 204 153 178 204 153 178 204 153 178 204 153 178 204 153 178 204 153 178 204 153 178 204 153 178 204 153 178 204 153 178 204 153 178 204 153 178 204 153 178 204 153 178 204 153 178 204 153 178 204 153 178 204 153 178 204 153 178 204 153 178 204 153 178 204 153 178 204 153 178 204 153 178 204 153 178 204 153 178 204 153 178 204 153 178 204 153 178 204 153 178 204 153 178 204 153 178 204 153 178 204 153 178 204 153 178 204 153 178 204 153 178 204 153 178 204 153 178 204 153 178 204 153 178 204 153 178 204 153 178 204 153 178 204 153 178 204 153 178 204 153 178 204 153 178 204 153 178 204 153 178 204 153 178 204 153 178 204 153 178 204 153 178 204 153 178 204 153 178 204 153 178 204 153 178 204 153 178 204 153 178 204 153 178 204 153 178 204 153 178 204 153 178 204 153 178 204 153 178 204 153 178 204 153 178 204 153 178 204 153 178 204 153 178 204 153 178 204 153 178 204 153 178 204 153 178 204 153 178 204 153 178 204 153 178 204 153 178 204 153 178 204 153 178 204 153 178 204 153 178 204 153 178 204 153 178 204 153 178 204 153 178 204 153 178 204 153 178 204 153 178 204 153 178 204 153 178 204 153 178 204 153 178 204 153 178 204 153 178 204 153 178 204 153 178 204 153 178 204 153 178 204 153 178 204 153 178 204 153 178 204 153 178 204 153 178 204 153 178 204 153 178 204 153 178 204 153 178 204 153 178 204 153 177 204 153 178 204 153 178 204 153 178 204 153 178 204 153 177 204 153 178 204 153 177 204 153 177 204 153 177 204 153 177 204 153 177 204 153 177 204 153 177 204 153 177 204 153 177 204 153 177 204 153 177 204 153 177 204 153 177 204 153 177 204 153 177 204 153 177 204 153 177 204 153 177 204 153 177 204 153 177 204 153 177 204 153 177 204 153 177 204 153 177 204 153 177 204 153 177 204 153 177 204 153 177 204 153 177 204 153 177 204 153 177 204 153 177 204 153 177 204 153 177 204 153 177 204 153 177 204 153 177 204 153 177 204 153 177 204 153 177 204 153 177 204 153 177 204 153 177 204 153 177 204 153 177 204 153 177 204 153 177 204 153 177 204 153 177 204 153 177 204 153 177 204 153 177 204 153 177 204 153 177 204 153 177 204 153 177 204 153 177 204 153 177 204 153 177 204 153 177 204 153 177 204 153 177 204 153 177 204 153 177 204 153 177 204 153 177 204 153 177 204 153 177 204 153 177 204 153 177 204 153 177 204 153 177 204 153 177 204 153 177 204 153 177 204 153 177 204 153 177 204 153 177 204 153 177 204 153 177 204 153 177 204 153 177 204 153 177 204 153 177 204 153 177 204 153 177 204 153 177 204 153 177 204 153 177 204 153 177 204 153 177 204 153 177 204 153 177 204 153 177 204 153 177 204 153 177 204 153 177 204 153 177 204 153 177 204 153 177 204 153 177 204 153 177 204 153 177 204 153 177 204 153 177 204 153 177 204 153 177 204 153 177 204 153 177 204 153 177 204 153 177 204 153 177 204 153 177 204 153 177 204 153 177 204 153 177 204 153 177 204 153 177 204 153 177 204 153 177 204 153 177 204 153 177 204 153 177 204 153 177 204 153 177 204 153 177 204 153 177 204 153 177 204 153 177 204 153 177 204 153 177 204 153 177 204 153 177 204 153 177 204 153 177 204 153 177 204 153 177 204 153 177 204 153 177 204 153 177 204 153 177 204 153 177 204 153 177 204 153 177 204 153 177 204 153 177 204 153 177 204 153 177 204 153 177 204 153 177 204 153 177 204 153 177 204 153 177 204 153 177 204 153 177 204 153 177 204 153 177 204 153 177 204 153 177 204 153 177 204 153 177 204 153 177 204 153 177 204 153 177 204 153 177 204 153 177 204 153 177 204 153 177 204 153 177 204 153 177 204 153 177 204 153 177 204 153 177 204 153 177 204 153 177 204 153 177 204 153 177 204 153 177 204 153 177 204 153 177 204 153 177 204 153 177 204 153 177 204 153 177 204 153 177 204 153 177 204 153 177 204 153 177 204 153 177 204 153 177 204 153 177 204 153 177 204 153 177 204 153 177 204 153 177 204 153 177 204 153 177 204 153 177 204 153 177 204 153 177 204 153 177 204 153 177 204 153 177 204 153 177 204 153 177 204 153 177 204 153 177 204 153 177 204 153 177 204 153 177 204 153 177 204 153 177 204 153 177 204 153 177 204 153 177 204 153 177 204 153 177 204 153 177 204 153 177 204 153 177 204 153 177 204 153 177 204 153 177 204 152 177 204 152 177 204 152 177 204 152 177 204 152 177 204 152 177 204 152 177 204 152 177 204 152 177 204 152 177 204 152 177 204 152 177 204 152 177 204 152 177 204 152 177 204 152 177 204 152 177 204 152 177 204 152 177 204 152 177 203 152 177 204 152 177 203 152 177 203 152 177 203 152 177 203 152 177 203 152 177 203 152 177 203 152 177 203 152 177 203 152 177 203 152 177 203 152 177 203 152 177 203 152 177 203 152 177 203 152 177 203 152 177 203 152 177 203 152 177 203 152 177 203 152 177 203 152 177 203 152 177 203 152 177 203 152 177 203 152 177 203 152 177 203 152 177 203 152 177 203 152 177 203 152 177 203 152 177 203 152 177 203 152 177 203 152 177 203 152 177 203 152 177 203 152 177 203 152 177 203 152 177 203 152 177 203 152 177 203 152 177 203 152 177 203 152 177 203 152 177 203 152 177 203 152 177 203 152 177 203 152 177 203 152 177 203 152 177 203 152 177 203 152 177 203 152 177 203 152 177 203 152 177 203 152 177 203 152 177 203 152 177 203 152 177 203 152 177 203 152 177 203 152 177 203 152 177 203 152 177 203 152 177 203 152 177 203 152 177 203 152 177 203 152 177 203 152 177 203 152 176 203 152 176 203 152 176 203 152 176 203 152 176 203 152 176 203 152 176 203 152 176 203 152 176 203 152 176 203 152 176 203 152 176 203 
152 176 203 152 176 203 152 176 203 152 176 203 152 176 203 152 176 203 152 176 203 152 176 203 152 176 203 152 176 203 152 176 203 152 176 203 152 176 203 152 176 203 152 176 203 152 176 203 152 176 203 152 176 203 152 176 203 152 176 203 152 177 203 152 177 203 152 177 203 152 177 203 152 177 203 152 177 203 152 177 203 152 177 203 152 177 203 152 177 203 152 177 203 152 177 203 152 177 203 152 177 203 152 177 203 152 177 203 152 177 203 152 177 203 152 177 203 152 177 203 152 177 203 152 177 203 152 177 203 152 177 203 152 177 203 152 177 203 152 177 203 152 177 203 152 177 203 152 177 203 152 177 203 152 177 203 152 177 203 152 177 203 152 177 203 152 177 203 152 177 203 152 177 203 152 177 203 152 177 203 152 177 203 152 177 203 152 177 203 152 177 203 152 177 203 152 177 203 152 177 203 152 177 203 152 177 203 152 177 203 152 177 203 152 177 203 152 177 203 152 177 203 152 177 203 152 177 203 152 177 203 152 177 203 152 177 203 152 177 203 152 177 203 152 177 203 152 177 203 152 177 203 152 177 203 152 177 203 152 177 203 152 177 203 152 177 203 152 177 203 152 177 203 152 177 203 152 177 203 152 177 203 152 177 203 152 177 204 152 177 203 152 177 204 152 177 204 152 177 204 152 177 204 152 177 204 152 177 204 152 177 204 152 177 204 152 177 204 152 177 204 152 177 204 152 177 204 152 177 204 152 177 204 152 177 204 152 177 204 152 177 204 153 177 204 153 177 204 153 177 204 153 177 204 153 177 204 153 177 204 153 177 204 153 177 204 153 177 204 153 177 204 153 177 204 153 177 204 153 177 204 153 177 204 153 177 204 153 177 204 153 177 204 153 177 204 153 177 204 153 177 204 153 177 204 153 177 204 153 177 204 153 177 204 153 177 204 153 177 204 153 177 204 153 177 204 153 177 204 153 177 204 153 177 204 153 177 204 153 177 204 153 177 204 153 177 204 153 177 204 153 177 204 153 177 204 153 177 204 153 177 204 153 177 204 153 177 204 153 177 204 153 177 204 153 177 204 153 177 204 153 177 204 153 177 204 153 177 204 153 177 204 153 177 204 153 177 204 153 177 204 153 177 204 153 177 204 153 177 204 153 177 204 153 177 204 153 177 204 153 177 204 153 177 204 153 177 204 153 177 204 153 177 204 153 177 204 153 177 204 153 177 204 153 177 204 153 177 204 153 177 204 153 177 204 153 177 204 153 177 204 153 177 204 153 177 204 153 177 204 153 177 204 153 177 204 153 177 204 153 177 204 153 177 204 153 177 204 153 177 204 153 177 204 153 177 204 153 177 204 153 177 204 153 177 204 153 177 204 153 177 204 153 177 204 153 177 204 153 177 204 153 177 204 153 177 204 153 177 204 153 177 204 153 177 204 153 177 204 153 177 204 153 177 204 153 177 204 153 177 204 153 177 204 153 177 204 153 177 204 153 177 204 153 177 204 153 177 204 153 177 204 153 177 204 153 177 204 153 177 204 153 177 204 153 177 204 153 177 204 153 177 204 153 177 204 153 177 204 153 177 204 153 177 204 153 177 204 153 177 204 153 177 204 153 177 204 153 177 204 153 177 204 153 177 204 153 177 204 153 177 204 153 177 204 153 177 204 153 177 204 153 177 204 153 177 204 153 177 204 153 177 204 153 177 204 153 177 204 153 177 204 153 177 204 153 177 204 153 177 204 153 177 204 153 177 204 153 177 204 153 177 204 153 177 204 153 177 204 153 177 204 153 177 204 153 177 204 153 177 204 153 177 204 153 177 204 153 177 204 153 177 204 153 177 204 153 177 204 153 177 204 153 177 204 153 177 204 153 177 204 153 177 204 153 177 204 153 177 204 153 177 204 153 177 204 153 177 204 153 177 204 153 177 204 153 177 204 153 177 204 153 177 204 153 177 204 153 177 204 153 177 204 153 177 204 153 177 204 153 177 204 153 177 204 153 177 204 153 177 204 153 177 204 153 177 204 153 177 204 153 177 204 153 177 204 153 177 204 153 177 204 153 177 204 153 177 204 153 177 204 153 177 204 153 177 204 153 177 204 153 177 204 153 177 204 153 177 204 153 177 204 153 177 204 153 177 204 153 177 204 153 177 204 153 177 204 153 177 204 153 177 204 153 177 204 153 177 204 153 177 204 153 177 204 153 177 204 153 177 204 153 177 204 153 177 204 153 177 204 153 177 204 153 177 204 153 177 204 153 177 204 153 177 204 153 177 204 153 177 204 153 177 204 153 177 204 153 177 204 153 177 204 153 177 204 153 177 204 153 177 204 153 177 204 153 177 204 153 177 204 153 177 204 153 177 204 153 177 204 153 177 204 153 177 204 153 177 204 153 177 204 153 177 204 153 177 204 153 177 204 153 177 204 153 177 204 153 177 204 153 177 204 153 177 204 153 177 204 153 177 204 153 177 204 153 177 204 153 177 204 153 177 204 153 177 204 153 177 204 153 177 204 153 177 204 153 177 204 153 177 204 153 177 204 153 177 204 153 177 204 153 177 204 153 177 204 153 177 204 153 177 204 153 177 204 153 177 204 153 177 204 153 177 204 153 177 204 153 177 204 153 177 204 153 177 204 153 177 204 153 177 204 153 177 204 153 177 204 153 178 204 153 177 204 153 177 204 153 178 204 153 178 204 153 177 204 153 177 204 153 177 204 153 178 204 153 177 204 153 177 204 153 178 204 153 177 204 153 178 204 153 177 204 153 177 204 153 177 204 153 177 204 153 177 204 153 177 204 153 177 204 153 178 204 153 177 204 153 177 204 153 178 204 153 177 204 153 177 204 153 177 204 153 177 204 153 177 204 153 177 204 153 177 204 153 177 204 153 177 204 153 177 204 153 177 204 153 177 204 153 177 204 153 177 204 153 177 204 153 177 204 153 177 204 153 177 204 153 177 204 153 177 204 153 177 204 153 177 204 153 177 204 153 177 204 153 177 204 153 177 204 153 177 204 153 177 204 153 177 204 153 177 204 153 177 204 153 177 204 153 177 204 153 177 204 153 177 204 153 177 204 153 177 204 153 177 204 153 177 204 153 177 204 153 177 204 153 177 204 153 177 204 153 177 204 153 177 204 153 177 204 153 177 204 153 177 204 153 177 204 153 177 204 153 177 204 153 177 204 153 177 204 153 177 204 153 177 204 153 177 204 153 177 204 153 177 204 153 177 204 153 177 204 153 177 204 153 177 204 153 177 204 153 177 204 153 177 204 153 177 204 153 177 204 153 177 204 153 177 204 153 177 204 153 177 204 153 177 204 153 177 204 153 177 204 153 177 204 153 177 204 153 177 204 153 177 204 153 177 204 153 177 204 153 177 204 153 177 204 153 177 204 153 177 204 153 177 204 153 177 204 153 177 204 153 177 204 153 177 204 153 177 204 153 177 204 153 177 204 153 177 204 153 177 204 153 177 204 153 177 204 153 177 204 153 177 204 153 177 204 153 177 204 153 177 204 153 177 204 153 177 204 153 177 204 153 177 204 153 177 204 153 177 204 153 177 204 153 177 204 153 177 204 153 177 204 153 177 204 153 177 204 153 177 204 153 177 204 153 177 204 153 177 204 153 177 204 153 177 204 153 177 204 153 177 204 153 177 204 153 177 204 153 177 204 153 177 204 153 177 204 153 177 204 153 177 204 153 177 204 153 177 204 153 177 204 153 177 204 153 177 204 153 177 204 153 177 204 153 177 204 153 177 204 153 177 204 153 177 204 153 177 204 153 177 204 153 177 204 153 177 204 153 177 204 153 177 204 153 177 204 153 177 204 153 177 204 153 177 204 153 177 204 153 177 204 153 177 204 153 177 204 153 177 204 153 177 204 153 177 204 153 177 204 153 177 204 153 177 204 153 177 204 153 177 204 153 177 204 153 177 204 153 177 204 153 177 204 153 177 204 153 177 204 153 177 204 153 177 204 153 177 204 153 177 204 153 177 204 153 177 204 153 177 204 153 177 204 153 177 204 153 177 204 153 177 204 153 177 204 153 177 204 153 177 204 153 177 204 153 177 204 153 177 204 153 177 204 153 177 204 153 177 204 153 177 204 153 177 204 153 177 204 153 177 204 153 177 204 153 177 204 153 177 204 153 177 204 153 177 204 153 177 204 153 177 204 153 177 204 153 177 204 153 177 204 153 177 204 153 177 204 153 177 204 153 177 204 153 177 204 153 177 204 153 177 204 153 177 204 153 177 204 153 177 204 153 177 204 153 177 204 153 177 204 153 177 204 153 177 204 153 177 204 153 177 204 153 177 204 153 177 204 153 177 204 153 177 204 153 177 204 153 177 204 153 177 204 153 177 204 153 177 204 153 177 204 153 177 204 153 177 204 153 177 204 153 177 204 153 177 204 153 177 204 153 177 204 153 177 204 153 177 204 153 177 204 153 177 204 153 177 204 153 177 204 153 177 204 153 177 204 153 177 204 153 177 204 153 177 204 153 177 204 153 177 204 153 177 204 153 177 204 153 177 204 153 177 204 153 177 204 153 177 204 153 177 204 153 177 204 153 177 204 153 177 204 153 177 204 153 177 204 153 177 204 153 177 204 153 177 204 153 177 204 153 177 204 153 177 204 153 177 204 153 177 204 152 177 204 152 177 204 152 177 204 152 177 204 152 177 204 152 177 204 152 177 204 152 177 204 152 177 204 152 177 204 152 177 204 152 177 204 152 177 204 152 177 204 152 177 204 152 177 204 152 177 204 152 177 204 152 177 203 152 177 203 152 177 203 152 177 203 152 177 203 152 177 203 152 177 203 152 177 203 152 177 203 152 177 203 152 177 203 152 177 203 152 177 203 152 177 203 152 177 203 152 177 203 152 177 203 152 177 203 152 177 203 152 177 203 152 177 203 152 177 203 152 177 203 152 177 203 152 177 203 152 177 203 152 177 203 152 177 203 152 177 203 152 177 203 152 177 203 152 177 203 152 177 203 152 177 203 152 177 203 152 177 203 152 177 203 152 177 203 152 177 203 152 177 203 152 177 203 152 177 203 152 177 203 152 177 203 152 177 203 152 177 203 152 177 203 152 177 203 152 177 203 152 177 203 152 177 203 152 177 203 152 177 203 152 177 203 152 177 203 152 177 203 152 177 203 152 177 203 152 177 203 152 177 203 152 177 203 152 177 203 152 177 203 152 177 203 152 177 203 152 177 203 152 177 203 152 177 203 152 177 203 152 177 203 152 177 203 152 177 203 152 177 203 152 177 203 152 177 203 152 177 203 152 177 203 152 176 203 152 176 203 152 176 203 152 176 203 152 176 203 152 176 203 152 176 203 152 176 203 152 176 203 152 176 203 152 176 203 152 176 203 152 176 203 152 176 203 152 176 203 152 176 203 152 176 203 152 176 203 152 176 203 
152 176 203 152 176 203 152 176 203 152 176 203 152 176 203 152 176 203 152 176 203 152 176 203 152 176 203 152 176 203 152 176 203 152 176 203 152 176 203 152 176 203 152 176 203 152 176 203 152 176 203 152 176 203 152 176 203 152 176 203 152 176 203 152 176 203 152 176 203 152 176 203 152 176 203 152 176 203 152 176 203 152 176 203 152 176 203 152 177 203 152 177 203 152 177 203 152 177 203 152 177 203 152 177 203 152 177 203 152 177 203 152 177 203 152 177 203 152 177 203 152 177 203 152 177 203 152 177 203 152 177 203 152 177 203 152 177 203 152 177 203 152 177 203 152 177 203 152 177 203 152 177 203 152 177 203 152 177 203 152 177 203 152 177 203 152 177 203 152 177 203 152 177 203 152 177 203 152 177 203 152 177 203 152 177 203 152 177 203 152 177 203 152 177 203 152 177 203 152 177 203 152 177 203 152 177 203 152 177 203 152 177 203 152 177 203 152 177 203 152 177 203 152 177 203 152 177 203 152 177 203 152 177 203 152 177 203 152 177 203 152 177 203 152 177 203 152 177 203 152 177 203 152 177 203 152 177 203 152 177 203 152 177 203 152 177 203 152 177 203 152 177 203 152 177 203 152 177 203 152 177 203 152 177 203 152 177 203 152 177 203 152 177 203 152 177 203 152 177 203 152 177 203 152 177 203 152 177 203 152 177 203 152 177 203 152 177 204 152 177 204 152 177 204 152 177 204 152 177 204 152 177 204 152 177 204 152 177 204 152 177 204 152 177 204 152 177 204 152 177 204 152 177 204 152 177 204 152 177 204 152 177 204 152 177 204 152 177 204 152 177 204 152 177 204 153 177 204 153 177 204 153 177 204 153 177 204 153 177 204 153 177 204 153 177 204 153 177 204 153 177 204 153 177 204 153 177 204 153 177 204 153 177 204 153 177 204 153 177 204 153 177 204 153 177 204 153 177 204 153 177 204 153 177 204 153 177 204 153 177 204 153 177 204 153 177 204 153 177 204 153 177 204 153 177 204 153 177 204 153 177 204 153 177 204 153 177 204 153 177 204 153 177 204 153 177 204 153 177 204 153 177 204 153 177 204 153 177 204 153 177 204 153 177 204 153 177 204 153 177 204 153 177 204 153 177 204 153 177 204 153 177 204 153 177 204 153 177 204 153 177 204 153 177 204 153 177 204 153 177 204 153 177 204 153 177 204 153 177 204 153 177 204 153 177 204 153 177 204 153 177 204 153 177 204 153 177 204 153 177 204 153 177 204 153 177 204 153 177 204 153 177 204 153 177 204 153 177 204 153 177 204 153 177 204 153 177 204 153 177 204 153 177 204 153 177 204 153 177 204 153 177 204 153 177 204 153 177 204 153 177 204 153 177 204 153 177 204 153 177 204 153 177 204 153 177 204 153 177 204 153 177 204 153 177 204 153 177 204 153 177 204 153 177 204 153 177 204 153 177 204 153 177 204 153 177 204 153 177 204 153 177 204 153 177 204 153 177 204 153 177 204 153 177 204 153 177 204 153 177 204 153 177 204 153 177 204 153 177 204 153 177 204 153 177 204 153 177 204 153 177 204 153 177 204 153 177 204 153 177 204 153 177 204 153 177 204 153 177 204 153 177 204 153 177 204 153 177 204 153 177 204 153 177 204 153 177 204 153 177 204 153 177 204 153 177 204 153 177 204 153 177 204 153 177 204 153 177 204 153 177 204 153 177 204 153 177 204 153 177 204 153 177 204 153 177 204 153 177 204 153 177 204 153 177 204 153 177 204 153 177 204 153 177 204 153 177 204 153 177 204 153 177 204 153 177 204 153 177 204 153 177 204 153 177 204 153 177 204 153 177 204 153 177 204 153 177 204 153 177 204 153 177 204 153 177 204 153 177 204 153 177 204 153 177 204 153 177 204 153 177 204 153 177 204 153 177 204 153 177 204 153 177 204 153 177 204 153 177 204 153 177 204 153 177 204 153 177 204 153 177 204 153 177 204 153 177 204 153 177 204 153 177 204 153 177 204 153 177 204 153 177 204 153 177 204 153 177 204 153 177 204 153 177 204 153 177 204 153 177 204 153 177 204 153 177 204 153 177 204 153 177 204 153 177 204 153 177 204 153 177 204 153 177 204 153 177 204 153 177 204 153 177 204 153 177 204 153 177 204 153 177 204 153 177 204 153 177 204 153 177 204 153 177 204 153 177 204 153 177 204 153 177 204 153 177 204 153 177 204 153 177 204 153 177 204 153 177 204 153 177 204 153 177 204 153 177 204 153 177 204 153 177 204 153 177 204 153 177 204 153 177 204 153 177 204 153 177 204 153 177 204 153 177 204 153 177 204 153 177 204 153 177 204 153 177 204 153 177 204 153 177 204 153 177 204 153 177 204 153 177 204 153 177 204 153 177 204 153 177 204 153 177 204 153 177 204 153 177 204 153 177 204 153 177 204 153 177 204 153 177 204 153 177 204 153 177 204 153 177 204 153 177 204 153 177 204 153 177 204 153 177 204 153 177 204 153 177 204 153 177 204 153 177 204 153 177 204 153 177 204 153 177 204 153 177 204 153 177 204 153 177 204 153 177 204 153 177 204 153 177 204 153 177 204 153 177 204 153 177 204 153 177 204 153 177 204 153 177 204 153 177 204 153 177 204 153 177 204 153 177 204 153 177 204 153 177 204 153 177 204 153 177 204 153 177 204 153 177 204 153 177 204 153 177 204 153 177 204 153 177 204 153 177 204 153 177 204 153 177 204 153 177 204 153 177 204 153 177 204 153 177 204 153 177 204 153 177 204 153 177 204 153 177 204 153 177 204 153 177 204 153 177 204 153 177 204 153 177 204 153 177 204 153 177 204 153 177 204 153 177 204 153 177 204 153 177 204 153 177 204 153 177 204 153 177 204 153 177 204 153 177 204 153 177 204 153 177 204 153 177 204 153 177 204 153 177 204 153 177 204 153 177 204 153 177 204 153 177 204 153 177 204 153 177 204 153 177 204 153 177 204 153 177 204 153 177 204 153 177 204 153 177 204 153 177 204 153 177 204 153 177 204 153 177 204 153 177 204 153 177 204 153 177 204 153 177 204 153 177 204 153 177 204 153 177 204 153 177 204 153 177 204 153 177 204 153 177 204 153 177 204 153 177 204 153 177 204 153 177 204 153 177 204 153 177 204 153 177 204 153 177 204 153 177 204 153 177 204 153 177 204 153 177 204 153 177 204 153 177 204 153 177 204 153 177 204 153 177 204 153 177 204 153 177 204 153 177 204 153 177 204 153 177 204 153 177 204 153 177 204 153 177 204 153 177 204 153 177 204 153 177 204 153 177 204 153 177 204 153 177 204 153 177 204 153 177 204 153 177 204 153 177 204 153 177 204 153 177 204 153 177 204 153 177 204 153 177 204 153 177 204 153 177 204 153 177 204 153 177 204 153 177 204 153 177 204 153 177 204 153 177 204 153 177 204 153 177 204 153 177 204 153 177 204 153 177 204 153 177 204 153 177 204 153 177 204 153 177 204 153 177 204 153 177 204 153 177 204 153 177 204 153 177 204 153 177 204 153 177 204 153 177 204 153 177 204 153 177 204 153 177 204 153 177 204 153 177 204 153 177 204 153 177 204 153 177 204 153 177 204 153 177 204 153 177 204 153 177 204 153 177 204 153 177 204 153 177 204 153 177 204 153 177 204 153 177 204 153 177 204 153 177 204 153 177 204 153 177 204 153 177 204 153 177 204 153 177 204 153 177 204 153 177 204 153 177 204 153 177 204 153 177 204 153 177 204 153 177 204 153 177 204 153 177 204 153 177 204 153 177 204 153 177 204 153 177 204 153 177 204 153 177 204 153 177 204 153 177 204 153 177 204 153 177 204 153 177 204 153 177 204 153 177 204 153 177 204 153 177 204 153 177 204 153 177 204 153 177 204 153 177 204 153 177 204 153 177 204 153 177 204 153 177 204 153 177 204 153 177 204 153 177 204 153 177 204 153 177 204 153 177 204 153 177 204 153 177 204 153 177 204 153 177 204 153 177 204 153 177 204 153 177 204 153 177 204 153 177 204 153 177 204 153 177 204 153 177 204 153 177 204 153 177 204 153 177 204 153 177 204 153 177 204 153 177 204 153 177 204 153 177 204 153 177 204 153 177 204 153 177 204 153 177 204 153 177 204 153 177 204 153 177 204 153 177 204 153 177 204 153 177 204 153 177 204 153 177 204 153 177 204 153 177 204 153 177 204 153 177 204 153 177 204 153 177 204 153 177 204 153 177 204 153 177 204 153 177 204 153 177 204 153 177 204 153 177 204 153 177 204 153 177 204 153 177 204 153 177 204 153 177 204 153 177 204 153 177 204 153 177 204 153 177 204 153 177 204 153 177 204 153 177 204 153 177 204 153 177 204 153 177 204 153 177 204 153 177 204 153 177 204 153 177 204 153 177 204 153 177 204 153 177 204 153 177 204 153 177 204 153 177 204 153 177 204 153 177 204 153 177 204 153 177 204 153 177 204 153 177 204 153 177 204 153 177 204 153 177 204 153 177 204 153 177 204 153 177 204 153 177 204 152 177 204 152 177 204 153 177 204 152 177 204 152 177 204 152 177 204 152 177 204 152 177 204 152 177 204 152 177 204 152 177 204 152 177 204 152 177 204 152 177 204 152 177 204 152 177 204 152 177 204 152 177 204 152 177 204 152 177 204 152 177 203 152 177 203 152 177 203 152 177 203 152 177 203 152 177 203 152 177 203 152 177 203 152 177 203 152 177 203 152 177 203 152 177 203 152 177 203 152 177 203 152 177 203 152 177 203 152 177 203 152 177 203 152 177 203 152 177 203 152 177 203 152 177 203 152 177 203 152 177 203 152 177 203 152 177 203 152 177 203 152 177 203 152 177 203 152 177 203 152 177 203 152 177 203 152 177 203 152 177 203 152 177 203 152 177 203 152 177 203 152 177 203 152 177 203 152 177 203 152 177 203 152 177 203 152 177 203 152 177 203 152 177 203 152 177 203 152 177 203 152 177 203 152 177 203 152 177 203 152 177 203 152 177 203 152 177 203 152 177 203 152 177 203 152 177 203 152 177 203 152 177 203 152 177 203 152 177 203 152 177 203 152 177 203 152 177 203 152 177 203 152 177 203 152 177 203 152 177 203 152 177 203 152 177 203 152 177 203 152 177 203 152 177 203 152 177 203 152 177 203 152 177 203 152 177 203 152 176 203 152 176 203 152 176 203 152 176 203 152 176 203 152 176 203 152 176 203 152 176 203 152 176 203 152 176 203 152 176 203 152 176 203 152 176 203 152 176 203 152 176 203 152 176 203 152 176 203 152 176 203 152 176 203 152 176 203 152 176 203 152 176 203 152 176 203 152 176 203 152 176 203 152 176 203 152 176 203 152 176 203 152 176 203 152 176 203 
152 176 203 152 176 203 152 176 203 152 176 203 152 176 203 152 176 203 152 176 203 152 176 203 152 176 203 152 176 203 152 176 203 152 176 203 152 176 203 152 176 203 152 176 203 152 176 203 152 176 203 152 176 203 152 176 203 152 176 203 152 176 203 152 176 203 152 176 203 152 176 203 152 176 203 152 176 203 152 176 203 152 176 203 152 176 203 152 176 203 152 176 203 152 176 203 152 176 203 152 176 203 152 176 203 152 177 203 152 176 203 152 177 203 152 177 203 152 177 203 152 177 203 152 177 203 152 177 203 152 177 203 152 177 203 152 177 203 152 177 203 152 177 203 152 177 203 152 177 203 152 177 203 152 177 203 152 177 203 152 177 203 152 177 203 152 177 203 152 177 203 152 177 203 152 177 203 152 177 203 152 177 203 152 177 203 152 177 203 152 177 203 152 177 203 152 177 203 152 177 203 152 177 203 152 177 203 152 177 203 152 177 203 152 177 203 152 177 203 152 177 203 152 177 203 152 177 203 152 177 203 152 177 203 152 177 203 152 177 203 152 177 203 152 177 203 152 177 203 152 177 203 152 177 203 152 177 203 152 177 203 152 177 203 152 177 203 152 177 203 152 177 203 152 177 203 152 177 203 152 177 203 152 177 203 152 177 203 152 177 203 152 177 203 152 177 203 152 177 203 152 177 203 152 177 203 152 177 203 152 177 203 152 177 203 152 177 203 152 177 203 152 177 203 152 177 203 152 177 203 152 177 203 152 177 203 152 177 203 152 177 203 152 177 204 152 177 203 152 177 203 152 177 204 152 177 204 152 177 204 152 177 204 152 177 204 152 177 204 152 177 204 152 177 204 152 177 204 152 177 204 152 177 204 152 177 204 152 177 204 152 177 204 152 177 204 152 177 204 152 177 204 152 177 204 152 177 204 152 177 204 153 177 204 153 177 204 153 177 204 153 177 204 153 177 204 153 177 204 153 177 204 153 177 204 153 177 204 153 177 204 153 177 204 153 177 204 153 177 204 153 177 204 153 177 204 153 177 204 153 177 204 153 177 204 153 177 204 153 177 204 153 177 204 153 177 204 153 177 204 153 177 204 153 177 204 153 177 204 153 177 204 153 177 204 153 177 204 153 177 204 153 177 204 153 177 204 153 177 204 153 177 204 153 177 204 153 177 204 153 177 204 153 177 204 153 177 204 153 177 204 153 177 204 153 177 204 153 177 204 153 177 204 153 177 204 153 177 204 153 177 204 153 177 204 153 177 204 153 177 204 153 177 204 153 177 204 153 177 204 153 177 204 153 177 204 153 177 204 153 177 204 153 177 204 153 177 204 153 177 204 153 177 204 153 177 204 153 177 204 153 177 204 153 177 204 153 177 204 153 177 204 153 177 204 153 177 204 153 177 204 153 177 204 153 177 204 153 177 204 153 177 204 153 177 204 153 177 204 153 177 204 153 177 204 153 177 204 153 177 204 153 177 204 153 177 204 153 177 204 153 177 204 153 177 204 153 177 204 153 177 204 153 177 204 153 177 204 153 177 204 153 177 204 153 177 204 153 177 204 153 177 204 153 177 204 153 177 204 153 177 204 153 177 204 153 177 204 153 177 204 153 177 204 153 177 204 153 177 204 153 177 204 153 177 204 153 177 204 153 177 204 153 177 204 153 177 204 153 177 204 153 177 204 153 177 204 153 177 204 153 177 204 153 177 204 153 177 204 153 177 204 153 177 204 153 177 204 153 177 204 153 177 204 153 177 204 153 177 204 153 177 204 153 177 204 153 177 204 153 177 204 153 177 204 153 177 204 153 177 204 153 177 204 153 177 204 153 177 204 153 177 204 153 177 204 153 177 204 153 177 204 153 177 204 153 177 204 153 177 204 153 177 204 153 177 204 153 177 204 153 177 204 153 177 204 153 177 204 153 177 204 153 177 204 153 177 204 153 177 204 153 177 204 153 177 204 153 177 204 153 177 204 153 177 204 153 177 204 153 177 204 153 177 204 153 177 204 153 177 204 153 177 204 153 177 204 153 177 204 153 177 204 153 177 204 153 177 204 153 177 204 153 177 204 153 177 204 153 177 204 153 177 204 153 177 204 153 177 204 153 177 204 153 177 204 153 177 204 153 177 204 153 177 204 153 177 204 153 177 204 153 177 204 153 177 204 153 177 204 153 177 204 153 177 204 153 177 204 153 177 204 153 177 204 153 177 204 153 177 204 153 177 204 153 177 204 153 177 204 153 177 204 153 177 204 153 177 204 153 177 204 153 177 204 153 177 204 153 177 204 153 177 204 153 177 204 153 177 204 153 177 204 153 177 204 153 177 204 153 177 204 153 177 204 153 177 204 153 177 204 153 177 204 153 177 204 153 177 204 153 177 204 153 177 204 153 177 204 153 177 204 153 177 204 153 177 204 153 177 204 153 177 204 153 177 204 153 177 204 153 177 204 153 177 204 153 177 204 153 177 204 153 177 204 153 177 204 153 177 204 153 177 204 153 177 204 153 177 204 153 177 204 153 177 204 153 177 204 153 177 204 153 177 204 153 177 204 153 177 204 153 177 204 153 177 204 153 177 204 153 177 204 153 177 204 153 177 204 153 177 204 153 177 204 153 177 204 153 177 204 153 177 204 153 177 204 153 177 204 153 177 204 153 177 204 153 177 204 153 177 204 153 177 204 153 177 204 153 177 204 153 177 204 153 177 204 153 177 204 153 177 204 153 177 204 153 177 204 153 177 204 153 177 204 153 177 204 153 177 204 153 177 204 153 177 204 153 177 204 153 177 204 153 177 204 153 177 204 153 177 204 153 177 204 153 177 204 153 177 204 153 177 204 153 177 204 153 177 204 153 177 204 153 177 204 153 177 204 153 177 204 153 177 204 153 177 204 153 177 204 153 177 204 153 177 204 153 177 204 153 177 204 153 177 204 153 177 204 153 177 204 153 177 204 153 177 204 153 177 204 153 177 204 153 177 204 153 177 204 153 177 204 153 177 204 153 177 204 153 177 204 153 177 204 153 177 204 153 177 204 153 177 204 153 177 204 153 177 204 153 177 204 153 177 204 153 177 204 153 177 204 153 177 204 153 177 204 153 177 204 153 177 204 153 177 204 153 177 204 153 177 204 153 177 204 153 177 204 153 177 204 153 177 204 153 177 204 153 177 204 153 177 204 153 177 204 153 177 204 153 177 204 153 177 204 153 177 204 153 177 204 153 177 204 153 177 204 153 177 204 153 177 204 153 177 204 153 177 204 153 177 204 153 177 204 153 177 204 153 177 204 153 177 204 153 177 204 153 177 204 153 177 204 153 177 204 153 177 204 153 177 204 153 177 204 153 177 204 153 177 204 153 177 204 153 177 204 153 177 204 153 177 204 153 177 204 153 177 204 153 177 204 153 177 204 153 177 204 153 177 204 153 177 204 153 177 204 153 177 204 153 177 204 153 177 204 153 177 204 153 177 204 153 177 204 153 177 204 153 177 204 153 177 204 153 177 204 153 177 204 153 177 204 153 177 204 153 177 204 153 177 204 153 177 204 153 177 204 153 177 204 153 177 204 153 177 204 153 177 204 153 177 204 153 177 204 153 177 204 153 177 204 153 177 204 153 177 204 153 177 204 153 177 204 153 177 204 153 177 204 153 177 204 153 177 204 153 177 204 153 177 204 153 177 204 153 177 204 153 177 204 153 177 204 153 177 204 153 177 204 153 177 204 153 177 204 153 177 204 153 177 204 153 177 204 153 177 204 153 177 204 153 177 204 153 177 204 153 177 204 153 177 204 153 177 204 153 177 204 153 177 204 153 177 204 153 177 204 153 177 204 153 177 204 153 177 204 153 177 204 153 177 204 153 177 204 153 177 204 153 177 204 153 177 204 153 177 204 153 177 204 153 177 204 153 177 204 153 177 204 153 177 204 153 177 204 153 177 204 153 177 204 153 177 204 153 177 204 153 177 204 153 177 204 153 177 204 153 177 204 153 177 204 153 177 204 153 177 204 153 177 204 153 177 204 153 177 204 153 177 204 153 177 204 153 177 204 153 177 204 153 177 204 153 177 204 153 177 204 153 177 204 153 177 204 153 177 204 153 177 204 153 177 204 153 177 204 153 177 204 153 177 204 153 177 204 153 177 204 153 177 204 153 177 204 153 177 204 153 177 204 153 177 204 153 177 204 153 177 204 153 177 204 153 177 204 153 177 204 153 177 204 153 177 204 153 177 204 153 177 204 153 177 204 153 177 204 153 177 204 153 177 204 153 177 204 153 177 204 153 177 204 153 177 204 153 177 204 153 177 204 153 177 204 153 177 204 153 177 204 153 177 204 153 177 204 153 177 204 153 177 204 153 177 204 153 177 204 153 177 204 153 177 204 153 177 204 153 177 204 153 177 204 153 177 204 153 177 204 153 177 204 153 177 204 153 177 204 153 177 204 153 177 204 153 177 204 153 177 204 153 177 204 153 177 204 153 177 204 153 177 204 153 177 204 153 177 204 153 177 204 152 177 204 152 177 204 152 177 204 152 177 204 152 177 204 152 177 204 152 177 204 152 177 204 152 177 204 152 177 204 152 177 204 152 177 204 152 177 204 152 177 204 152 177 204 152 177 204 152 177 204 152 177 204 152 177 204 152 177 204 152 177 204 152 177 203 152 177 203 152 177 203 152 177 203 152 177 203 152 177 203 152 177 203 152 177 203 152 177 203 152 177 203 152 177 203 152 177 203 152 177 203 152 177 203 152 177 203 152 177 203 152 177 203 152 177 203 152 177 203 152 177 203 152 177 203 152 177 203 152 177 203 152 177 203 152 177 203 152 177 203 152 177 203 152 177 203 152 177 203 152 177 203 152 177 203 152 177 203 152 177 203 152 177 203 152 177 203 152 177 203 152 177 203 152 177 203 152 177 203 152 177 203 152 177 203 152 177 203 152 177 203 152 177 203 152 177 203 152 177 203 152 177 203 152 177 203 152 177 203 152 177 203 152 177 203 152 177 203 152 177 203 152 177 203 152 177 203 152 177 203 152 177 203 152 177 203 152 177 203 152 177 203 152 177 203 152 177 203 152 177 203 152 177 203 152 177 203 152 177 203 152 177 203 152 177 203 152 177 203 152 177 203 152 177 203 152 177 203 152 177 203 152 177 203 152 177 203 152 177 203 152 176 203 152 176 203 152 176 203 152 176 203 152 176 203 152 176 203 152 176 203 152 176 203 152 176 203 152 176 203 152 176 203 152 176 203 152 176 203 152 176 203 152 176 203 152 176 203 152 176 203 152 176 203 152 176 203 152 176 203 152 176 203 152 176 203 152 176 203 152 176 203 152 176 203 152 176 203 152 176 203 152 176 203 152 176 203 152 176 203 152 176 203 152 176 203 152 176 203 152 176 203 152 176 203 152 176 203 152 176 203 152 176 203 152 176 203 
152 176 203 152 176 203 152 176 203 152 176 203 152 176 203 152 176 203 152 176 203 152 176 203 152 176 203 152 176 203 152 176 203 152 176 203 152 176 203 152 176 203 152 176 203 152 176 203 152 176 203 152 176 203 152 176 203 152 176 203 152 176 203 152 176 203 152 176 203 152 176 203 152 176 203 152 176 203 152 176 203 152 176 203 152 176 203 152 176 203 152 176 203 152 176 203 152 176 203 152 176 203 152 176 203 152 176 203 152 176 203 152 176 203 152 176 203 152 176 203 152 176 203 152 176 203 152 176 203 152 176 203 152 176 203 152 176 203 152 177 203 152 176 203 152 177 203 152 177 203 152 177 203 152 177 203 152 177 203 152 177 203 152 177 203 152 177 203 152 177 203 152 177 203 152 177 203 152 177 203 152 177 203 152 177 203 152 177 203 152 177 203 152 177 203 152 177 203 152 177 203 152 177 203 152 177 203 152 177 203 152 177 203 152 177 203 152 177 203 152 177 203 152 177 203 152 177 203 152 177 203 152 177 203 152 177 203 152 177 203 152 177 203 152 177 203 152 177 203 152 177 203 152 177 203 152 177 203 152 177 203 152 177 203 152 177 203 152 177 203 152 177 203 152 177 203 152 177 203 152 177 203 152 177 203 152 177 203 152 177 203 152 177 203 152 177 203 152 177 203 152 177 203 152 177 203 152 177 203 152 177 203 152 177 203 152 177 203 152 177 203 152 177 203 152 177 203 152 177 203 152 177 203 152 177 203 152 177 203 152 177 203 152 177 203 152 177 203 152 177 203 152 177 203 152 177 203 152 177 203 152 177 203 152 177 203 152 177 203 152 177 203 152 177 203 152 177 203 152 177 203 152 177 204 152 177 204 152 177 204 152 177 204 152 177 204 152 177 204 152 177 204 152 177 204 152 177 204 152 177 204 152 177 204 152 177 204 152 177 204 152 177 204 152 177 204 152 177 204 152 177 204 152 177 204 152 177 204 152 177 204 153 177 204 153 177 204 153 177 204 153 177 204 153 177 204 153 177 204 153 177 204 153 177 204 153 177 204 153 177 204 153 177 204 153 177 204 153 177 204 153 177 204 153 177 204 153 177 204 153 177 204 153 177 204 153 177 204 153 177 204 153 177 204 153 177 204 153 177 204 153 177 204 153 177 204 153 177 204 153 177 204 153 177 204 153 177 204 153 177 204 153 177 204 153 177 204 153 177 204 153 177 204 153 177 204 153 177 204 153 177 204 153 177 204 153 177 204 153 177 204 153 177 204 153 177 204 153 177 204 153 177 204 153 177 204 153 177 204 153 177 204 153 177 204 153 177 204 153 177 204 153 177 204 153 177 204 153 177 204 153 177 204 153 177 204 153 177 204 153 177 204 153 177 204 153 177 204 153 177 204 153 177 204 153 177 204 153 177 204 153 177 204 153 177 204 153 177 204 153 177 204 153 177 204 153 177 204 153 177 204 153 177 204 153 177 204 153 177 204 153 177 204 153 177 204 153 177 204 153 177 204 153 177 204 153 177 204 153 177 204 153 177 204 153 177 204 153 177 204 153 177 204 153 177 204 153 177 204 153 177 204 153 177 204 153 177 204 153 177 204 153 177 204 153 177 204 153 177 204 153 177 204 153 177 204 153 177 204 153 177 204 153 177 204 153 177 204 153 177 204 153 177 204 153 177 204 153 177 204 153 177 204 153 177 204 153 177 204 153 177 204 153 177 204 153 177 204 153 177 204 153 177 204 153 177 204 153 177 204 153 177 204 153 177 204 153 177 204 153 177 204 153 177 204 153 177 204 153 177 204 153 177 204 153 177 204 153 177 204 153 177 204 153 177 204 153 177 204 153 177 204 153 177 204 153 177 204 153 177 204 153 177 204 153 177 204 153 177 204 153 177 204 153 177 204 153 177 204 153 177 204 153 177 204 153 177 204 153 177 204 153 177 204 153 177 204 153 177 204 153 177 204 153 177 204 153 177 204 153 177 204 153 177 204 153 177 204 153 177 204 153 177 204 153 177 204 153 177 204 153 177 204 153 177 204 153 177 204 153 177 204 153 177 204 153 177 204 153 177 204 153 177 204 153 177 204 153 177 204 153 177 204 153 177 204 153 177 204 153 177 204 153 177 204 153 177 204 153 177 204 153 177 204 153 177 204 153 177 204 153 177 204 153 177 204 153 177 204 153 177 204 153 177 204 153 177 204 153 177 204 153 177 204 153 177 204 153 177 204 153 177 204 153 177 204 153 177 204 153 177 204 153 177 204 153 177 204 153 177 204 153 177 204 153 177 204 153 177 204 153 177 204 153 177 204 153 177 204 153 177 204 153 177 204 153 177 204 153 177 204 153 177 204 153 177 204 153 177 204 153 177 204 153 177 204 153 177 204 153 177 204 153 177 204 153 177 204 153 177 204 153 177 204 153 177 204 153 177 204 153 177 204 153 177 204 153 177 204 153 177 204 153 177 204 153 177 204 153 177 204 153 177 204 153 177 204 153 177 204 153 177 204 153 177 204 153 177 204 153 177 204 153 177 204 153 177 204 153 177 204 153 177 204 153 177 204 153 177 204 153 177 204 153 177 204 153 177 204 153 177 204 153 177 204 153 177 204 153 177 204 153 177 204 153 177 204 153 177 204 153 177 204 153 177 204 153 177 204 153 177 204 153 177 204 153 177 204 153 177 204 153 177 204 153 177 204 153 177 204 153 177 204 153 177 204 153 177 204 153 177 204 153 177 204 153 177 204 153 177 204 153 177 204 153 177 204 153 177 204 153 177 204 153 177 204 153 177 204 153 177 204 153 177 204 153 177 204 153 177 204 153 177 204 153 177 204 153 177 204 153 177 204 153 177 204 153 177 204 153 177 204 153 177 204 153 177 204 153 177 204 153 177 204 153 177 204 153 177 204 153 177 204 153 177 204 153 177 204 153 177 204 153 177 204 153 177 204 153 177 204 153 177 204 153 177 204 153 177 204 153 177 204 153 177 204 153 177 204 153 177 204 153 177 204 153 177 204 153 177 204 153 177 204 153 177 204 153 177 204 153 177 204 153 177 204 153 177 204 153 177 204 153 177 204 153 177 204 153 177 204 153 177 204 153 177 204 153 177 204 153 177 204 153 177 204 153 177 204 153 177 204 153 177 204 153 177 204 153 177 204 153 177 204 153 177 204 153 177 204 153 177 204 153 177 204 153 177 204 153 177 204 153 177 204 153 177 204 153 177 204 153 177 204 153 177 204 153 177 204 153 177 204 153 177 204 153 177 204 153 177 204 153 177 204 153 177 204 153 177 204 153 177 204 153 177 204 153 177 204 153 177 204 153 177 204 153 177 204 153 177 204 153 177 204 153 177 204 153 177 204 153 177 204 153 177 204 153 177 204 153 177 204 153 177 204 153 177 204 153 177 204 153 177 204 153 177 204 153 177 204 153 177 204 153 177 204 153 177 204 153 177 204 153 177 204 153 177 204 153 177 204 153 177 204 153 177 204 153 177 204 153 177 204 153 177 204 153 177 204 153 177 204 153 177 204 153 177 204 153 177 204 153 177 204 153 177 204 153 177 204 153 177 204 153 177 204 153 177 204 153 177 204 153 177 204 153 177 204 153 177 204 153 177 204 153 177 204 153 177 204 153 177 204 153 177 204 153 177 204 153 177 204 153 177 204 153 177 204 153 177 204 153 177 204 153 177 204 153 177 204 153 177 204 153 177 204 153 177 204 153 177 204 153 177 204 153 177 204 153 177 204 153 177 204 153 177 204 153 177 204 153 177 204 153 177 204 153 177 204 153 177 204 153 177 204 153 177 204 153 177 204 153 177 204 153 177 204 153 177 204 153 177 204 153 177 204 153 177 204 153 177 204 153 177 204 153 177 204 153 177 204 153 177 204 153 177 204 153 177 204 153 177 204 153 177 204 153 177 204 153 177 204 153 177 204 153 177 204 153 177 204 153 177 204 153 177 204 153 177 204 153 177 204 153 177 204 153 177 204 153 177 204 153 177 204 153 177 204 153 177 204 153 177 204 153 177 204 153 177 204 153 177 204 153 177 204 153 177 204 153 177 204 153 177 204 153 177 204 153 177 204 153 177 204 153 177 204 153 177 204 153 177 204 153 177 204 153 177 204 153 177 204 153 177 204 153 177 204 153 177 204 153 177 204 153 177 204 153 177 204 153 177 204 153 177 204 153 177 204 153 177 204 153 177 204 153 177 204 153 177 204 153 177 204 153 177 204 153 177 204 153 177 204 153 177 204 153 177 204 153 177 204 153 177 204 153 177 204 153 177 204 153 177 204 153 177 204 153 177 204 153 177 204 153 177 204 153 177 204 153 177 204 153 177 204 153 177 204 153 177 204 153 177 204 153 177 204 153 177 204 153 177 204 153 177 204 153 177 204 153 177 204 153 177 204 152 177 204 152 177 204 152 177 204 152 177 204 152 177 204 152 177 204 152 177 204 152 177 204 152 177 204 152 177 204 152 177 204 152 177 204 152 177 204 152 177 204 152 177 204 152 177 204 152 177 204 152 177 204 152 177 204 152 177 204 152 177 204 152 177 203 152 177 203 152 177 203 152 177 203 152 177 203 152 177 203 152 177 203 152 177 203 152 177 203 152 177 203 152 177 203 152 177 203 152 177 203 152 177 203 152 177 203 152 177 203 152 177 203 152 177 203 152 177 203 152 177 203 152 177 203 152 177 203 152 177 203 152 177 203 152 177 203 152 177 203 152 177 203 152 177 203 152 177 203 152 177 203 152 177 203 152 177 203 152 177 203 152 177 203 152 177 203 152 177 203 152 177 203 152 177 203 152 177 203 152 177 203 152 177 203 152 177 203 152 177 203 152 177 203 152 177 203 152 177 203 152 177 203 152 177 203 152 177 203 152 177 203 152 177 203 152 177 203 152 177 203 152 177 203 152 177 203 152 177 203 152 177 203 152 177 203 152 177 203 152 177 203 152 177 203 152 177 203 152 177 203 152 177 203 152 177 203 152 177 203 152 177 203 152 177 203 152 177 203 152 177 203 152 177 203 152 177 203 152 177 203 152 177 203 152 177 203 152 177 203 152 177 203 152 177 203 152 177 203 152 177 203 152 177 203 152 176 203 152 176 203 152 176 203 152 176 203 152 176 203 152 176 203 152 176 203 152 176 203 152 176 203 152 176 203 152 176 203 152 176 203 152 176 203 152 176 203 152 176 203 152 176 203 152 176 203 152 176 203 152 176 203 152 176 203 152 176 203 152 176 203 152 176 203 152 176 203 152 176 203 152 176 203 152 176 203 152 176 203 152 176 203 152 176 203 152 176 203 152 176 203 152 176 203 152 176 203 152 176 203 152 176 203 152 176 203 152 176 203 152 176 203 152 176 203 152 176 203 152 176 203 152 176 203 152 176 203 152 176 203 152 176 203 
152 176 203 152 176 203 152 176 203 152 176 203 152 176 203 152 176 203 152 176 203 152 176 203 152 176 203 152 176 203 152 176 203 152 176 203 152 176 203 152 176 203 152 176 203 152 176 203 152 176 203 152 176 203 152 176 203 152 176 203 152 176 203 152 176 203 152 176 203 152 176 203 152 176 203 152 176 203 152 176 203 152 176 203 152 176 203 152 176 203 152 176 203 152 176 203 152 176 203 152 176 203 152 176 203 152 176 203 152 176 203 152 176 203 152 176 203 152 176 203 152 176 203 152 176 203 152 176 203 152 176 203 152 176 203 152 176 203 152 176 203 152 176 203 152 176 203 152 176 203 152 176 203 152 176 203 152 176 203 152 176 203 152 176 203 152 176 203 152 176 203 152 177 203 152 177 203 152 177 203 152 177 203 152 177 203 152 177 203 152 177 203 152 177 203 152 177 203 152 177 203 152 177 203 152 177 203 152 177 203 152 177 203 152 177 203 152 177 203 152 177 203 152 177 203 152 177 203 152 177 203 152 177 203 152 177 203 152 177 203 152 177 203 152 177 203 152 177 203 152 177 203 152 177 203 152 177 203 152 177 203 152 177 203 152 177 203 152 177 203 152 177 203 152 177 203 152 177 203 152 177 203 152 177 203 152 177 203 152 177 203 152 177 203 152 177 203 152 177 203 152 177 203 152 177 203 152 177 203 152 177 203 152 177 203 152 177 203 152 177 203 152 177 203 152 177 203 152 177 203 152 177 203 152 177 203 152 177 203 152 177 203 152 177 203 152 177 203 152 177 203 152 177 203 152 177 203 152 177 203 152 177 203 152 177 203 152 177 203 152 177 203 152 177 203 152 177 203 152 177 203 152 177 203 152 177 203 152 177 203 152 177 203 152 177 203 152 177 203 152 177 203 152 177 203 152 177 203 152 177 203 152 177 203 152 177 204 152 177 204 152 177 204 152 177 204 152 177 204 152 177 204 152 177 204 152 177 204 152 177 204 152 177 204 152 177 204 152 177 204 152 177 204 152 177 204 152 177 204 152 177 204 152 177 204 152 177 204 152 177 204 152 177 204 152 177 204 152 177 204 153 177 204 153 177 204 153 177 204 153 177 204 153 177 204 153 177 204 153 177 204 153 177 204 153 177 204 153 177 204 153 177 204 153 177 204 153 177 204 153 177 204 153 177 204 153 177 204 153 177 204 153 177 204 153 177 204 153 177 204 153 177 204 153 177 204 153 177 204 153 177 204 153 177 204 153 177 204 153 177 204 153 177 204 153 177 204 153 177 204 153 177 204 153 177 204 153 177 204 153 177 204 153 177 204 153 177 204 153 177 204 153 177 204 153 177 204 153 177 204 153 177 204 153 177 204 153 177 204 153 177 204 153 177 204 153 177 204 153 177 204 153 177 204 153 177 204 153 177 204 153 177 204 153 177 204 153 177 204 153 177 204 153 177 204 153 177 204 153 177 204 153 177 204 153 177 204 153 177 204 153 177 204 153 177 204 153 177 204 153 177 204 153 177 204 153 177 204 153 177 204 153 177 204 153 177 204 153 177 204 153 177 204 153 177 204 153 177 204 153 177 204 153 177 204 153 177 204 153 177 204 153 177 204 153 177 204 153 177 204 153 177 204 153 177 204 153 177 204 153 177 204 153 177 204 153 177 204 153 177 204 153 177 204 153 177 204 153 177 204 153 177 204 153 177 204 153 177 204 153 177 204 153 177 204 153 177 204 153 177 204 153 177 204 153 177 204 153 177 204 153 177 204 153 177 204 153 177 204 153 177 204 153 177 204 153 177 204 153 177 204 153 177 204 153 177 204 153 177 204 153 177 204 153 177 204 153 177 204 153 177 204 153 177 204 153 177 204 153 177 204 153 177 204 153 177 204 153 177 204 153 177 204 153 177 204 153 177 204 153 177 204 153 177 204 153 177 204 153 177 204 153 177 204 153 177 204 153 177 204 153 177 204 153 177 204 153 177 204 153 177 204 153 177 204 153 177 204 153 177 204 153 177 204 153 177 204 153 177 204 153 177 204 153 177 204 153 177 204 153 177 204 153 177 204 153 177 204 153 177 204 153 177 204 153 177 204 153 177 204 153 177 204 153 177 204 153 177 204 153 177 204 153 177 204 153 177 204 153 177 204 153 177 204 153 177 204 153 177 204 153 177 204 153 177 204 153 177 204 153 177 204 153 177 204 153 177 204 153 177 204 153 177 204 153 177 204 153 177 204 153 177 204 153 177 204 153 177 204 153 177 204 153 177 204 153 177 204 153 177 204 153 177 204 153 177 204 153 177 204 153 177 204 153 177 204 153 177 204 153 177 204 153 177 204 153 177 204 153 177 204 153 177 204 153 177 204 153 177 204 153 177 204 153 177 204 153 177 204 153 177 204 153 177 204 153 177 204 153 177 204 153 177 204 153 177 204 153 177 204 153 177 204 153 177 204 153 177 204 153 177 204 153 177 204 153 177 204 153 177 204 153 177 204 153 177 204 153 177 204 153 177 204 153 177 204 153 177 204 153 177 204 153 177 204 153 177 204 153 177 204 153 177 204 153 177 204 153 177 204 153 177 204 153 177 204 153 177 204 153 177 204 153 177 204 153 177 204 153 177 204 153 177 204 153 177 204 153 177 204 153 177 204 153 177 204 153 177 204 153 177 204 153 177 204 153 177 204 153 177 204 153 177 204 153 177 204 153 177 204 153 177 204 153 177 204 153 177 204 153 177 204 153 177 204 153 177 204 153 177 204 153 177 204 153 177 204 153 177 204 153 177 204 153 177 204 153 177 204 153 177 204 153 177 204 153 177 204 153 177 204 153 177 204 153 177 204 153 177 204 153 177 204 153 177 204 153 177 204 153 177 204 153 177 204 153 177 204 153 177 204 153 177 204 153 177 204 153 177 204 153 177 204 153 177 204 153 177 204 153 177 204 153 177 204 153 177 204 153 177 204 153 177 204 153 177 204 153 177 204 153 177 204 153 177 204 153 177 204 153 177 204 153 177 204 153 177 204 153 177 204 153 177 204 153 177 204 153 177 204 153 177 204 153 177 204 153 177 204 153 177 204 153 177 204 153 177 204 153 177 204 153 177 204 153 177 204 153 177 204 153 177 204 153 177 204 153 177 204 153 177 204 153 177 204 153 177 204 153 177 204 153 177 204 153 177 204 153 177 204 153 177 204 153 177 204 153 177 204 153 177 204 153 177 204 153 177 204 153 177 204 153 177 204 153 177 204 153 177 204 153 177 204 153 177 204 153 177 204 153 177 204 153 177 204 153 177 204 153 177 204 153 177 204 153 177 204 153 177 204 153 177 204 153 177 204 153 177 204 153 177 204 153 177 204 153 177 204 153 177 204 153 177 204 153 177 204 153 177 204 153 177 204 153 177 204 153 177 204 153 177 204 153 177 204 153 177 204 153 177 204 153 177 204 153 177 204 153 177 204 153 177 204 153 177 204 153 177 204 153 177 204 153 177 204 153 177 204 153 177 204 153 177 204 153 177 204 153 177 204 153 177 204 153 177 204 153 177 204 153 177 204 153 177 204 153 177 204 153 177 204 153 177 204 153 177 204 153 177 204 153 177 204 153 177 204 153 177 204 153 177 204 153 177 204 153 177 204 153 177 204 153 177 204 153 177 204 153 177 204 153 177 204 153 177 204 153 177 204 153 177 204 153 177 204 153 177 204 153 177 204 153 177 204 153 177 204 153 177 204 153 177 204 153 177 204 153 177 204 153 177 204 153 177 204 153 177 204 153 177 204 153 177 204 153 177 204 153 177 204 153 177 204 153 177 204 153 177 204 153 177 204 153 177 204 153 177 204 153 177 204 153 177 204 153 177 204 153 177 204 153 177 204 153 177 204 153 177 204 153 177 204 153 177 204 153 177 204 153 177 204 153 177 204 153 177 204 153 177 204 153 177 204 153 177 204 153 177 204 153 177 204 153 177 204 153 177 204 153 177 204 153 177 204 153 177 204 153 177 204 153 177 204 153 177 204 153 177 204 153 177 204 153 177 204 153 177 204 153 177 204 153 177 204 153 177 204 153 177 204 153 177 204 153 177 204 153 177 204 153 177 204 153 177 204 153 177 204 153 177 204 153 177 204 153 177 204 153 177 204 153 177 204 153 177 204 153 177 204 153 177 204 153 177 204 153 177 204 153 177 204 153 177 204 153 177 204 153 177 204 153 177 204 153 177 204 153 177 204 153 177 204 153 177 204 153 177 204 153 177 204 153 177 204 153 177 204 153 177 204 153 177 204 153 177 204 153 177 204 153 177 204 153 177 204 153 177 204 153 177 204 153 177 204 153 177 204 153 177 204 152 177 204 152 177 204 152 177 204 152 177 204 152 177 204 152 177 204 152 177 204 152 177 204 152 177 204 152 177 204 152 177 204 152 177 204 152 177 204 152 177 204 152 177 204 152 177 204 152 177 204 152 177 204 152 177 204 152 177 204 152 177 204 152 177 204 152 177 203 152 177 203 152 177 203 152 177 203 152 177 203 152 177 203 152 177 203 152 177 203 152 177 203 152 177 203 152 177 203 152 177 203 152 177 203 152 177 203 152 177 203 152 177 203 152 177 203 152 177 203 152 177 203 152 177 203 152 177 203 152 177 203 152 177 203 152 177 203 152 177 203 152 177 203 152 177 203 152 177 203 152 177 203 152 177 203 152 177 203 152 177 203 152 177 203 152 177 203 152 177 203 152 177 203 152 177 203 152 177 203 152 177 203 152 177 203 152 177 203 152 177 203 152 177 203 152 177 203 152 177 203 152 177 203 152 177 203 152 177 203 152 177 203 152 177 203 152 177 203 152 177 203 152 177 203 152 177 203 152 177 203 152 177 203 152 177 203 152 177 203 152 177 203 152 177 203 152 177 203 152 177 203 152 177 203 152 177 203 152 177 203 152 177 203 152 177 203 152 177 203 152 177 203 152 177 203 152 177 203 152 177 203 152 177 203 152 177 203 152 177 203 152 177 203 152 177 203 152 177 203 152 177 203 152 177 203 152 176 203 152 177 203 152 176 203 152 176 203 152 176 203 152 176 203 152 176 203 152 176 203 152 176 203 152 176 203 152 176 203 152 176 203 152 176 203 152 176 203 152 176 203 152 176 203 152 176 203 152 176 203 152 176 203 152 176 203 152 176 203 152 176 203 152 176 203 152 176 203 152 176 203 152 176 203 152 176 203 152 176 203 152 176 203 152 176 203 152 176 203 152 176 203 152 176 203 152 176 203 152 176 203 152 176 203 152 176 203 152 176 203 152 176 203 152 176 203 152 176 203 152 176 203 152 176 203 152 176 203 152 176 203 152 176 203 152 176 203 152 176 203 152 176 203 152 176 203 152 176 203 152 176 203 152 176 203 152 176 203 152 176 203 152 176 203 152 176 203 152 176 203 
152 176 203 152 176 203 152 176 203 152 176 203 152 176 203 152 176 203 152 176 203 152 176 203 152 176 203 152 176 203 152 176 203 152 176 203 152 176 203 152 176 203 152 176 203 152 176 203 152 176 203 152 176 203 152 176 203 152 176 203 152 176 203 152 176 203 152 176 203 152 176 203 152 176 203 152 176 203 152 176 203 152 176 203 152 176 203 152 176 203 152 176 203 152 176 203 152 176 203 152 176 203 152 176 203 152 176 203 152 176 203 152 176 203 152 176 203 152 176 203 152 176 203 152 176 203 152 176 203 152 176 203 152 176 203 152 176 203 152 176 203 152 176 203 152 176 203 152 176 203 152 176 203 152 176 203 152 176 203 152 176 203 152 176 203 152 176 203 152 176 203 152 176 203 152 176 203 152 176 203 152 176 203 152 176 203 152 176 203 152 176 203 152 176 203 152 176 203 152 177 203 152 177 203 152 177 203 152 177 203 152 177 203 152 177 203 152 177 203 152 177 203 152 177 203 152 177 203 152 177 203 152 177 203 152 177 203 152 177 203 152 177 203 152 177 203 152 177 203 152 177 203 152 177 203 152 177 203 152 177 203 152 177 203 152 177 203 152 177 203 152 177 203 152 177 203 152 177 203 152 177 203 152 177 203 152 177 203 152 177 203 152 177 203 152 177 203 152 177 203 152 177 203 152 177 203 152 177 203 152 177 203 152 177 203 152 177 203 152 177 203 152 177 203 152 177 203 152 177 203 152 177 203 152 177 203 152 177 203 152 177 203 152 177 203 152 177 203 152 177 203 152 177 203 152 177 203 152 177 203 152 177 203 152 177 203 152 177 203 152 177 203 152 177 203 152 177 203 152 177 203 152 177 203 152 177 203 152 177 203 152 177 203 152 177 203 152 177 203 152 177 203 152 177 203 152 177 203 152 177 203 152 177 203 152 177 203 152 177 203 152 177 203 152 177 203 152 177 203 152 177 203 152 177 203 152 177 203 152 177 203 152 177 203 152 177 203 152 177 204 152 177 204 152 177 204 152 177 204 152 177 204 152 177 204 152 177 204 152 177 204 152 177 204 152 177 204 152 177 204 152 177 204 152 177 204 152 177 204 152 177 204 152 177 204 152 177 204 152 177 204 152 177 204 152 177 204 152 177 204 152 177 204 152 177 204 152 177 204 152 177 204 153 177 204 153 177 204 153 177 204 153 177 204 153 177 204 153 177 204 153 177 204 153 177 204 153 177 204 153 177 204 153 177 204 153 177 204 153 177 204 153 177 204 153 177 204 153 177 204 153 177 204 153 177 204 153 177 204 153 177 204 153 177 204 153 177 204 153 177 204 153 177 204 153 177 204 153 177 204 153 177 204 153 177 204 153 177 204 153 177 204 153 177 204 153 177 204 153 177 204 153 177 204 153 177 204 153 177 204 153 177 204 153 177 204 153 177 204 153 177 204 153 177 204 153 177 204 153 177 204 153 177 204 153 177 204 153 177 204 153 177 204 153 177 204 153 177 204 153 177 204 153 177 204 153 177 204 153 177 204 153 177 204 153 177 204 153 177 204 153 177 204 153 177 204 153 177 204 153 177 204 153 177 204 153 177 204 153 177 204 153 177 204 153 177 204 153 177 204 153 177 204 153 177 204 153 177 204 153 177 204 153 177 204 153 177 204 153 177 204 153 177 204 153 177 204 153 177 204 153 177 204 153 177 204 153 177 204 153 177 204 153 177 204 153 177 204 153 177 204 153 177 204 153 177 204 153 177 204 153 177 204 153 177 204 153 177 204 153 177 204 153 177 204 153 177 204 153 177 204 153 177 204 153 177 204 153 177 204 153 177 204 153 177 204 153 177 204 153 177 204 153 177 204 153 177 204 153 177 204 153 177 204 153 177 204 153 177 204 153 177 204 153 177 204 153 177 204 153 177 204 153 177 204 153 177 204 153 177 204 153 177 204 153 177 204 153 177 204 153 177 204 153 177 204 153 177 204 153 177 204 153 177 204 153 177 204 153 177 204 153 177 204 153 177 204 153 177 204 153 177 204 153 177 204 153 177 204 153 177 204 153 177 204 153 177 204 153 177 204 153 177 204 153 177 204 153 177 204 153 177 204 153 177 204 153 177 204 153 177 204 153 177 204 153 177 204 153 177 204 153 177 204 153 177 204 153 177 204 153 177 204 153 177 204 153 177 204 153 177 204 153 177 204 153 177 204 153 177 204 153 177 204 153 177 204 153 177 204 153 177 204 153 177 204 153 177 204 153 177 204 153 177 204 153 177 204 153 177 204 153 177 204 153 177 204 153 177 204 153 177 204 153 177 204 153 177 204 153 177 204 153 177 204 153 177 204 153 177 204 153 177 204 153 177 204 153 177 204 153 177 204 153 177 204 153 177 204 153 177 204 153 177 204 153 177 204 153 177 204 153 177 204 153 177 204 153 177 204 153 177 204 153 177 204 153 177 204 153 177 204 153 177 204 153 177 204 153 177 204 153 177 204 153 177 204 153 177 204 153 177 204 153 177 204 153 177 204 153 177 204 153 177 204 153 177 204 153 177 204 153 177 204 153 177 204 153 177 204 153 177 204 153 177 204 153 177 204 153 177 204 153 177 204 153 177 204 153 177 204 153 177 204 153 177 204 153 177 204 153 177 204 153 177 204 153 177 204 153 177 204 153 177 204 153 177 204 153 177 204 153 177 204 153 177 204 153 177 204 153 177 204 153 177 204 153 177 204 153 177 204 153 177 204 153 177 204 153 177 204 153 177 204 153 177 204 153 177 204 153 177 204 153 177 204 153 177 204 153 177 204 153 177 204 153 177 204 153 177 204 153 177 204 153 177 204 153 177 204 153 177 204 153 177 204 153 177 204 153 177 204 153 177 204 153 177 204 153 177 204 153 177 204 153 177 204 153 177 204 153 177 204 153 177 204 153 177 204 153 177 204 153 177 204 153 177 204 153 177 204 153 177 204 153 177 204 153 177 204 153 177 204 153 177 204 153 177 204 153 177 204 153 177 204 153 177 204 153 177 204 153 177 204 153 177 204 153 177 204 153 177 204 153 177 204 153 177 204 153 177 204 153 177 204 153 177 204 153 177 204 153 177 204 153 177 204 153 177 204 153 177 204 153 177 204 153 177 204 153 177 204 153 177 204 153 177 204 153 177 204 153 177 204 153 177 204 153 177 204 153 177 204 153 177 204 153 177 204 153 177 204 153 177 204 153 177 204 153 177 204 153 177 204 153 177 204 153 177 204 153 177 204 153 177 204 153 177 204 153 177 204 153 177 204 153 177 204 153 177 204 153 177 204 153 177 204 153 177 204 153 177 204 153 177 204 153 177 204 153 177 204 153 177 204 153 177 204 153 177 204 153 177 204 153 177 204 153 177 204 153 177 204 153 177 204 153 177 204 153 177 204 153 177 204 153 177 204 153 177 204 153 177 204 153 177 204 153 177 204 153 177 204 153 177 204 153 177 204 153 177 204 153 177 204 153 177 204 153 177 204 153 177 204 153 177 204 153 177 204 153 177 204 153 177 204 153 177 204 153 177 204 153 177 204 153 177 204 153 177 204 153 177 204 153 177 204 153 177 204 153 177 204 153 177 204 153 177 204 153 177 204 153 177 204 153 177 204 153 177 204 153 177 204 153 177 204 153 177 204 153 177 204 153 177 204 153 177 204 153 177 204 153 177 204 153 177 204 153 177 204 153 177 204 153 177 204 153 177 204 153 177 204 153 177 204 153 177 204 153 177 204 153 177 204 153 177 204 153 177 204 153 177 204 153 177 204 153 177 204 153 177 204 153 177 204 153 177 204 153 177 204 153 177 204 153 177 204 153 177 204 153 177 204 153 177 204 153 177 204 153 177 204 153 177 204 153 177 204 153 177 204 153 177 204 153 177 204 153 177 204 153 177 204 153 177 204 153 177 204 153 177 204 153 177 204 153 177 204 153 177 204 153 177 204 153 177 204 153 177 204 153 177 204 153 177 204 153 177 204 153 177 204 153 177 204 153 177 204 153 177 204 153 177 204 153 177 204 153 177 204 153 177 204 153 177 204 153 177 204 153 177 204 153 177 204 153 177 204 153 177 204 153 177 204 153 177 204 153 177 204 153 177 204 153 177 204 153 177 204 153 177 204 153 177 204 153 177 204 153 177 204 153 177 204 153 177 204 153 177 204 153 177 204 153 177 204 153 177 204 153 177 204 153 177 204 153 177 204 153 177 204 153 177 204 153 177 204 152 177 204 153 177 204 152 177 204 152 177 204 152 177 204 152 177 204 152 177 204 152 177 204 152 177 204 152 177 204 152 177 204 152 177 204 152 177 204 152 177 204 152 177 204 152 177 204 152 177 204 152 177 204 152 177 204 152 177 204 152 177 204 152 177 204 152 177 204 152 177 203 152 177 204 152 177 203 152 177 203 152 177 203 152 177 203 152 177 203 152 177 203 152 177 203 152 177 203 152 177 203 152 177 203 152 177 203 152 177 203 152 177 203 152 177 203 152 177 203 152 177 203 152 177 203 152 177 203 152 177 203 152 177 203 152 177 203 152 177 203 152 177 203 152 177 203 152 177 203 152 177 203 152 177 203 152 177 203 152 177 203 152 177 203 152 177 203 152 177 203 152 177 203 152 177 203 152 177 203 152 177 203 152 177 203 152 177 203 152 177 203 152 177 203 152 177 203 152 177 203 152 177 203 152 177 203 152 177 203 152 177 203 152 177 203 152 177 203 152 177 203 152 177 203 152 177 203 152 177 203 152 177 203 152 177 203 152 177 203 152 177 203 152 177 203 152 177 203 152 177 203 152 177 203 152 177 203 152 177 203 152 177 203 152 177 203 152 177 203 152 177 203 152 177 203 152 177 203 152 177 203 152 177 203 152 177 203 152 177 203 152 177 203 152 177 203 152 177 203 152 177 203 152 177 203 152 177 203 152 177 203 152 177 203 152 177 203 152 177 203 152 177 203 152 176 203 152 176 203 152 176 203 152 176 203 152 176 203 152 176 203 152 176 203 152 176 203 152 176 203 152 176 203 152 176 203 152 176 203 152 176 203 152 176 203 152 176 203 152 176 203 152 176 203 152 176 203 152 176 203 152 176 203 152 176 203 152 176 203 152 176 203 152 176 203 152 176 203 152 176 203 152 176 203 152 176 203 152 176 203 152 176 203 152 176 203 152 176 203 152 176 203 152 176 203 152 176 203 152 176 203 152 176 203 152 176 203 152 176 203 152 176 203 152 176 203 152 176 203 152 176 203 152 176 203 152 176 203 152 176 203 152 176 203 152 176 203 152 176 203 152 176 203 152 176 203 152 176 203 152 176 203 152 176 203 152 176 203 152 176 203 152 176 203 152 176 203 152 176 203 152 176 203 152 176 203 152 176 203 152 176 203 152 176 203 152 176 203 152 176 203 
152 176 203 152 176 203 152 176 203 152 176 203 152 176 203 152 176 203 152 176 203 152 176 203 152 176 203 152 176 203 152 176 203 152 176 203 152 176 203 152 176 203 152 176 203 152 176 203 152 176 203 152 176 203 152 176 203 152 176 203 152 176 203 152 176 203 152 176 203 152 176 203 152 176 203 152 176 203 152 176 203 152 176 203 152 176 203 152 176 203 152 176 203 152 176 203 152 176 203 152 176 203 152 176 203 152 176 203 152 176 203 152 176 203 152 176 203 152 176 203 152 176 203 152 176 203 152 176 203 152 176 203 152 176 203 152 176 203 152 176 203 152 176 203 152 176 203 152 176 203 152 176 203 152 176 203 152 176 203 152 176 203 152 176 203 152 176 203 152 176 203 152 176 203 152 176 203 152 176 203 152 176 203 152 176 203 152 176 203 152 176 203 152 176 203 152 176 203 152 176 203 152 176 203 152 176 203 152 176 203 152 176 203 152 176 203 152 176 203 152 176 203 152 176 203 152 176 203 152 177 203 152 177 203 152 177 203 152 177 203 152 177 203 152 177 203 152 177 203 152 177 203 152 177 203 152 177 203 152 177 203 152 177 203 152 177 203 152 177 203 152 177 203 152 177 203 152 177 203 152 177 203 152 177 203 152 177 203 152 177 203 152 177 203 152 177 203 152 177 203 152 177 203 152 177 203 152 177 203 152 177 203 152 177 203 152 177 203 152 177 203 152 177 203 152 177 203 152 177 203 152 177 203 152 177 203 152 177 203 152 177 203 152 177 203 152 177 203 152 177 203 152 177 203 152 177 203 152 177 203 152 177 203 152 177 203 152 177 203 152 177 203 152 177 203 152 177 203 152 177 203 152 177 203 152 177 203 152 177 203 152 177 203 152 177 203 152 177 203 152 177 203 152 177 203 152 177 203 152 177 203 152 177 203 152 177 203 152 177 203 152 177 203 152 177 203 152 177 203 152 177 203 152 177 203 152 177 203 152 177 203 152 177 203 152 177 203 152 177 203 152 177 203 152 177 203 152 177 203 152 177 203 152 177 203 152 177 203 152 177 203 152 177 203 152 177 203 152 177 203 152 177 203 152 177 203 152 177 204 152 177 204 152 177 204 152 177 204 152 177 204 152 177 204 152 177 204 152 177 204 152 177 204 152 177 204 152 177 204 152 177 204 152 177 204 152 177 204 152 177 204 152 177 204 152 177 204 152 177 204 152 177 204 152 177 204 152 177 204 152 177 204 152 177 204 152 177 204 153 177 204 153 177 204 153 177 204 153 177 204 153 177 204 153 177 204 153 177 204 153 177 204 153 177 204 153 177 204 153 177 204 153 177 204 153 177 204 153 177 204 153 177 204 153 177 204 153 177 204 153 177 204 153 177 204 153 177 204 153 177 204 153 177 204 153 177 204 153 177 204 153 177 204 153 177 204 153 177 204 153 177 204 153 177 204 153 177 204 153 177 204 153 177 204 153 177 204 153 177 204 153 177 204 153 177 204 153 177 204 153 177 204 153 177 204 153 177 204 153 177 204 153 177 204 153 177 204 153 177 204 153 177 204 153 177 204 153 177 204 153 177 204 153 177 204 153 177 204 153 177 204 153 177 204 153 177 204 153 177 204 153 177 204 153 177 204 153 177 204 153 177 204 153 177 204 153 177 204 153 177 204 153 177 204 153 177 204 153 177 204 153 177 204 153 177 204 153 177 204 153 177 204 153 177 204 153 177 204 153 177 204 153 177 204 153 177 204 153 177 204 153 177 204 153 177 204 153 177 204 153 177 204 153 177 204 153 177 204 153 177 204 153 177 204 153 177 204 153 177 204 153 177 204 153 177 204 153 177 204 153 177 204 153 177 204 153 177 204 153 177 204 153 177 204 153 177 204 153 177 204 153 177 204 153 177 204 153 177 204 153 177 204 153 177 204 153 177 204 153 177 204 153 177 204 153 177 204 153 177 204 153 177 204 153 177 204 153 177 204 153 177 204 153 177 204 153 177 204 153 177 204 153 177 204 153 177 204 153 177 204 153 177 204 153 177 204 153 177 204 153 177 204 153 177 204 153 177 204 153 177 204 153 177 204 153 177 204 153 177 204 153 177 204 153 177 204 153 177 204 153 177 204 153 177 204 153 177 204 153 177 204 153 177 204 153 177 204 153 177 204 153 177 204 153 177 204 153 177 204 153 177 204 153 177 204 153 177 204 153 177 204 153 177 204 153 177 204 153 177 204 153 177 204 153 177 204 153 177 204 153 177 204 153 177 204 153 177 204 153 177 204 153 177 204 153 177 204 153 177 204 153 177 204 153 177 204 153 177 204 153 177 204 153 177 204 153 177 204 153 177 204 153 177 204 153 177 204 153 177 204 153 177 204 153 177 204 153 177 204 153 177 204 153 177 204 153 177 204 153 177 204 153 177 204 153 177 204 153 177 204 153 177 204 153 177 204 153 177 204 153 177 204 153 177 204 153 177 204 153 177 204 153 177 204 153 177 204 153 177 204 153 177 204 153 177 204 153 177 204 153 177 204 153 177 204 153 177 204 153 177 204 153 177 204 153 177 204 153 177 204 153 177 204 153 177 204 153 177 204 153 177 204 153 177 204 153 177 204 153 177 204 153 177 204 153 177 204 153 177 204 153 177 204 153 177 204 153 177 204 153 177 204 153 177 204 153 177 204 153 177 204 153 177 204 153 177 204 153 177 204 153 177 204 153 177 204 153 177 204 153 177 204 153 177 204 153 177 204 153 177 204 153 177 204 153 177 204 153 177 204 153 177 204 153 177 204 153 177 204 153 177 204 153 177 204 153 177 204 153 177 204 153 177 204 153 177 204 153 177 204 153 177 204 153 177 204 153 177 204 153 177 204 153 177 204 153 177 204 153 177 204 153 177 204 153 177 204 153 177 204 153 177 204 153 177 204 153 177 204 153 177 204 153 177 204 153 177 204 153 177 204 153 177 204 153 177 204 153 177 204 153 177 204 153 177 204 153 177 204 153 177 204 153 177 204 153 177 204 153 177 204 153 177 204 153 177 204 153 177 204 153 177 204 153 177 204 153 177 204 153 177 204 153 177 204 153 177 204 153 177 204 153 177 204 153 177 204 153 177 204 153 177 204 153 177 204 153 177 204 153 177 204 153 177 204 153 177 204 153 177 204 153 177 204 153 177 204 153 177 204 153 177 204 153 177 204 153 177 204 153 177 204 153 177 204 153 177 204 153 177 204 153 177 204 153 177 204 153 177 204 153 177 204 153 177 204 153 177 204 153 177 204 153 177 204 153 177 204 153 177 204 153 177 204 153 177 204 153 177 204 153 177 204 153 177 204 153 177 204 153 177 204 153 177 204 153 177 204 153 177 204 153 177 204 153 177 204 153 177 204 153 177 204 153 177 204 153 177 204 153 177 204 153 177 204 153 177 204 153 177 204 153 177 204 153 177 204 153 177 204 153 177 204 153 177 204 153 177 204 153 177 204 153 177 204 153 177 204 153 177 204 153 177 204 153 177 204 153 177 204 153 177 204 153 177 204 153 177 204 153 177 204 153 177 204 153 177 204 153 177 204 153 177 204 153 177 204 153 177 204 153 177 204 153 177 204 153 177 204 153 177 204 153 177 204 153 177 204 153 177 204 153 177 204 153 177 204 153 177 204 153 177 204 153 177 204 153 177 204 153 177 204 153 177 204 153 177 204 153 177 204 153 177 204 153 177 204 153 177 204 153 177 204 153 177 204 153 177 204 153 177 204 153 177 204 153 177 204 153 177 204 153 177 204 153 177 204 153 177 204 153 177 204 153 177 204 153 177 204 153 177 204 153 177 204 153 177 204 153 177 204 153 177 204 153 177 204 153 177 204 153 177 204 153 177 204 153 177 204 153 177 204 153 177 204 153 177 204 153 177 204 153 177 204 153 177 204 153 177 204 153 177 204 153 177 204 153 177 204 153 177 204 153 177 204 153 177 204 153 177 204 153 177 204 153 177 204 153 177 204 153 177 204 153 177 204 153 177 204 153 177 204 153 177 204 153 177 204 153 177 204 153 177 204 153 177 204 153 177 204 153 177 204 153 177 204 153 177 204 153 177 204 153 177 204 153 177 204 153 177 204 153 177 204 153 177 204 153 177 204 153 177 204 153 177 204 153 177 204 153 177 204 152 177 204 152 177 204 152 177 204 152 177 204 152 177 204 152 177 204 152 177 204 152 177 204 152 177 204 152 177 204 152 177 204 152 177 204 152 177 204 152 177 204 152 177 204 152 177 204 152 177 204 152 177 204 152 177 204 152 177 204 152 177 204 152 177 204 152 177 204 152 177 204 152 177 203 152 177 203 152 177 203 152 177 203 152 177 203 152 177 203 152 177 203 152 177 203 152 177 203 152 177 203 152 177 203 152 177 203 152 177 203 152 177 203 152 177 203 152 177 203 152 177 203 152 177 203 152 177 203 152 177 203 152 177 203 152 177 203 152 177 203 152 177 203 152 177 203 152 177 203 152 177 203 152 177 203 152 177 203 152 177 203 152 177 203 152 177 203 152 177 203 152 177 203 152 177 203 152 177 203 152 177 203 152 177 203 152 177 203 152 177 203 152 177 203 152 177 203 152 177 203 152 177 203 152 177 203 152 177 203 152 177 203 152 177 203 152 177 203 152 177 203 152 177 203 152 177 203 152 177 203 152 177 203 152 177 203 152 177 203 152 177 203 152 177 203 152 177 203 152 177 203 152 177 203 152 177 203 152 177 203 152 177 203 152 177 203 152 177 203 152 177 203 152 177 203 152 177 203 152 177 203 152 177 203 152 177 203 152 177 203 152 177 203 152 177 203 152 177 203 152 177 203 152 177 203 152 177 203 152 177 203 152 177 203 152 177 203 152 177 203 152 177 203 152 177 203 152 177 203 152 176 203 152 176 203 152 176 203 152 176 203 152 176 203 152 176 203 152 176 203 152 176 203 152 176 203 152 176 203 152 176 203 152 176 203 152 176 203 152 176 203 152 176 203 152 176 203 152 176 203 152 176 203 152 176 203 152 176 203 152 176 203 152 176 203 152 176 203 152 176 203 152 176 203 152 176 203 152 176 203 152 176 203 152 176 203 152 176 203 152 176 203 152 176 203 152 176 203 152 176 203 152 176 203 152 176 203 152 176 203 152 176 203 152 176 203 152 176 203 152 176 203 152 176 203 152 176 203 152 176 203 152 176 203 152 176 203 152 176 203 152 176 203 152 176 203 152 176 203 152 176 203 152 176 203 152 176 203 152 176 203 152 176 203 152 176 203 152 176 203 152 176 203 152 176 203 152 176 203 152 176 203 152 176 203 152 176 203 152 176 203 152 176 203 152 176 203 152 176 203 152 176 203 152 176 203 152 176 203 152 176 203 152 176 203 152 176 203 152 176 203 152 176 203 152 176 203 
152 176 203 152 176 203 152 176 203 152 176 203 152 176 203 152 176 203 152 176 203 152 176 203 152 176 203 152 176 203 152 176 203 152 176 203 152 176 203 152 176 203 152 176 203 152 176 203 152 176 203 152 176 203 152 176 203 152 176 203 152 176 203 152 176 203 152 176 203 152 176 203 152 176 203 152 176 203 152 176 203 152 176 203 152 176 203 152 176 203 152 176 203 152 176 203 152 176 203 152 176 203 152 176 203 152 176 203 152 176 203 152 176 203 152 176 203 152 176 203 152 176 203 152 176 203 152 176 203 152 176 203 152 176 203 152 176 203 152 176 203 152 176 203 152 176 203 152 176 203 152 176 203 152 176 203 152 176 203 152 176 203 152 176 203 152 176 203 152 176 203 152 176 203 152 176 203 152 176 203 152 176 203 152 176 203 152 176 203 152 176 203 152 176 203 152 176 203 152 176 203 152 176 203 152 176 203 152 176 203 152 176 203 152 176 203 152 176 203 152 176 203 152 176 203 152 176 203 152 176 203 152 176 203 152 176 203 152 176 203 152 176 203 152 176 203 152 176 203 152 176 203 152 176 203 152 176 203 152 177 203 152 177 203 152 177 203 152 177 203 152 177 203 152 177 203 152 177 203 152 177 203 152 177 203 152 177 203 152 177 203 152 177 203 152 177 203 152 177 203 152 177 203 152 177 203 152 177 203 152 177 203 152 177 203 152 177 203 152 177 203 152 177 203 152 177 203 152 177 203 152 177 203 152 177 203 152 177 203 152 177 203 152 177 203 152 177 203 152 177 203 152 177 203 152 177 203 152 177 203 152 177 203 152 177 203 152 177 203 152 177 203 152 177 203 152 177 203 152 177 203 152 177 203 152 177 203 152 177 203 152 177 203 152 177 203 152 177 203 152 177 203 152 177 203 152 177 203 152 177 203 152 177 203 152 177 203 152 177 203 152 177 203 152 177 203 152 177 203 152 177 203 152 177 203 152 177 203 152 177 203 152 177 203 152 177 203 152 177 203 152 177 203 152 177 203 152 177 203 152 177 203 152 177 203 152 177 203 152 177 203 152 177 203 152 177 203 152 177 203 152 177 203 152 177 203 152 177 203 152 177 203 152 177 203 152 177 203 152 177 203 152 177 203 152 177 203 152 177 203 152 177 203 152 177 203 152 177 203 152 177 203 152 177 203 152 177 204 152 177 204 152 177 204 152 177 204 152 177 204 152 177 204 152 177 204 152 177 204 152 177 204 152 177 204 152 177 204 152 177 204 152 177 204 152 177 204 152 177 204 152 177 204 152 177 204 152 177 204 152 177 204 152 177 204 152 177 204 152 177 204 152 177 204 152 177 204 152 177 204 152 177 204 153 177 204 153 177 204 153 177 204 153 177 204 153 177 204 153 177 204 153 177 204 153 177 204 153 177 204 153 177 204 153 177 204 153 177 204 153 177 204 153 177 204 153 177 204 153 177 204 153 177 204 153 177 204 153 177 204 153 177 204 153 177 204 153 177 204 153 177 204 153 177 204 153 177 204 153 177 204 153 177 204 153 177 204 153 177 204 153 177 204 153 177 204 153 177 204 153 177 204 153 177 204 153 177 204 153 177 204 153 177 204 153 177 204 153 177 204 153 177 204 153 177 204 153 177 204 153 177 204 153 177 204 153 177 204 153 177 204 153 177 204 153 177 204 153 177 204 153 177 204 153 177 204 153 177 204 153 177 204 153 177 204 153 177 204 153 177 204 153 177 204 153 177 204 153 177 204 153 177 204 153 177 204 153 177 204 153 177 204 153 177 204 153 177 204 153 177 204 153 177 204 153 177 204 153 177 204 153 177 204 153 177 204 153 177 204 153 177 204 153 177 204 153 177 204 153 177 204 153 177 204 153 177 204 153 177 204 153 177 204 153 177 204 153 177 204 153 177 204 153 177 204 153 177 204 153 177 204 153 177 204 153 177 204 153 177 204 153 177 204 153 177 204 153 177 204 153 177 204 153 177 204 153 177 204 153 177 204 153 177 204 153 177 204 153 177 204 153 177 204 153 177 204 153 177 204 153 177 204 153 177 204 153 177 204 153 177 204 153 177 204 153 177 204 153 177 204 153 177 204 153 177 204 153 177 204 153 177 204 153 177 204 153 177 204 153 177 204 153 177 204 153 177 204 153 177 204 153 177 204 153 177 204 153 177 204 153 177 204 153 177 204 153 177 204 153 177 204 153 177 204 153 177 204 153 177 204 153 177 204 153 177 204 153 177 204 153 177 204 153 177 204 153 177 204 153 177 204 153 177 204 153 177 204 153 177 204 153 177 204 153 177 204 153 177 204 153 177 204 153 177 204 153 177 204 153 177 204 153 177 204 153 177 204 153 177 204 153 177 204 153 177 204 153 177 204 153 177 204 153 177 204 153 177 204 153 177 204 153 177 204 153 177 204 153 177 204 153 177 204 153 177 204 153 177 204 153 177 204 153 177 204 153 177 204 153 177 204 153 177 204 153 177 204 153 177 204 153 177 204 153 177 204 153 177 204 153 177 204 153 177 204 153 177 204 153 177 204 153 177 204 153 177 204 153 177 204 153 177 204 153 177 204 153 177 204 153 177 204 153 177 204 153 177 204 153 177 204 153 177 204 153 177 204 153 177 204 153 177 204 153 177 204 153 177 204 153 177 204 153 177 204 153 177 204 153 177 204 153 177 204 153 177 204 153 177 204 153 177 204 153 177 204 153 177 204 153 177 204 153 177 204 153 177 204 153 177 204 153 177 204 153 177 204 153 177 204 153 177 204 153 177 204 153 177 204 153 177 204 153 177 204 153 177 204 153 177 204 153 177 204 153 177 204 153 177 204 153 177 204 153 177 204 153 177 204 153 177 204 153 177 204 153 177 204 153 177 204 153 177 204 153 177 204 153 177 204 153 177 204 153 177 204 153 177 204 153 177 204 153 177 204 153 177 204 153 177 204 153 177 204 153 177 204 153 177 204 153 177 204 153 177 204 153 177 204 153 177 204 153 177 204 153 177 204 153 177 204 153 177 204 153 177 204 153 177 204 153 177 204 153 177 204 153 177 204 153 177 204 153 177 204 153 177 204 153 177 204 153 177 204 153 177 204 153 177 204 153 177 204 153 177 204 153 177 204 153 177 204 153 177 204 153 177 204 153 177 204 153 177 204 153 177 204 153 177 204 153 177 204 153 177 204 153 177 204 153 177 204 153 177 204 153 177 204 153 177 204 153 177 204 153 177 204 153 177 204 153 177 204 153 177 204 153 177 204 153 177 204 153 177 204 153 177 204 153 177 204 153 177 204 153 177 204 153 177 204 153 177 204 153 177 204 153 177 204 153 177 204 153 177 204 153 177 204 153 177 204 153 177 204 153 177 204 153 177 204 153 177 204 153 177 204 153 177 204 153 177 204 153 177 204 153 177 204 153 177 204 153 177 204 153 177 204 153 177 204 153 177 204 153 177 204 153 177 204 153 177 204 153 177 204 153 177 204 153 177 204 153 177 204 153 177 204 153 177 204 153 177 204 153 177 204 153 177 204 153 177 204 153 177 204 153 177 204 153 177 204 153 177 204 153 177 204 153 177 204 153 177 204 153 177 204 153 177 204 153 177 204 153 177 204 153 177 204 153 177 204 153 177 204 153 177 204 153 177 204 153 177 204 153 177 204 153 177 204 153 177 204 153 177 204 153 177 204 153 177 204 153 177 204 153 177 204 153 177 204 153 177 204 153 177 204 153 177 204 153 177 204 153 177 204 153 177 204 153 177 204 153 177 204 153 177 204 153 177 204 153 177 204 153 177 204 153 177 204 153 177 204 153 177 204 153 177 204 153 177 204 153 177 204 153 177 204 153 177 204 153 177 204 153 177 204 153 177 204 153 177 204 153 177 204 153 177 204 153 177 204 153 177 204 153 177 204 153 177 204 153 177 204 153 177 204 153 177 204 153 177 204 153 177 204 153 177 204 153 177 204 153 177 204 153 177 204 153 177 204 153 177 204 153 177 204 153 177 204 153 177 204 153 177 204 153 177 204 153 177 204 153 177 204 153 177 204 153 177 204 152 177 204 152 177 204 152 177 204 152 177 204 152 177 204 152 177 204 152 177 204 152 177 204 152 177 204 152 177 204 152 177 204 152 177 204 152 177 204 152 177 204 152 177 204 152 177 204 152 177 204 152 177 204 152 177 204 152 177 204 152 177 204 152 177 204 152 177 204 152 177 204 152 177 204 152 177 204 152 177 203 152 177 203 152 177 203 152 177 203 152 177 203 152 177 203 152 177 203 152 177 203 152 177 203 152 177 203 152 177 203 152 177 203 152 177 203 152 177 203 152 177 203 152 177 203 152 177 203 152 177 203 152 177 203 152 177 203 152 177 203 152 177 203 152 177 203 152 177 203 152 177 203 152 177 203 152 177 203 152 177 203 152 177 203 152 177 203 152 177 203 152 177 203 152 177 203 152 177 203 152 177 203 152 177 203 152 177 203 152 177 203 152 177 203 152 177 203 152 177 203 152 177 203 152 177 203 152 177 203 152 177 203 152 177 203 152 177 203 152 177 203 152 177 203 152 177 203 152 177 203 152 177 203 152 177 203 152 177 203 152 177 203 152 177 203 152 177 203 152 177 203 152 177 203 152 177 203 152 177 203 152 177 203 152 177 203 152 177 203 152 177 203 152 177 203 152 177 203 152 177 203 152 177 203 152 177 203 152 177 203 152 177 203 152 177 203 152 177 203 152 177 203 152 177 203 152 177 203 152 177 203 152 177 203 152 177 203 152 177 203 152 177 203 152 177 203 152 177 203 152 177 203 152 177 203 152 177 203 152 177 203 152 176 203 152 177 203 152 176 203 152 176 203 152 176 203 152 176 203 152 176 203 152 176 203 152 176 203 152 176 203 152 176 203 152 176 203 152 176 203 152 176 203 152 176 203 152 176 203 152 176 203 152 176 203 152 176 203 152 176 203 152 176 203 152 176 203 152 176 203 152 176 203 152 176 203 152 176 203 152 176 203 152 176 203 152 176 203 152 176 203 152 176 203 152 176 203 152 176 203 152 176 203 152 176 203 152 176 203 152 176 203 152 176 203 152 176 203 152 176 203 152 176 203 152 176 203 152 176 203 152 176 203 152 176 203 152 176 203 152 176 203 152 176 203 152 176 203 152 176 203 152 176 203 152 176 203 152 176 203 152 176 203 152 176 203 152 176 203 152 176 203 152 176 203 152 176 203 152 176 203 152 176 203 152 176 203 152 176 203 152 176 203 152 176 203 152 176 203 152 176 203 152 176 203 152 176 203 152 176 203 152 176 203 152 176 203 152 176 203 152 176 203 152 176 203 152 176 203 152 176 203 152 176 203 152 176 203 152 176 203 152 176 203 152 176 203 152 176 203 152 176 203 152 176 203 152 176 203 
152 176 203 152 176 203 152 176 203 152 176 203 152 176 203 152 176 203 152 176 203 152 176 203 152 176 203 152 176 203 152 176 203 152 176 203 152 176 203 152 176 203 152 176 203 152 176 203 152 176 203 152 176 203 152 176 203 152 176 203 152 176 203 152 176 203 152 176 203 152 176 203 152 176 203 152 176 203 152 176 203 152 176 203 152 176 203 152 176 203 152 176 203 152 176 203 152 176 203 152 176 203 152 176 203 152 176 203 152 176 203 152 176 203 152 176 203 152 176 203 152 176 203 152 176 203 152 176 203 152 176 203 152 176 203 152 176 203 152 176 203 152 176 203 152 176 203 152 176 203 152 176 203 152 176 203 152 176 203 152 176 203 152 176 203 152 176 203 152 176 203 152 176 203 152 176 203 152 176 203 152 176 203 152 176 203 152 176 203 152 176 203 152 176 203 152 176 203 152 176 203 152 176 203 152 176 203 152 176 203 152 176 203 152 176 203 152 176 203 152 176 203 152 176 203 152 176 203 152 176 203 152 176 203 152 176 203 152 176 203 152 176 203 152 176 203 152 176 203 152 176 203 152 176 203 152 176 203 152 176 203 152 176 203 152 176 203 152 176 203 152 176 203 152 176 203 152 176 203 152 176 203 152 176 203 152 177 203 152 177 203 152 177 203 152 177 203 152 177 203 152 177 203 152 177 203 152 177 203 152 177 203 152 177 203 152 177 203 152 177 203 152 177 203 152 177 203 152 177 203 152 177 203 152 177 203 152 177 203 152 177 203 152 177 203 152 177 203 152 177 203 152 177 203 152 177 203 152 177 203 152 177 203 152 177 203 152 177 203 152 177 203 152 177 203 152 177 203 152 177 203 152 177 203 152 177 203 152 177 203 152 177 203 152 177 203 152 177 203 152 177 203 152 177 203 152 177 203 152 177 203 152 177 203 152 177 203 152 177 203 152 177 203 152 177 203 152 177 203 152 177 203 152 177 203 152 177 203 152 177 203 152 177 203 152 177 203 152 177 203 152 177 203 152 177 203 152 177 203 152 177 203 152 177 203 152 177 203 152 177 203 152 177 203 152 177 203 152 177 203 152 177 203 152 177 203 152 177 203 152 177 203 152 177 203 152 177 203 152 177 203 152 177 203 152 177 203 152 177 203 152 177 203 152 177 203 152 177 203 152 177 203 152 177 203 152 177 203 152 177 203 152 177 203 152 177 203 152 177 203 152 177 203 152 177 203 152 177 203 152 177 203 152 177 203 152 177 203 152 177 203 152 177 203 152 177 203 152 177 204 152 177 204 152 177 204 152 177 204 152 177 204 152 177 204 152 177 204 152 177 204 152 177 204 152 177 204 152 177 204 152 177 204 152 177 204 152 177 204 152 177 204 152 177 204 152 177 204 152 177 204 152 177 204 152 177 204 152 177 204 152 177 204 152 177 204 152 177 204 152 177 204 153 177 204 153 177 204 153 177 204 153 177 204 153 177 204 153 177 204 153 177 204 153 177 204 153 177 204 153 177 204 153 177 204 153 177 204 153 177 204 153 177 204 153 177 204 153 177 204 153 177 204 153 177 204 153 177 204 153 177 204 153 177 204 153 177 204 153 177 204 153 177 204 153 177 204 153 177 204 153 177 204 153 177 204 153 177 204 153 177 204 153 177 204 153 177 204 153 177 204 153 177 204 153 177 204 153 177 204 153 177 204 153 177 204 153 177 204 153 177 204 153 177 204 153 177 204 153 177 204 153 177 204 153 177 204 153 177 204 153 177 204 153 177 204 153 177 204 153 177 204 153 177 204 153 177 204 153 177 204 153 177 204 153 177 204 153 177 204 153 177 204 153 177 204 153 177 204 153 177 204 153 177 204 153 177 204 153 177 204 153 177 204 153 177 204 153 177 204 153 177 204 153 177 204 153 177 204 153 177 204 153 177 204 153 177 204 153 177 204 153 177 204 153 177 204 153 177 204 153 177 204 153 177 204 153 177 204 153 177 204 153 177 204 153 177 204 153 177 204 153 177 204 153 177 204 153 177 204 153 177 204 153 177 204 153 177 204 153 177 204 153 177 204 153 177 204 153 177 204 153 177 204 153 177 204 153 177 204 153 177 204 153 177 204 153 177 204 153 177 204 153 177 204 153 177 204 153 177 204 153 177 204 153 177 204 153 177 204 153 177 204 153 177 204 153 177 204 153 177 204 153 177 204 153 177 204 153 177 204 153 177 204 153 177 204 153 177 204 153 177 204 153 177 204 153 177 204 153 177 204 153 177 204 153 177 204 153 177 204 153 177 204 153 177 204 153 177 204 153 177 204 153 177 204 153 177 204 153 177 204 153 177 204 153 177 204 153 177 204 153 177 204 153 177 204 153 177 204 153 177 204 153 177 204 153 177 204 153 177 204 153 177 204 153 177 204 153 177 204 153 177 204 153 177 204 153 177 204 153 177 204 153 177 204 153 177 204 153 177 204 153 177 204 153 177 204 153 177 204 153 177 204 153 177 204 153 177 204 153 177 204 153 177 204 153 177 204 153 177 204 153 177 204 153 177 204 153 177 204 153 177 204 153 177 204 153 177 204 153 177 204 153 177 204 153 177 204 153 177 204 153 177 204 153 177 204 153 177 204 153 177 204 153 177 204 153 177 204 153 177 204 153 177 204 153 177 204 153 177 204 153 177 204 153 177 204 153 177 204 153 177 204 153 177 204 153 177 204 153 177 204 153 177 204 153 177 204 153 177 204 153 177 204 153 177 204 153 177 204 153 177 204 153 177 204 153 177 204 153 177 204 153 177 204 153 177 204 153 177 204 153 177 204 153 177 204 153 177 204 153 177 204 153 177 204 153 177 204 153 177 204 153 177 204 153 177 204 153 177 204 153 177 204 153 177 204 153 177 204 153 177 204 153 177 204 153 177 204 153 177 204 153 177 204 153 177 204 153 177 204 153 177 204 153 177 204 153 177 204 153 177 204 153 177 204 153 177 204 153 177 204 153 177 204 153 177 204 153 177 204 153 177 204 153 177 204 153 177 204 153 177 204 153 177 204 153 177 204 153 177 204 153 177 204 153 177 204 153 177 204 153 177 204 153 177 204 153 177 204 153 177 204 153 177 204 153 177 204 153 177 204 153 177 204 153 177 204 153 177 204 153 177 204 153 177 204 153 177 204 153 177 204 153 177 204 153 177 204 153 177 204 153 177 204 153 177 204 153 177 204 153 177 204 153 177 204 153 177 204 153 177 204 153 177 204 153 177 204 153 177 204 153 177 204 153 177 204 153 177 204 153 177 204 153 177 204 153 177 204 153 177 204 153 177 204 153 177 204 153 177 204 153 177 204 153 177 204 153 177 204 153 177 204 153 177 204 153 177 204 153 177 204 153 177 204 153 177 204 153 177 204 153 177 204 153 177 204 153 177 204 153 177 204 153 177 204 153 177 204 153 177 204 153 177 204 153 177 204 153 177 204 153 177 204 153 177 204 153 177 204 153 177 204 153 177 204 153 177 204 153 177 204 153 177 204 153 177 204 153 177 204 153 177 204 153 177 204 153 177 204 153 177 204 153 177 204 153 177 204 153 177 204 153 177 204 153 177 204 153 177 204 153 177 204 153 177 204 153 177 204 153 177 204 153 177 204 153 177 204 153 177 204 153 177 204 153 177 204 153 177 204 153 177 204 153 177 204 153 177 204 153 177 204 153 177 204 153 177 204 153 177 204 153 177 204 153 177 204 153 177 204 153 177 204 153 177 204 153 177 204 153 177 204 153 177 204 153 177 204 153 177 204 153 177 204 153 177 204 153 177 204 153 177 204 153 177 204 153 177 204 153 177 204 153 177 204 153 177 204 153 177 204 153 177 204 153 177 204 153 177 204 153 177 204 153 177 204 153 177 204 153 177 204 153 177 204 153 177 204 153 177 204 153 177 204 153 177 204 153 177 204 153 177 204 153 177 204 153 177 204 153 177 204 152 177 204 152 177 204 152 177 204 152 177 204 152 177 204 152 177 204 152 177 204 152 177 204 152 177 204 152 177 204 152 177 204 152 177 204 152 177 204 152 177 204 152 177 204 152 177 204 152 177 204 152 177 204 152 177 204 152 177 204 152 177 204 152 177 204 152 177 204 152 177 204 152 177 204 152 177 203 152 177 204 152 177 203 152 177 203 152 177 203 152 177 203 152 177 203 152 177 203 152 177 203 152 177 203 152 177 203 152 177 203 152 177 203 152 177 203 152 177 203 152 177 203 152 177 203 152 177 203 152 177 203 152 177 203 152 177 203 152 177 203 152 177 203 152 177 203 152 177 203 152 177 203 152 177 203 152 177 203 152 177 203 152 177 203 152 177 203 152 177 203 152 177 203 152 177 203 152 177 203 152 177 203 152 177 203 152 177 203 152 177 203 152 177 203 152 177 203 152 177 203 152 177 203 152 177 203 152 177 203 152 177 203 152 177 203 152 177 203 152 177 203 152 177 203 152 177 203 152 177 203 152 177 203 152 177 203 152 177 203 152 177 203 152 177 203 152 177 203 152 177 203 152 177 203 152 177 203 152 177 203 152 177 203 152 177 203 152 177 203 152 177 203 152 177 203 152 177 203 152 177 203 152 177 203 152 177 203 152 177 203 152 177 203 152 177 203 152 177 203 152 177 203 152 177 203 152 177 203 152 177 203 152 177 203 152 177 203 152 177 203 152 177 203 152 177 203 152 177 203 152 177 203 152 177 203 152 177 203 152 177 203 152 177 203 152 177 203 152 177 203 152 177 203 152 176 203 152 176 203 152 177 203 152 176 203 152 176 203 152 176 203 152 176 203 152 176 203 152 176 203 152 176 203 152 176 203 152 176 203 152 176 203 152 176 203 152 176 203 152 176 203 152 176 203 152 176 203 152 176 203 152 176 203 152 176 203 152 176 203 152 176 203 152 176 203 152 176 203 152 176 203 152 176 203 152 176 203 152 176 203 152 176 203 152 176 203 152 176 203 152 176 203 152 176 203 152 176 203 152 176 203 152 176 203 152 176 203 152 176 203 152 176 203 152 176 203 152 176 203 152 176 203 152 176 203 152 176 203 152 176 203 152 176 203 152 176 203 152 176 203 152 176 203 152 176 203 152 176 203 152 176 203 152 176 203 152 176 203 152 176 203 152 176 203 152 176 203 152 176 203 152 176 203 152 176 203 152 176 203 152 176 203 152 176 203 152 176 203 152 176 203 152 176 203 152 176 203 152 176 203 152 176 203 152 176 203 152 176 203 152 176 203 152 176 203 152 176 203 152 176 203 152 176 203 152 176 203 152 176 203 152 176 203 152 176 203 152 176 203 152 176 203 152 176 203 152 176 203 152 176 203 152 176 203 152 176 203 152 176 203 152 176 203 152 176 203 152 176 203 152 176 203 152 176 203 152 176 203 152 176 203 152 176 203 
152 176 203 152 176 203 152 176 203 152 176 203 152 176 203 152 176 203 152 176 203 152 176 203 152 176 203 152 176 203 152 176 203 152 176 203 152 176 203 152 176 203 152 176 203 152 176 203 152 176 203 152 176 203 152 176 203 152 176 203 152 176 203 152 176 203 152 176 203 152 176 203 152 176 203 152 176 203 152 176 203 152 176 203 152 176 203 152 176 203 152 176 203 152 176 203 152 176 203 152 176 203 152 176 203 152 176 203 152 176 203 152 176 203 152 176 203 152 176 203 152 176 203 152 176 203 152 176 203 152 176 203 152 176 203 152 176 203 152 176 203 152 176 203 152 176 203 152 176 203 152 176 203 152 176 203 152 176 203 152 176 203 152 176 203 152 176 203 152 176 203 152 176 203 152 176 203 152 176 203 152 176 203 152 176 203 152 176 203 152 176 203 152 176 203 152 176 203 152 176 203 152 176 203 152 176 203 152 176 203 152 176 203 152 176 203 152 176 203 152 176 203 152 176 203 152 176 203 152 176 203 152 176 203 152 176 203 152 176 203 152 176 203 152 176 203 152 176 203 152 176 203 152 176 203 152 176 203 152 176 203 152 176 203 152 176 203 152 176 203 152 176 203 152 176 203 152 176 203 152 176 203 152 176 203 152 176 203 152 176 203 152 176 203 152 176 203 152 176 203 152 176 203 152 176 203 152 176 203 152 176 203 152 176 203 152 177 203 152 177 203 152 177 203 152 177 203 152 177 203 152 177 203 152 177 203 152 177 203 152 177 203 152 177 203 152 177 203 152 177 203 152 177 203 152 177 203 152 177 203 152 177 203 152 177 203 152 177 203 152 177 203 152 177 203 152 177 203 152 177 203 152 177 203 152 177 203 152 177 203 152 177 203 152 177 203 152 177 203 152 177 203 152 177 203 152 177 203 152 177 203 152 177 203 152 177 203 152 177 203 152 177 203 152 177 203 152 177 203 152 177 203 152 177 203 152 177 203 152 177 203 152 177 203 152 177 203 152 177 203 152 177 203 152 177 203 152 177 203 152 177 203 152 177 203 152 177 203 152 177 203 152 177 203 152 177 203 152 177 203 152 177 203 152 177 203 152 177 203 152 177 203 152 177 203 152 177 203 152 177 203 152 177 203 152 177 203 152 177 203 152 177 203 152 177 203 152 177 203 152 177 203 152 177 203 152 177 203 152 177 203 152 177 203 152 177 203 152 177 203 152 177 203 152 177 203 152 177 203 152 177 203 152 177 203 152 177 203 152 177 203 152 177 203 152 177 203 152 177 203 152 177 203 152 177 203 152 177 203 152 177 203 152 177 203 152 177 203 152 177 203 152 177 203 152 177 203 152 177 203 152 177 203 152 177 203 152 177 204 152 177 204 152 177 204 152 177 204 152 177 204 152 177 204 152 177 204 152 177 204 152 177 204 152 177 204 152 177 204 152 177 204 152 177 204 152 177 204 152 177 204 152 177 204 152 177 204 152 177 204 152 177 204 152 177 204 152 177 204 152 177 204 152 177 204 152 177 204 152 177 204 152 177 204 152 177 204 152 177 204 152 177 204 153 177 204 153 177 204 152 177 204 153 177 204 153 177 204 153 177 204 153 177 204 153 177 204 153 177 204 153 177 204 153 177 204 153 177 204 153 177 204 153 177 204 153 177 204 153 177 204 153 177 204 153 177 204 153 177 204 153 177 204 153 177 204 153 177 204 153 177 204 153 177 204 153 177 204 153 177 204 153 177 204 153 177 204 153 177 204 153 177 204 153 177 204 153 177 204 153 177 204 153 177 204 153 177 204 153 177 204 153 177 204 153 177 204 153 177 204 153 177 204 153 177 204 153 177 204 153 177 204 153 177 204 153 177 204 153 177 204 153 177 204 153 177 204 153 177 204 153 177 204 153 177 204 153 177 204 153 177 204 153 177 204 153 177 204 153 177 204 153 177 204 153 177 204 153 177 204 153 177 204 153 177 204 153 177 204 153 177 204 153 177 204 153 177 204 153 177 204 153 177 204 153 177 204 153 177 204 153 177 204 153 177 204 153 177 204 153 177 204 153 177 204 153 177 204 153 177 204 153 177 204 153 177 204 153 177 204 153 177 204 153 177 204 153 177 204 153 177 204 153 177 204 153 177 204 153 177 204 153 177 204 153 177 204 153 177 204 153 177 204 153 177 204 153 177 204 153 177 204 153 177 204 153 177 204 153 177 204 153 177 204 153 177 204 153 177 204 153 177 204 153 177 204 153 177 204 153 177 204 153 177 204 153 177 204 153 177 204 153 177 204 153 177 204 153 177 204 153 177 204 153 177 204 153 177 204 153 177 204 153 177 204 153 177 204 153 177 204 153 177 204 153 177 204 153 177 204 153 177 204 153 177 204 153 177 204 153 177 204 153 177 204 153 177 204 153 177 204 153 177 204 153 177 204 153 177 204 153 177 204 153 177 204 153 177 204 153 177 204 153 177 204 153 177 204 153 177 204 153 177 204 153 177 204 153 177 204 153 177 204 153 177 204 153 177 204 153 177 204 153 177 204 153 177 204 153 177 204 153 177 204 153 177 204 153 177 204 153 177 204 153 177 204 153 177 204 153 177 204 153 177 204 153 177 204 153 177 204 153 177 204 153 177 204 153 177 204 153 177 204 153 177 204 153 177 204 153 177 204 153 177 204 153 177 204 153 177 204 153 177 204 153 177 204 153 177 204 153 177 204 153 177 204 153 177 204 153 177 204 153 177 204 153 177 204 153 177 204 153 177 204 153 177 204 153 177 204 153 177 204 153 177 204 153 177 204 153 177 204 153 177 204 153 177 204 153 177 204 153 177 204 153 177 204 153 177 204 153 177 204 153 177 204 153 177 204 153 177 204 153 177 204 153 177 204 153 177 204 153 177 204 153 177 204 153 177 204 153 177 204 153 177 204 153 177 204 153 177 204 153 177 204 153 177 204 153 177 204 153 177 204 153 177 204 153 177 204 153 177 204 153 177 204 153 177 204 153 177 204 153 177 204 153 177 204 153 177 204 153 177 204 153 177 204 153 177 204 153 177 204 153 177 204 153 177 204 153 177 204 153 177 204 153 177 204 153 177 204 153 177 204 153 177 204 153 177 204 153 177 204 153 177 204 153 177 204 153 177 204 153 177 204 153 177 204 153 177 204 153 177 204 153 177 204 153 177 204 153 177 204 153 177 204 153 177 204 153 177 204 153 177 204 153 177 204 153 177 204 153 177 204 153 177 204 153 177 204 153 177 204 153 177 204 153 177 204 153 177 204 153 177 204 153 177 204 153 177 204 153 177 204 153 177 204 153 177 204 153 177 204 153 177 204 153 177 204 153 177 204 153 177 204 153 177 204 153 177 204 153 177 204 153 177 204 153 177 204 153 177 204 153 177 204 153 177 204 153 177 204 153 177 204 153 177 204 153 177 204 153 177 204 153 177 204 153 177 204 153 177 204 153 177 204 153 177 204 153 177 204 153 177 204 153 177 204 153 177 204 153 177 204 153 177 204 153 177 204 153 177 204 153 177 204 153 177 204 153 177 204 153 177 204 153 177 204 153 177 204 153 177 204 153 177 204 153 177 204 153 177 204 153 177 204 153 177 204 153 177 204 153 177 204 153 177 204 153 177 204 153 177 204 153 177 204 153 177 204 153 177 204 153 177 204 153 177 204 153 177 204 153 177 204 153 177 204 153 177 204 153 177 204 153 177 204 153 177 204 153 177 204 153 177 204 153 177 204 153 177 204 153 177 204 153 177 204 153 177 204 153 177 204 153 177 204 153 177 204 153 177 204 153 177 204 153 177 204 153 177 204 153 177 204 153 177 204 153 177 204 153 177 204 153 177 204 153 177 204 152 177 204 153 177 204 152 177 204 152 177 204 152 177 204 152 177 204 152 177 204 152 177 204 152 177 204 152 177 204 152 177 204 152 177 204 152 177 204 152 177 204 152 177 204 152 177 204 152 177 204 152 177 204 152 177 204 152 177 204 152 177 204 152 177 204 152 177 204 152 177 204 152 177 204 152 177 204 152 177 204 152 177 203 152 177 203 152 177 204 152 177 203 152 177 203 152 177 203 152 177 203 152 177 203 152 177 203 152 177 203 152 177 203 152 177 203 152 177 203 152 177 203 152 177 203 152 177 203 152 177 203 152 177 203 152 177 203 152 177 203 152 177 203 152 177 203 152 177 203 152 177 203 152 177 203 152 177 203 152 177 203 152 177 203 152 177 203 152 177 203 152 177 203 152 177 203 152 177 203 152 177 203 152 177 203 152 177 203 152 177 203 152 177 203 152 177 203 152 177 203 152 177 203 152 177 203 152 177 203 152 177 203 152 177 203 152 177 203 152 177 203 152 177 203 152 177 203 152 177 203 152 177 203 152 177 203 152 177 203 152 177 203 152 177 203 152 177 203 152 177 203 152 177 203 152 177 203 152 177 203 152 177 203 152 177 203 152 177 203 152 177 203 152 177 203 152 177 203 152 177 203 152 177 203 152 177 203 152 177 203 152 177 203 152 177 203 152 177 203 152 177 203 152 177 203 152 177 203 152 177 203 152 177 203 152 177 203 152 177 203 152 177 203 152 177 203 152 177 203 152 177 203 152 177 203 152 177 203 152 177 203 152 177 203 152 177 203 152 177 203 152 177 203 152 177 203 152 177 203 152 177 203 152 176 203 152 177 203 152 176 203 152 176 203 152 176 203 152 176 203 152 176 203 152 176 203 152 176 203 152 176 203 152 176 203 152 176 203 152 176 203 152 176 203 152 176 203 152 176 203 152 176 203 152 176 203 152 176 203 152 176 203 152 176 203 152 176 203 152 176 203 152 176 203 152 176 203 152 176 203 152 176 203 152 176 203 152 176 203 152 176 203 152 176 203 152 176 203 152 176 203 152 176 203 152 176 203 152 176 203 152 176 203 152 176 203 152 176 203 152 176 203 152 176 203 152 176 203 152 176 203 152 176 203 152 176 203 152 176 203 152 176 203 152 176 203 152 176 203 152 176 203 152 176 203 152 176 203 152 176 203 152 176 203 152 176 203 152 176 203 152 176 203 152 176 203 152 176 203 152 176 203 152 176 203 152 176 203 152 176 203 152 176 203 152 176 203 152 176 203 152 176 203 152 176 203 152 176 203 152 176 203 152 176 203 152 176 203 152 176 203 152 176 203 152 176 203 152 176 203 152 176 203 152 176 203 152 176 203 152 176 203 152 176 203 152 176 203 152 176 203 152 176 203 152 176 203 152 176 203 152 176 203 152 176 203 152 176 203 152 176 203 152 176 203 152 176 203 152 176 203 152 176 203 152 176 203 152 176 203 152 176 203 152 176 203 152 176 203 152 176 203 152 176 203 152 176 203 152 176 203 152 176 203 152 176 203 152 176 203 152 176 203 152 176 203 152 176 203 
152 176 203 152 176 203 152 176 203 152 176 203 152 176 203 152 176 203 152 176 203 152 176 203 152 176 203 152 176 203 152 176 203 152 176 203 152 176 203 152 176 203 152 176 203 152 176 203 152 176 203 152 176 203 152 176 203 152 176 203 152 176 203 152 176 203 152 176 203 152 176 203 152 176 203 152 176 203 152 176 203 152 176 203 152 176 203 152 176 203 152 176 203 152 176 203 152 176 203 152 176 203 152 176 203 152 176 203 152 176 203 152 176 203 152 176 203 152 176 203 152 176 203 152 176 203 152 176 203 152 176 203 152 176 203 152 176 203 152 176 203 152 176 203 152 176 203 152 176 203 152 176 203 152 176 203 152 176 203 152 176 203 152 176 203 152 176 203 152 176 203 152 176 203 152 176 203 152 176 203 152 176 203 152 176 203 152 176 203 152 176 203 152 176 203 152 176 203 152 176 203 152 176 203 152 176 203 152 176 203 152 176 203 152 176 203 152 176 203 152 176 203 152 176 203 152 176 203 152 176 203 152 176 203 152 176 203 152 176 203 152 176 203 152 176 203 152 176 203 152 176 203 152 176 203 152 176 203 152 176 203 152 176 203 152 176 203 152 176 203 152 176 203 152 176 203 152 176 203 152 176 203 152 176 203 152 176 203 152 176 203 152 176 203 152 176 203 152 176 203 152 176 203 152 176 203 152 176 203 152 176 203 152 176 203 152 176 203 152 176 203 152 176 203 152 176 203 152 176 203 152 176 203 152 176 203 152 176 203 152 176 203 152 176 203 152 176 203 152 176 203 152 176 203 152 177 203 152 177 203 152 177 203 152 177 203 152 177 203 152 177 203 152 177 203 152 177 203 152 177 203 152 177 203 152 177 203 152 177 203 152 177 203 152 177 203 152 177 203 152 177 203 152 177 203 152 177 203 152 177 203 152 177 203 152 177 203 152 177 203 152 177 203 152 177 203 152 177 203 152 177 203 152 177 203 152 177 203 152 177 203 152 177 203 152 177 203 152 177 203 152 177 203 152 177 203 152 177 203 152 177 203 152 177 203 152 177 203 152 177 203 152 177 203 152 177 203 152 177 203 152 177 203 152 177 203 152 177 203 152 177 203 152 177 203 152 177 203 152 177 203 152 177 203 152 177 203 152 177 203 152 177 203 152 177 203 152 177 203 152 177 203 152 177 203 152 177 203 152 177 203 152 177 203 152 177 203 152 177 203 152 177 203 152 177 203 152 177 203 152 177 203 152 177 203 152 177 203 152 177 203 152 177 203 152 177 203 152 177 203 152 177 203 152 177 203 152 177 203 152 177 203 152 177 203 152 177 203 152 177 203 152 177 203 152 177 203 152 177 203 152 177 203 152 177 203 152 177 203 152 177 203 152 177 203 152 177 203 152 177 203 152 177 203 152 177 203 152 177 203 152 177 203 152 177 203 152 177 203 152 177 203 152 177 203 152 177 203 152 177 203 152 177 203 152 177 204 152 177 204 152 177 204 152 177 204 152 177 204 152 177 204 152 177 204 152 177 204 152 177 204 152 177 204 152 177 204 152 177 204 152 177 204 152 177 204 152 177 204 152 177 204 152 177 204 152 177 204 152 177 204 152 177 204 152 177 204 152 177 204 152 177 204 152 177 204 152 177 204 152 177 204 152 177 204 152 177 204 152 177 204 152 177 204 152 177 204 152 177 204 152 177 204 153 177 204 153 177 204 153 177 204 153 177 204 153 177 204 153 177 204 153 177 204 153 177 204 153 177 204 153 177 204 153 177 204 153 177 204 153 177 204 153 177 204 153 177 204 153 177 204 153 177 204 153 177 204 153 177 204 153 177 204 153 177 204 153 177 204 153 177 204 153 177 204 153 177 204 153 177 204 153 177 204 153 177 204 153 177 204 153 177 204 153 177 204 153 177 204 153 177 204 153 177 204 153 177 204 153 177 204 153 177 204 153 177 204 153 177 204 153 177 204 153 177 204 153 177 204 153 177 204 153 177 204 153 177 204 153 177 204 153 177 204 153 177 204 153 177 204 153 177 204 153 177 204 153 177 204 153 177 204 153 177 204 153 177 204 153 177 204 153 177 204 153 177 204 153 177 204 153 177 204 153 177 204 153 177 204 153 177 204 153 177 204 153 177 204 153 177 204 153 177 204 153 177 204 153 177 204 153 177 204 153 177 204 153 177 204 153 177 204 153 177 204 153 177 204 153 177 204 153 177 204 153 177 204 153 177 204 153 177 204 153 177 204 153 177 204 153 177 204 153 177 204 153 177 204 153 177 204 153 177 204 153 177 204 153 177 204 153 177 204 153 177 204 153 177 204 153 177 204 153 177 204 153 177 204 153 177 204 153 177 204 153 177 204 153 177 204 153 177 204 153 177 204 153 177 204 153 177 204 153 177 204 153 177 204 153 177 204 153 177 204 153 177 204 153 177 204 153 177 204 153 177 204 153 177 204 153 177 204 153 177 204 153 177 204 153 177 204 153 177 204 153 177 204 153 177 204 153 177 204 153 177 204 153 177 204 153 177 204 153 177 204 153 177 204 153 177 204 153 177 204 153 177 204 153 177 204 153 177 204 153 177 204 153 177 204 153 177 204 153 177 204 153 177 204 153 177 204 153 177 204 153 177 204 153 177 204 153 177 204 153 177 204 153 177 204 153 177 204 153 177 204 153 177 204 153 177 204 153 177 204 153 177 204 153 177 204 153 177 204 153 177 204 153 177 204 153 177 204 153 177 204 153 177 204 153 177 204 153 177 204 153 177 204 153 177 204 153 177 204 153 177 204 153 177 204 153 177 204 153 177 204 153 177 204 153 177 204 153 177 204 153 177 204 153 177 204 153 177 204 153 177 204 153 177 204 153 177 204 153 177 204 153 177 204 153 177 204 153 177 204 153 177 204 153 177 204 153 177 204 153 177 204 153 177 204 153 177 204 153 177 204 153 177 204 153 177 204 153 177 204 153 177 204 153 177 204 153 177 204 153 177 204 153 177 204 153 177 204 153 177 204 153 177 204 153 177 204 153 177 204 153 177 204 153 177 204 153 177 204 153 177 204 153 177 204 153 177 204 153 177 204 153 177 204 153 177 204 153 177 204 153 177 204 153 177 204 153 177 204 153 177 204 153 177 204 153 177 204 153 177 204 153 177 204 153 177 204 153 177 204 153 177 204 153 177 204 153 177 204 153 177 204 153 177 204 153 177 204 153 177 204 153 177 204 153 177 204 153 177 204 153 177 204 153 177 204 153 177 204 153 177 204 153 177 204 153 177 204 153 177 204 153 177 204 153 177 204 153 177 204 153 177 204 153 177 204 153 177 204 153 177 204 153 177 204 153 177 204 153 177 204 153 177 204 153 177 204 153 177 204 153 177 204 153 177 204 153 177 204 153 177 204 153 177 204 153 177 204 153 177 204 153 177 204 153 177 204 153 177 204 153 177 204 153 177 204 153 177 204 153 177 204 153 177 204 153 177 204 153 177 204 153 177 204 153 177 204 153 177 204 153 177 204 153 177 204 153 177 204 153 177 204 153 177 204 153 177 204 153 177 204 153 177 204 153 177 204 153 177 204 153 177 204 153 177 204 153 177 204 153 177 204 153 177 204 153 177 204 153 177 204 153 177 204 153 177 204 153 177 204 153 177 204 153 177 204 153 177 204 153 177 204 153 177 204 153 177 204 153 177 204 153 177 204 153 177 204 153 177 204 153 177 204 153 177 204 152 177 204 152 177 204 152 177 204 152 177 204 152 177 204 152 177 204 152 177 204 152 177 204 152 177 204 152 177 204 152 177 204 152 177 204 152 177 204 152 177 204 152 177 204 152 177 204 152 177 204 152 177 204 152 177 204 152 177 204 152 177 204 152 177 204 152 177 204 152 177 204 152 177 204 152 177 204 152 177 204 152 177 204 152 177 204 152 177 204 152 177 204 152 177 204 152 177 203 152 177 203 152 177 203 152 177 203 152 177 203 152 177 203 152 177 203 152 177 203 152 177 203 152 177 203 152 177 203 152 177 203 152 177 203 152 177 203 152 177 203 152 177 203 152 177 203 152 177 203 152 177 203 152 177 203 152 177 203 152 177 203 152 177 203 152 177 203 152 177 203 152 177 203 152 177 203 152 177 203 152 177 203 152 177 203 152 177 203 152 177 203 152 177 203 152 177 203 152 177 203 152 177 203 152 177 203 152 177 203 152 177 203 152 177 203 152 177 203 152 177 203 152 177 203 152 177 203 152 177 203 152 177 203 152 177 203 152 177 203 152 177 203 152 177 203 152 177 203 152 177 203 152 177 203 152 177 203 152 177 203 152 177 203 152 177 203 152 177 203 152 177 203 152 177 203 152 177 203 152 177 203 152 177 203 152 177 203 152 177 203 152 177 203 152 177 203 152 177 203 152 177 203 152 177 203 152 177 203 152 177 203 152 177 203 152 177 203 152 177 203 152 177 203 152 177 203 152 177 203 152 177 203 152 177 203 152 177 203 152 177 203 152 177 203 152 177 203 152 177 203 152 177 203 152 177 203 152 177 203 152 177 203 152 177 203 152 177 203 152 177 203 152 177 203 152 177 203 152 177 203 152 177 203 152 177 203 152 177 203 152 176 203 152 176 203 152 177 203 152 176 203 152 176 203 152 176 203 152 176 203 152 176 203 152 176 203 152 176 203 152 176 203 152 176 203 152 176 203 152 176 203 152 176 203 152 176 203 152 176 203 152 176 203 152 176 203 152 176 203 152 176 203 152 176 203 152 176 203 152 176 203 152 176 203 152 176 203 152 176 203 152 176 203 152 176 203 152 176 203 152 176 203 152 176 203 152 176 203 152 176 203 152 176 203 152 176 203 152 176 203 152 176 203 152 176 203 152 176 203 152 176 203 152 176 203 152 176 203 152 176 203 152 176 203 152 176 203 152 176 203 152 176 203 152 176 203 152 176 203 152 176 203 152 176 203 152 176 203 152 176 203 152 176 203 152 176 203 152 176 203 152 176 203 152 176 203 152 176 203 152 176 203 152 176 203 152 176 203 152 176 203 152 176 203 152 176 203 152 176 203 152 176 203 152 176 203 152 176 203 152 176 203 152 176 203 152 176 203 152 176 203 152 176 203 152 176 203 152 176 203 152 176 203 152 176 203 152 176 203 152 176 203 152 176 203 152 176 203 152 176 203 152 176 203 152 176 203 152 176 203 152 176 203 152 176 203 152 176 203 152 176 203 152 176 203 152 176 203 152 176 203 152 176 203 152 176 203 152 176 203 152 176 203 152 176 203 152 176 203 152 176 203 152 176 203 152 176 203 152 176 203 152 176 203 152 176 203 152 176 203 152 176 203 152 176 203 152 176 203 152 176 203 152 176 203 152 176 203 152 176 203 152 176 203 152 176 203 152 176 203 152 176 203 152 176 203 152 176 203 
152 176 203 152 176 203 152 176 203 152 176 203 152 176 203 152 176 203 152 176 203 152 176 203 152 176 203 152 176 203 152 176 203 152 176 203 152 176 203 152 176 203 152 176 203 152 176 203 152 176 203 152 176 203 152 176 203 152 176 203 152 176 203 152 176 203 152 176 203 152 176 203 152 176 203 152 176 203 152 176 203 152 176 203 152 176 203 152 176 203 152 176 203 152 176 203 152 176 203 152 176 203 152 176 203 152 176 203 152 176 203 152 176 203 152 176 203 152 176 203 152 176 203 152 176 203 152 176 203 152 176 203 152 176 203 152 176 203 152 176 203 152 176 203 152 176 203 152 176 203 152 176 203 152 176 203 152 176 203 152 176 203 152 176 203 152 176 203 152 176 203 152 176 203 152 176 203 152 176 203 152 176 203 152 176 203 152 176 203 152 176 203 152 176 203 152 176 203 152 176 203 152 176 203 152 176 203 152 176 203 152 176 203 152 176 203 152 176 203 152 176 203 152 176 203 152 176 203 152 176 203 152 176 203 152 176 203 152 176 203 152 176 203 152 176 203 152 176 203 152 176 203 152 176 203 152 176 203 152 176 203 152 176 203 152 176 203 152 176 203 152 176 203 152 176 203 152 176 203 152 176 203 152 176 203 152 176 203 152 176 203 152 176 203 152 176 203 152 176 203 152 176 203 152 176 203 152 176 203 152 176 203 152 176 203 152 176 203 152 176 203 152 176 203 152 176 203 152 176 203 152 176 203 152 176 203 152 176 203 152 176 203 152 176 203 152 176 203 152 176 203 152 176 203 152 176 203 152 176 203 152 176 203 152 176 203 152 176 203 152 176 203 152 176 203 152 176 203 152 176 203 152 176 203 152 176 203 152 177 203 152 177 203 152 177 203 152 177 203 152 177 203 152 177 203 152 177 203 152 177 203 152 177 203 152 177 203 152 177 203 152 177 203 152 177 203 152 177 203 152 177 203 152 177 203 152 177 203 152 177 203 152 177 203 152 177 203 152 177 203 152 177 203 152 177 203 152 177 203 152 177 203 152 177 203 152 177 203 152 177 203 152 177 203 152 177 203 152 177 203 152 177 203 152 177 203 152 177 203 152 177 203 152 177 203 152 177 203 152 177 203 152 177 203 152 177 203 152 177 203 152 177 203 152 177 203 152 177 203 152 177 203 152 177 203 152 177 203 152 177 203 152 177 203 152 177 203 152 177 203 152 177 203 152 177 203 152 177 203 152 177 203 152 177 203 152 177 203 152 177 203 152 177 203 152 177 203 152 177 203 152 177 203 152 177 203 152 177 203 152 177 203 152 177 203 152 177 203 152 177 203 152 177 203 152 177 203 152 177 203 152 177 203 152 177 203 152 177 203 152 177 203 152 177 203 152 177 203 152 177 203 152 177 203 152 177 203 152 177 203 152 177 203 152 177 203 152 177 203 152 177 203 152 177 203 152 177 203 152 177 203 152 177 203 152 177 203 152 177 203 152 177 203 152 177 203 152 177 203 152 177 203 152 177 203 152 177 203 152 177 203 152 177 203 152 177 203 152 177 203 152 177 203 152 177 203 152 177 203 152 177 204 152 177 204 152 177 204 152 177 203 152 177 204 152 177 204 152 177 204 152 177 204 152 177 204 152 177 204 152 177 204 152 177 204 152 177 204 152 177 204 152 177 204 152 177 204 152 177 204 152 177 204 152 177 204 152 177 204 152 177 204 152 177 204 152 177 204 152 177 204 152 177 204 152 177 204 152 177 204 152 177 204 152 177 204 152 177 204 152 177 204 152 177 204 152 177 204 153 177 204 152 177 204 153 177 204 153 177 204 153 177 204 153 177 204 153 177 204 153 177 204 153 177 204 153 177 204 153 177 204 153 177 204 153 177 204 153 177 204 153 177 204 153 177 204 153 177 204 153 177 204 153 177 204 153 177 204 153 177 204 153 177 204 153 177 204 153 177 204 153 177 204 153 177 204 153 177 204 153 177 204 153 177 204 153 177 204 153 177 204 153 177 204 153 177 204 153 177 204 153 177 204 153 177 204 153 177 204 153 177 204 153 177 204 153 177 204 153 177 204 153 177 204 153 177 204 153 177 204 153 177 204 153 177 204 153 177 204 153 177 204 153 177 204 153 177 204 153 177 204 153 177 204 153 177 204 153 177 204 153 177 204 153 177 204 153 177 204 153 177 204 153 177 204 153 177 204 153 177 204 153 177 204 153 177 204 153 177 204 153 177 204 153 177 204 153 177 204 153 177 204 153 177 204 153 177 204 153 177 204 153 177 204 153 177 204 153 177 204 153 177 204 153 177 204 153 177 204 153 177 204 153 177 204 153 177 204 153 177 204 153 177 204 153 177 204 153 177 204 153 177 204 153 177 204 153 177 204 153 177 204 153 177 204 153 177 204 153 177 204 153 177 204 153 177 204 153 177 204 153 177 204 153 177 204 153 177 204 153 177 204 153 177 204 153 177 204 153 177 204 153 177 204 153 177 204 153 177 204 153 177 204 153 177 204 153 177 204 153 177 204 153 177 204 153 177 204 153 177 204 153 177 204 153 177 204 153 177 204 153 177 204 153 177 204 153 177 204 153 177 204 153 177 204 153 177 204 153 177 204 153 177 204 153 177 204 153 177 204 153 177 204 153 177 204 153 177 204 153 177 204 153 177 204 153 177 204 153 177 204 153 177 204 153 177 204 153 177 204 153 177 204 153 177 204 153 177 204 153 177 204 153 177 204 153 177 204 153 177 204 153 177 204 153 177 204 153 177 204 153 177 204 153 177 204 153 177 204 153 177 204 153 177 204 153 177 204 153 177 204 153 177 204 153 177 204 153 177 204 153 177 204 153 177 204 153 177 204 153 177 204 153 177 204 153 177 204 153 177 204 153 177 204 153 177 204 153 177 204 153 177 204 153 177 204 153 177 204 153 177 204 153 177 204 153 177 204 153 177 204 153 177 204 153 177 204 153 177 204 153 177 204 153 177 204 153 177 204 153 177 204 153 177 204 153 177 204 153 177 204 153 177 204 153 177 204 153 177 204 153 177 204 153 177 204 153 177 204 153 177 204 153 177 204 153 177 204 153 177 204 153 177 204 153 177 204 153 177 204 153 177 204 153 177 204 153 177 204 153 177 204 153 177 204 153 177 204 153 177 204 153 177 204 153 177 204 153 177 204 153 177 204 153 177 204 153 177 204 153 177 204 153 177 204 153 177 204 153 177 204 153 177 204 153 177 204 153 177 204 153 177 204 153 177 204 153 177 204 153 177 204 153 177 204 153 177 204 153 177 204 153 177 204 153 177 204 153 177 204 153 177 204 153 177 204 153 177 204 153 177 204 153 177 204 153 177 204 153 177 204 153 177 204 153 177 204 153 177 204 153 177 204 153 177 204 153 177 204 153 177 204 153 177 204 153 177 204 153 177 204 153 177 204 153 177 204 153 177 204 153 177 204 153 177 204 153 177 204 153 177 204 153 177 204 153 177 204 153 177 204 153 177 204 153 177 204 153 177 204 153 177 204 153 177 204 153 177 204 153 177 204 153 177 204 153 177 204 153 177 204 153 177 204 153 177 204 153 177 204 153 177 204 153 177 204 152 177 204 153 177 204 152 177 204 152 177 204 152 177 204 152 177 204 152 177 204 152 177 204 152 177 204 152 177 204 152 177 204 152 177 204 152 177 204 152 177 204 152 177 204 152 177 204 152 177 204 152 177 204 152 177 204 152 177 204 152 177 204 152 177 204 152 177 204 152 177 204 152 177 204 152 177 204 152 177 204 152 177 204 152 177 204 152 177 204 152 177 204 152 177 204 152 177 204 152 177 203 152 177 204 152 177 203 152 177 203 152 177 203 152 177 203 152 177 203 152 177 203 152 177 203 152 177 203 152 177 203 152 177 203 152 177 203 152 177 203 152 177 203 152 177 203 152 177 203 152 177 203 152 177 203 152 177 203 152 177 203 152 177 203 152 177 203 152 177 203 152 177 203 152 177 203 152 177 203 152 177 203 152 177 203 152 177 203 152 177 203 152 177 203 152 177 203 152 177 203 152 177 203 152 177 203 152 177 203 152 177 203 152 177 203 152 177 203 152 177 203 152 177 203 152 177 203 152 177 203 152 177 203 152 177 203 152 177 203 152 177 203 152 177 203 152 177 203 152 177 203 152 177 203 152 177 203 152 177 203 152 177 203 152 177 203 152 177 203 152 177 203 152 177 203 152 177 203 152 177 203 152 177 203 152 177 203 152 177 203 152 177 203 152 177 203 152 177 203 152 177 203 152 177 203 152 177 203 152 177 203 152 177 203 152 177 203 152 177 203 152 177 203 152 177 203 152 177 203 152 177 203 152 177 203 152 177 203 152 177 203 152 177 203 152 177 203 152 177 203 152 177 203 152 177 203 152 177 203 152 177 203 152 177 203 152 177 203 152 177 203 152 177 203 152 177 203 152 177 203 152 177 203 152 177 203 152 177 203 152 177 203 152 177 203 152 177 203 152 177 203 152 177 203 152 177 203 152 177 203 152 177 203 152 177 203 152 177 203 152 176 203 152 176 203 152 176 203 152 176 203 152 176 203 152 176 203 152 176 203 152 176 203 152 176 203 152 176 203 152 176 203 152 176 203 152 176 203 152 176 203 152 176 203 152 176 203 152 176 203 152 176 203 152 176 203 152 176 203 152 176 203 152 176 203 152 176 203 152 176 203 152 176 203 152 176 203 152 176 203 152 176 203 152 176 203 152 176 203 152 176 203 152 176 203 152 176 203 152 176 203 152 176 203 152 176 203 152 176 203 152 176 203 152 176 203 152 176 203 152 176 203 152 176 203 152 176 203 152 176 203 152 176 203 152 176 203 152 176 203 152 176 203 152 176 203 152 176 203 152 176 203 152 176 203 152 176 203 152 176 203 152 176 203 152 176 203 152 176 203 152 176 203 152 176 203 152 176 203 152 176 203 152 176 203 152 176 203 152 176 203 152 176 203 152 176 203 152 176 203 152 176 203 152 176 203 152 176 203 152 176 203 152 176 203 152 176 203 152 176 203 152 176 203 152 176 203 152 176 203 152 176 203 152 176 203 152 176 203 152 176 203 152 176 203 152 176 203 152 176 203 152 176 203 152 176 203 152 176 203 152 176 203 152 176 203 152 176 203 152 176 203 152 176 203 152 176 203 152 176 203 152 176 203 152 176 203 152 176 203 152 176 203 152 176 203 152 176 203 152 176 203 152 176 203 152 176 203 152 176 203 152 176 203 152 176 203 152 176 203 152 176 203 152 176 203 152 176 203 152 176 203 152 176 203 152 176 203 152 176 203 152 176 203 152 176 203 152 176 203 152 176 203 152 176 203 152 176 203 152 176 203 152 176 203 152 176 203 152 176 203 152 176 203 152 176 203 152 176 203 152 176 203 
152 176 203 152 176 203 152 176 203 152 176 203 152 176 203 152 176 203 152 176 203 152 176 203 152 176 203 152 176 203 152 176 203 152 176 203 152 176 203 152 176 203 152 176 203 152 176 203 152 176 203 152 176 203 152 176 203 152 176 203 152 176 203 152 176 203 152 176 203 152 176 203 152 176 203 152 176 203 152 176 203 152 176 203 152 176 203 152 176 203 152 176 203 152 176 203 152 176 203 152 176 203 152 176 203 152 176 203 152 176 203 152 176 203 152 176 203 152 176 203 152 176 203 152 176 203 152 176 203 152 176 203 152 176 203 152 176 203 152 176 203 152 176 203 152 176 203 152 176 203 152 176 203 152 176 203 152 176 203 152 176 203 152 176 203 152 176 203 152 176 203 152 176 203 152 176 203 152 176 203 152 176 203 152 176 203 152 176 203 152 176 203 152 176 203 152 176 203 152 176 203 152 176 203 152 176 203 152 176 203 152 176 203 152 176 203 152 176 203 152 176 203 152 176 203 152 176 203 152 176 203 152 176 203 152 176 203 152 176 203 152 176 203 152 176 203 152 176 203 152 176 203 152 176 203 152 176 203 152 176 203 152 176 203 152 176 203 152 176 203 152 176 203 152 176 203 152 176 203 152 176 203 152 176 203 152 176 203 152 176 203 152 176 203 152 176 203 152 176 203 152 176 203 152 176 203 152 176 203 152 176 203 152 176 203 152 176 203 152 176 203 152 176 203 152 176 203 152 176 203 152 176 203 152 176 203 152 176 203 152 176 203 152 176 203 152 176 203 152 176 203 152 176 203 152 176 203 152 176 203 152 176 203 152 176 203 152 176 203 152 176 203 152 176 203 152 176 203 152 176 203 152 176 203 152 176 203 152 176 203 152 176 203 152 176 203 152 176 203 152 176 203 152 176 203 152 176 203 152 176 203 152 176 203 152 176 203 152 177 203 152 176 203 152 176 203 152 177 203 152 177 203 152 177 203 152 177 203 152 177 203 152 177 203 152 177 203 152 177 203 152 177 203 152 177 203 152 177 203 152 177 203 152 177 203 152 177 203 152 177 203 152 177 203 152 177 203 152 177 203 152 177 203 152 177 203 152 177 203 152 177 203 152 177 203 152 177 203 152 177 203 152 177 203 152 177 203 152 177 203 152 177 203 152 177 203 152 177 203 152 177 203 152 177 203 152 177 203 152 177 203 152 177 203 152 177 203 152 177 203 152 177 203 152 177 203 152 177 203 152 177 203 152 177 203 152 177 203 152 177 203 152 177 203 152 177 203 152 177 203 152 177 203 152 177 203 152 177 203 152 177 203 152 177 203 152 177 203 152 177 203 152 177 203 152 177 203 152 177 203 152 177 203 152 177 203 152 177 203 152 177 203 152 177 203 152 177 203 152 177 203 152 177 203 152 177 203 152 177 203 152 177 203 152 177 203 152 177 203 152 177 203 152 177 203 152 177 203 152 177 203 152 177 203 152 177 203 152 177 203 152 177 203 152 177 203 152 177 203 152 177 203 152 177 203 152 177 203 152 177 203 152 177 203 152 177 203 152 177 203 152 177 203 152 177 203 152 177 203 152 177 203 152 177 203 152 177 203 152 177 203 152 177 203 152 177 203 152 177 203 152 177 203 152 177 203 152 177 203 152 177 203 152 177 203 152 177 203 152 177 203 152 177 203 152 177 203 152 177 203 152 177 203 152 177 203 152 177 203 152 177 203 152 177 204 152 177 204 152 177 204 152 177 204 152 177 204 152 177 204 152 177 204 152 177 204 152 177 204 152 177 204 152 177 204 152 177 204 152 177 204 152 177 204 152 177 204 152 177 204 152 177 204 152 177 204 152 177 204 152 177 204 152 177 204 152 177 204 152 177 204 152 177 204 152 177 204 152 177 204 152 177 204 152 177 204 152 177 204 152 177 204 152 177 204 152 177 204 152 177 204 152 177 204 152 177 204 152 177 204 152 177 204 152 177 204 152 177 204 152 177 204 152 177 204 153 177 204 153 177 204 153 177 204 153 177 204 153 177 204 153 177 204 153 177 204 153 177 204 153 177 204 153 177 204 153 177 204 153 177 204 153 177 204 153 177 204 153 177 204 153 177 204 153 177 204 153 177 204 153 177 204 153 177 204 153 177 204 153 177 204 153 177 204 153 177 204 153 177 204 153 177 204 153 177 204 153 177 204 153 177 204 153 177 204 153 177 204 153 177 204 153 177 204 153 177 204 153 177 204 153 177 204 153 177 204 153 177 204 153 177 204 153 177 204 153 177 204 153 177 204 153 177 204 153 177 204 153 177 204 153 177 204 153 177 204 153 177 204 153 177 204 153 177 204 153 177 204 153 177 204 153 177 204 153 177 204 153 177 204 153 177 204 153 177 204 153 177 204 153 177 204 153 177 204 153 177 204 153 177 204 153 177 204 153 177 204 153 177 204 153 177 204 153 177 204 153 177 204 153 177 204 153 177 204 153 177 204 153 177 204 153 177 204 153 177 204 153 177 204 153 177 204 153 177 204 153 177 204 153 177 204 153 177 204 153 177 204 153 177 204 153 177 204 153 177 204 153 177 204 153 177 204 153 177 204 153 177 204 153 177 204 153 177 204 153 177 204 153 177 204 153 177 204 153 177 204 153 177 204 153 177 204 153 177 204 153 177 204 153 177 204 153 177 204 153 177 204 153 177 204 153 177 204 153 177 204 153 177 204 153 177 204 153 177 204 153 177 204 153 177 204 153 177 204 153 177 204 153 177 204 153 177 204 153 177 204 153 177 204 153 177 204 153 177 204 153 177 204 153 177 204 153 177 204 153 177 204 153 177 204 153 177 204 153 177 204 153 177 204 153 177 204 153 177 204 153 177 204 153 177 204 153 177 204 153 177 204 153 177 204 153 177 204 153 177 204 153 177 204 153 177 204 153 177 204 153 177 204 153 177 204 153 177 204 153 177 204 153 177 204 153 177 204 153 177 204 153 177 204 153 177 204 153 177 204 153 177 204 153 177 204 153 177 204 153 177 204 153 177 204 153 177 204 153 177 204 153 177 204 153 177 204 153 177 204 153 177 204 153 177 204 153 177 204 153 177 204 153 177 204 153 177 204 153 177 204 153 177 204 153 177 204 153 177 204 153 177 204 153 177 204 153 177 204 153 177 204 153 177 204 153 177 204 153 177 204 153 177 204 153 177 204 153 177 204 153 177 204 153 177 204 153 177 204 153 177 204 153 177 204 153 177 204 153 177 204 153 177 204 153 177 204 153 177 204 153 177 204 153 177 204 153 177 204 153 177 204 153 177 204 153 177 204 153 177 204 153 177 204 153 177 204 153 177 204 153 177 204 153 177 204 153 177 204 153 177 204 153 177 204 153 177 204 153 177 204 153 177 204 153 177 204 153 177 204 153 177 204 153 177 204 152 177 204 153 177 204 153 177 204 152 177 204 153 177 204 152 177 204 152 177 204 152 177 204 152 177 204 152 177 204 152 177 204 152 177 204 152 177 204 152 177 204 152 177 204 152 177 204 152 177 204 152 177 204 152 177 204 152 177 204 152 177 204 152 177 204 152 177 204 152 177 204 152 177 204 152 177 204 152 177 204 152 177 204 152 177 204 152 177 204 152 177 204 152 177 204 152 177 204 152 177 204 152 177 204 152 177 204 152 177 204 152 177 204 152 177 204 152 177 204 152 177 203 152 177 204 152 177 204 152 177 203 152 177 203 152 177 203 152 177 203 152 177 203 152 177 203 152 177 203 152 177 203 152 177 203 152 177 203 152 177 203 152 177 203 152 177 203 152 177 203 152 177 203 152 177 203 152 177 203 152 177 203 152 177 203 152 177 203 152 177 203 152 177 203 152 177 203 152 177 203 152 177 203 152 177 203 152 177 203 152 177 203 152 177 203 152 177 203 152 177 203 152 177 203 152 177 203 152 177 203 152 177 203 152 177 203 152 177 203 152 177 203 152 177 203 152 177 203 152 177 203 152 177 203 152 177 203 152 177 203 152 177 203 152 177 203 152 177 203 152 177 203 152 177 203 152 177 203 152 177 203 152 177 203 152 177 203 152 177 203 152 177 203 152 177 203 152 177 203 152 177 203 